<?xml version="1.0" encoding="UTF-8"?>
<map version="1.10" tiledversion="1.11.2" orientation="orthogonal" renderorder="right-down" width="12" height="12" tilewidth="16" tileheight="16" infinite="0" nextlayerid="10" nextobjectid="31">
 <tileset firstgid="1" name="farmhouse_tiles" tilewidth="16" tileheight="16" tilecount="264" columns="12">
  <image source="farmhouse_tiles.png" width="192" height="352"/>
 </tileset>
 <tileset firstgid="265" name="walls_and_floors" tilewidth="16" tileheight="16" tilecount="688" columns="16">
  <image source="walls_and_floors.png" width="256" height="688"/>
 </tileset>
 <tileset firstgid="953" name="townInterior" tilewidth="16" tileheight="16" tilecount="2176" columns="32">
  <image source="townInterior.png" width="512" height="1088"/>
 </tileset>
 <layer id="1" name="Back" width="12" height="12">
  <data encoding="csv">
601,601,601,601,601,601,602,602,602,602,602,602,
601,601,602,602,602,602,602,602,601,601,601,601,
617,601,601,601,601,601,601,601,602,602,602,602,
601,617,617,617,617,617,617,617,618,618,618,602,
601,601,602,602,602,617,617,617,617,617,617,618,
617,617,601,601,601,601,602,602,602,602,602,602,
601,601,601,602,601,601,601,602,602,602,602,602,
601,601,602,602,602,602,602,602,601,601,601,601,
601,602,602,618,618,618,618,618,601,0,0,602,
602,601,602,602,602,618,618,618,617,0,0,602,
602,601,602,618,618,602,602,602,602,602,617,618,
601,617,618,617,618,618,618,618,618,618,618,618
</data>
 </layer>
 <layer id="9" name="Back2" width="12" height="12">
  <data encoding="csv">
0,0,0,0,0,0,0,0,0,0,0,0,
0,0,0,0,0,0,0,0,0,0,0,0,
0,0,0,0,0,0,0,0,0,0,0,0,
0,0,0,0,0,0,0,0,0,0,0,0,
0,0,0,0,0,0,0,0,0,0,0,0,
0,0,0,0,0,0,0,0,0,0,0,0,
0,0,0,0,0,0,0,0,0,93,94,0,
0,0,0,0,1201,1202,1203,0,0,105,106,0,
0,0,0,0,1233,1234,1235,0,0,0,0,0,
0,0,0,0,0,0,0,0,0,0,0,0,
0,0,0,0,0,0,0,0,0,0,0,0,
0,0,0,0,0,0,0,0,0,0,0,0
</data>
 </layer>
 <layer id="4" name="Front" width="12" height="12">
  <data encoding="csv">
953,954,955,955,955,955,955,955,1619,1620,956,953,
985,986,987,1178,987,987,987,987,1651,1652,988,989,
1017,1018,1019,1210,1019,1019,1019,1019,1683,1684,1020,1021,
1017,1050,1051,1051,1051,1051,1051,1051,1715,1716,1052,1021,
1017,1082,0,0,0,0,0,0,1747,1748,1084,1021,
1017,0,0,0,0,0,0,0,0,0,0,1021,
1017,0,0,0,0,0,0,0,0,0,0,1021,
1017,1455,0,0,0,0,0,0,0,0,0,1021,
1017,1487,0,0,0,0,0,0,0,117,118,1021,
1113,1114,1115,0,1116,1118,1118,1118,1149,129,130,1120,
953,953,1017,0,1021,953,953,953,953,953,953,953,
953,953,1049,1091,1083,953,953,953,953,953,953,953
</data>
 </layer>
 <layer id="5" name="AlwaysFront" width="12" height="12">
  <data encoding="csv">
0,0,0,0,0,0,0,0,0,0,0,0,
0,0,0,0,0,0,0,0,0,0,0,0,
0,0,0,0,0,0,0,0,0,0,0,0,
0,151,152,0,1442,1425,1427,0,0,0,0,0,
0,163,164,0,1474,1457,1459,0,0,0,0,0,
0,175,176,0,0,1489,1491,0,0,0,0,0,
0,0,0,0,0,0,0,0,0,0,0,0,
0,0,0,0,0,0,0,0,0,0,0,0,
0,0,0,0,0,0,0,0,0,0,0,0,
0,0,0,0,0,0,0,0,0,0,1119,1120,
0,0,0,0,0,0,0,0,0,0,0,0,
0,0,0,0,0,0,0,0,0,0,0,0
</data>
 </layer>
 <layer id="6" name="AlwaysFront2" width="12" height="12">
  <data encoding="csv">
0,0,0,0,0,0,0,0,0,0,0,0,
0,0,0,0,0,0,0,0,0,0,0,0,
0,0,0,0,0,0,0,0,0,0,0,0,
0,0,0,0,0,0,0,0,0,0,0,0,
0,0,0,0,0,1319,0,0,0,0,0,0,
0,0,0,0,0,0,0,0,0,0,0,0,
0,0,0,0,0,0,0,0,0,0,0,0,
0,0,0,0,0,0,0,0,0,0,0,0,
0,0,0,0,0,0,0,0,0,0,0,0,
0,0,0,0,0,0,0,0,1148,1148,0,0,
0,0,0,0,0,0,0,0,0,0,0,0,
0,0,0,0,0,0,0,0,0,0,0,0
</data>
 </layer>
 <objectgroup id="7" name="Collisions">
  <object id="1" x="7.75" y="28.75" width="6.5" height="118.25"/>
  <object id="2" x="21" y="152.75" width="25.5" height="6.5"/>
  <object id="3" x="41.75" y="159.75" width="5.25" height="32.25"/>
  <object id="4" x="65.25" y="153.75" width="6.25" height="37.5"/>
  <object id="5" x="47.75" y="186.25" width="16.5" height="5.25"/>
  <object id="6" x="72.75" y="152.5" width="99.75" height="6.5"/>
  <object id="7" x="177" y="30.75" width="7" height="115.75"/>
  <object id="8" x="175.063" y="146.688" width="5.625" height="5.375"/>
  <object id="9" x="171.375" y="151.125" width="6.1875" height="4.375"/>
  <object id="10" x="10.2727" y="147.818" width="7.09091" height="11.6364"/>
  <object id="11" x="17.1818" y="149.182" width="3.36364" height="12.0909"/>
  <object id="12" x="30" y="8.25" width="98" height="6.75"/>
  <object id="14" x="15.75" y="49.5" width="32" height="44"/>
  <object id="15" x="81.5" y="60.25" width="29.5" height="32.5"/>
  <object id="16" x="65.75" y="53.25" width="12.5" height="13.0455"/>
  <object id="17" x="128.25" y="31.25" width="32.5" height="49.25"/>
  <object id="18" x="48.3182" y="32.25" width="15.75" height="15.75"/>
  <object id="21" x="110.75" y="32.75" width="17.25" height="15.25"/>
  <object id="22" x="162.727" y="54.7273" width="9.45455" height="13.8182"/>
  <object id="23" x="165.818" y="60.1818" width="7.45455" height="12"/>
  <object id="24" x="168.909" y="65.6364" width="7.09091" height="7.81818"/>
  <object id="25" x="171.455" y="70.1818" width="4.54545" height="7.45455"/>
  <object id="26" x="18.25" y="112.25" width="13" height="29.75"/>
 </objectgroup>
 <objectgroup id="8" name="Action">
  <object id="30" name="Action" x="48" y="171.5" width="16" height="13.125"/>
 </objectgroup>
</map>
