<?xml version="1.0" encoding="UTF-8"?>
<map version="1.10" tiledversion="1.11.2" orientation="orthogonal" renderorder="right-down" width="65" height="30" tilewidth="16" tileheight="16" infinite="0" nextlayerid="11" nextobjectid="90">
 <tileset firstgid="1" source="spring_outdoorsTileSheet2.tsx"/>
 <tileset firstgid="1121" name="spring_BusStop" tilewidth="16" tileheight="16" tilecount="896" columns="32">
  <image source="spring_BusStop.png" width="512" height="448"/>
 </tileset>
 <tileset firstgid="2017" source="spring_outdoorsTileSheet.tsx"/>
 <tileset firstgid="3992" name="spring_town" tilewidth="16" tileheight="16" tilecount="2304" columns="32">
  <image source="spring_town" width="512" height="1152"/>
 </tileset>
 <layer id="1" name="Back" width="65" height="30">
  <data encoding="csv">
2192,2192,2192,2192,2192,2367,2368,2322,2321,2368,2368,2368,2368,2368,3093,2368,2395,2346,2397,2397,2397,2397,2397,2397,2397,2397,2397,2192,2192,2192,2397,2397,2397,2367,2392,2368,2397,2422,2422,2422,2422,2422,2423,2370,2394,2392,2293,2294,2295,2393,2394,2192,2367,2368,2368,2368,2368,2368,2368,2392,2393,2394,2367,2346,2346,
2192,2192,2192,2192,2192,2392,2393,2293,2294,2295,2420,2397,2423,2368,3093,2393,2420,2346,2422,2422,2422,2422,2424,2397,2397,2397,2422,2422,2346,2424,2397,2397,2397,2332,2397,2393,2293,2294,2295,2393,2293,2294,2295,2394,2192,2192,2192,2192,2192,2192,2192,2168,2367,2368,2368,2368,2368,2368,2368,2368,2397,2342,2345,2346,2346,
2192,2192,2192,2192,2192,2192,2192,2192,2192,2192,2392,2420,2368,2368,3093,2271,2367,2346,2368,2322,2346,2317,2421,2422,2422,2422,2370,2393,2420,2421,2424,2397,2368,2357,2397,2397,2397,2192,2192,2192,2192,2192,2192,2192,2192,2192,2192,2192,2192,2192,2192,2192,2392,2293,2294,2295,2420,2321,2368,2346,2346,2368,2368,2346,2346,
2192,2192,2192,2192,2192,2192,2192,2192,2192,2192,2392,2392,2420,2369,3093,2167,2392,2293,2294,2295,2393,2420,2368,2322,2321,2368,2369,2168,2392,2420,2421,2422,2424,2531,2397,2397,2397,2192,2192,2192,2192,2192,2192,2192,2192,2192,2192,2192,2192,2192,2192,2192,2192,2192,2192,2192,2392,2393,2392,2393,2393,2393,2393,2346,2368,
2368,2368,2368,2368,2368,2368,2368,2368,2368,2368,2368,2368,2392,2394,3092,2192,2192,2192,2192,2192,2271,2392,2393,2293,2294,2295,2417,2192,2192,2392,2393,2420,2421,2422,2397,2397,2397,2368,2368,2368,2368,2368,2368,2368,2368,2368,2368,2368,2368,2368,2368,2368,2368,2368,2368,2368,2368,2192,2278,2396,2397,2367,2368,2368,2368,
2393,2293,2294,2295,2393,2393,2393,2393,2393,2393,2393,2393,2192,2192,2418,2192,2192,2192,2273,2192,2167,2192,2192,2167,2168,2167,2417,2192,2192,2192,2271,2392,2393,2293,2294,2295,2293,2294,2295,2393,2293,2294,2295,2393,2393,2393,2293,2294,2295,2393,2293,2295,2393,2393,2393,2393,2393,2393,2393,2393,2393,2393,2393,2393,2393,
3045,3045,3045,3044,3045,3045,3045,3045,3044,3045,3044,3045,3045,3044,3045,3044,3045,3045,3045,3048,3044,3045,3045,3045,3045,3045,3045,3045,3044,3045,3045,3045,3044,3045,3045,3045,3045,3045,3044,3045,3045,3045,3045,3045,3044,3045,3045,3045,3044,3045,3045,3045,3045,3045,3045,3045,3045,2368,2328,3044,3044,2192,2192,2367,2368,
3071,3071,3071,3071,3071,3071,3071,3071,3071,3071,3071,3071,3071,3071,3071,3071,3071,3071,3071,3047,3071,3071,3071,3071,3071,3071,3071,3071,3071,3071,3071,3071,3071,3071,3071,3071,3071,3071,3071,3071,3071,3071,3071,3071,3071,3071,3071,3071,3071,3071,3071,3071,3071,3071,3071,3071,3071,2368,2367,3071,3071,2344,2342,2345,2317,
3073,3073,3073,3073,3073,3073,3073,3073,3073,3073,3071,3073,3073,3073,3073,3073,3073,3073,3073,3047,3073,3073,3073,3073,3073,3073,3073,3073,3073,3073,3073,3073,3073,3073,3073,3073,3073,3073,3073,3073,3073,3073,3073,3073,3073,3073,3073,3073,3073,3073,3073,3073,3073,3073,3073,3073,3073,2368,2278,3073,3073,2394,2367,2368,2346,
2192,2192,3071,3071,3071,3071,3071,3071,3071,3071,3071,3071,3071,3071,3071,3071,3071,3071,3071,3047,3071,3071,3071,3071,3071,3071,3071,3071,3071,3071,3071,3071,3071,3071,3071,3071,3071,3071,3071,3071,3071,3071,3071,3071,3071,3071,3071,3071,3071,3071,3071,3071,3071,3071,3071,3071,3071,2168,2303,3071,3071,2192,2367,2368,2368,
2319,2320,2344,2192,3070,3070,3070,3070,2192,2192,3070,3070,3070,3070,3070,3070,3070,3070,3070,3095,3070,3070,3070,3070,3070,3070,3070,3070,3070,3070,3070,3070,3070,3070,3070,3070,3070,3070,3070,3070,3070,3070,3070,3070,3070,3070,3070,3070,3070,3070,3070,3070,3070,3070,3070,3070,3070,2344,2303,3070,3070,2397,2392,2420,2368,
2368,2317,2395,2318,2319,2320,2318,2319,2320,2343,2345,2344,2343,2344,3067,3068,3068,3068,3068,3068,3068,3068,3068,3068,3068,3068,3068,3068,3068,3069,2418,2192,2167,2192,2192,2168,2417,2192,2167,2342,2343,2343,2343,2343,2343,2343,2343,2319,2192,2192,2342,2343,2343,2345,2343,2346,2346,2343,2343,2343,2343,2343,2168,2392,2420,
2321,2368,2371,2372,2372,2373,2322,2368,2368,2368,2368,2369,2368,2395,2319,2344,2167,2192,2192,2192,2167,2192,2217,2220,2192,2192,2192,2192,2167,2192,2192,2342,2343,2344,2217,2218,2218,2220,2192,2367,2396,2397,2368,2371,2372,2372,2373,2368,2369,2192,2392,2420,2346,2346,2370,2293,2295,2394,2367,2368,2371,2372,2368,2192,2367,
2346,2368,2421,2422,2422,2423,2294,2295,2420,2317,2368,2369,2397,2373,2368,2369,2192,2168,2217,2218,2220,2217,2219,2245,2167,2192,2273,2217,2218,2220,2168,2367,2368,2369,2242,2243,2248,2245,2192,2278,2368,2368,2368,2396,2397,2397,2398,2397,2397,2217,2220,2392,2393,2393,2394,2342,2343,2344,2392,2420,2396,2397,2397,2397,2392,
2393,2293,2294,2295,2393,2394,2368,2368,2392,2420,2368,2369,2422,2398,2368,2369,2192,2418,2242,2606,2245,2242,2631,2245,2418,2192,2217,2219,2248,2245,2192,2392,2393,2394,2267,2268,2268,2270,2192,2303,2371,2372,2373,2396,2397,2398,2423,2396,2418,2267,2270,2192,2168,2342,2344,2367,2321,2369,2192,2367,2421,2422,2424,2397,2168,
2368,2368,2368,2368,2168,2192,2368,2368,2343,2345,2368,2398,2321,2398,2368,2369,2192,2192,2267,2268,2270,2242,2244,2194,2220,2167,2242,2199,2244,2194,2220,2192,2273,2192,2192,2167,2192,2418,2192,2328,2396,2397,2398,2421,2422,2423,2368,2396,2397,2192,2192,2192,2192,2392,2394,2392,2393,2394,2192,2392,2393,2420,2396,2397,2397,
2368,2368,2368,2368,2368,2368,2368,2368,2370,2293,2295,2398,2322,2398,2368,2369,2192,2192,2192,2418,2192,2267,2269,2480,2194,2220,2267,2246,2247,2221,2270,2273,2273,2192,2192,2192,2192,2192,2167,2367,2421,2422,2423,2372,2373,2368,2368,2396,2397,2192,2192,2192,2192,2192,2192,2192,2192,2342,2318,2320,2344,2367,2421,2422,2422,
2393,2293,2294,2295,2367,2368,2368,2370,2394,0,2397,2372,2396,2398,2368,2369,2192,2192,2167,2192,2217,2220,2267,2269,2244,2245,2217,2218,2220,2273,2418,2192,2273,2192,2192,2418,2192,2192,2417,2367,2346,2368,2396,2397,2398,2368,2368,2396,2397,2397,2397,2397,2397,2397,2397,2192,2192,2367,2368,2368,2369,2392,2293,2294,2295,
0,0,0,0,2392,2293,2295,2394,0,0,2397,2397,2397,2398,2368,2395,2343,2344,2417,2192,2267,2270,2418,2242,2577,2245,2242,2198,2194,2220,2192,2192,2192,2167,2342,2343,2344,2168,2192,2278,2346,2368,2421,2422,2423,2368,2368,2421,2422,2424,2397,2397,2397,2397,2397,2168,2192,2392,2393,2393,2394,2192,2192,2192,2192,
2397,2397,2397,2397,2368,2368,2368,2368,2368,2368,2397,2397,2397,2398,2321,2322,2321,2395,2318,2319,2320,2344,2217,2219,2195,2270,2267,2268,2268,2270,2417,2167,2192,2418,2367,2368,2369,2192,2192,2303,2346,2368,2346,2321,2317,2368,2346,2346,2317,2396,2397,2397,2397,2173,2397,2368,2368,2368,2368,2368,2368,2397,2397,2397,2397,
2422,2422,2422,2422,2368,2368,2368,2368,2368,2368,2422,2422,2422,2423,2368,2368,2322,2368,2321,2368,2368,2369,2267,2269,2194,2220,2342,2343,2343,2417,2343,2343,2343,2192,2392,2393,2394,2192,2192,2328,2346,2368,2321,2368,2321,2368,2346,2346,2368,2421,2422,2422,2422,2422,2422,2422,2422,2422,2422,2422,2422,2422,2422,2422,2422,
2368,2370,2393,2393,2393,2393,2393,2393,2393,2393,2393,2393,2393,2393,2393,2393,2393,2393,2393,2393,2393,2394,2417,2242,2243,2245,2392,2393,2393,2393,2393,2273,2273,2273,2273,2273,2273,2273,2273,2273,2393,2393,2393,2393,2393,2393,2393,2393,2393,2393,2393,2393,2393,2393,2393,2393,2393,2393,2393,2393,2393,2420,2346,2346,2346,
2393,2394,2197,2197,2218,2196,2197,2222,2218,2218,2218,2218,2196,2197,2222,2218,2196,2222,2218,2218,2196,2197,2222,2219,2244,2194,2218,2196,2222,2218,2218,2196,2197,2197,2222,2218,2218,2196,2222,2218,2218,2196,2197,2197,2218,2218,2218,2218,2218,2218,2218,2218,2218,2218,2218,2218,2218,2218,2218,2218,2220,2392,2393,2393,2393,
2170,2170,2170,2170,2170,2170,2170,2170,2170,2170,2244,2244,2505,2243,2224,2243,2244,2243,2244,2627,2244,2244,2248,2243,2244,2244,2243,2223,2243,2243,2581,2244,2243,2243,2248,2244,2244,2627,2243,2243,2606,2530,2243,2243,2170,2170,2170,2170,2170,2170,2170,2170,2170,2170,2170,2170,2170,2170,2170,2170,2170,2170,2170,2170,2170,
2268,2268,2268,2268,2268,2268,2268,2268,2268,2246,2247,2247,2221,2268,2268,2268,2246,2247,2247,2221,2268,2268,2246,2247,2247,2221,2268,2268,2246,2247,2221,2268,2246,2247,2247,2221,2268,2268,2246,2247,2221,2268,2246,2247,2268,2268,2268,2268,2268,2268,2268,2268,2268,2268,2268,2268,2268,2268,2368,2368,2368,2368,2368,2368,2368,
2343,2343,2343,2343,2343,2318,2319,2320,2343,2318,2319,2320,2343,2343,2418,2343,2343,2343,2343,2343,2343,2343,2417,2168,2418,2343,2343,2418,2343,2343,2343,2343,2343,2343,2343,2343,2343,2192,2192,2417,2192,2192,2417,2167,2342,2343,2343,2371,2372,2397,2397,2397,2397,2397,2397,2395,2343,2345,2371,2371,2371,2372,2397,2397,2397,
2346,2346,2346,2346,2346,2346,2346,2371,2372,2372,2373,2368,2368,2368,2368,2368,2368,2368,2368,2368,2368,2368,2368,2368,2368,2368,2368,2368,2368,2368,2368,2368,2368,2368,2368,2368,2368,2343,2343,2343,2343,2343,2343,2343,2345,2368,2322,2396,2397,2397,2397,2397,2397,2397,2397,2397,2397,2397,2397,2397,2397,2397,2397,2397,2397,
2372,2372,2373,2371,2372,2372,2373,2396,2397,2397,2398,2321,2368,2368,2393,2393,2393,2368,2368,2368,2368,2368,2368,2368,2368,2368,2368,2368,2368,2372,2372,2372,2372,2372,2368,2368,2368,2372,2372,2372,2372,2372,2372,2372,2368,2368,2321,2396,2397,2397,2397,2397,2397,2397,2397,2374,2396,2397,2374,2423,2396,2397,2397,2397,2397,
2397,2397,2398,2396,2397,2397,2398,2421,2422,2422,2423,2368,2368,2368,2343,2343,2343,2368,2273,2368,2368,2368,2368,2368,2368,2368,2368,2368,2368,2397,2397,2397,2397,2368,2368,2397,2368,2397,2397,2397,2397,2397,2397,2397,2368,2368,2396,2397,2397,2397,2397,2397,2397,2397,2397,2398,2421,2422,2423,2368,2421,2424,2397,2397,2397,
2422,2422,2423,2421,2422,2422,2423,2346,2368,2368,2368,2368,2368,2368,2368,2368,2368,2368,2368,2368,2368,2368,2368,2368,2368,2397,2368,2368,2368,2397,2397,2397,2397,2368,2368,2368,2368,2397,2397,2397,2397,2397,2397,2397,2368,2322,2421,2422,2422,2397,2397,2423,2421,2422,2422,2423,2368,2368,2368,2368,2368,2396,2397,2397,2397
</data>
 </layer>
 <layer id="2" name="Buildings" width="65" height="30">
  <data encoding="csv">
2186,2192,2192,2174,2175,2160,2161,2322,2321,2149,2150,2160,2161,2368,0,2368,2395,2346,2401,2402,2143,2400,2401,2402,2143,2375,2376,2556,2532,2531,2507,2482,2307,2308,2367,2421,2422,2080,2081,2082,2274,2174,2175,2370,2146,2392,2293,2294,2295,401,403,404,2462,2463,387,386,387,377,378,2130,2131,381,382,385,386,
2485,2484,2485,2481,2457,2185,2186,2293,2294,2174,2175,2185,2186,2118,2145,2145,2145,0,0,0,0,0,0,0,0,2400,2401,2402,2557,2556,2532,2531,2332,2458,2392,2324,2293,2294,2274,2393,2293,2294,2295,2324,2359,2385,2463,2485,2484,2485,405,2168,401,402,403,402,403,393,394,395,396,397,398,401,402,
2510,2509,2510,2506,2482,2484,2485,2463,2485,2487,2392,2186,0,2143,2145,2145,2145,2160,2161,0,0,0,0,0,0,0,0,0,0,0,2557,2556,2357,2483,2463,2485,2484,2485,2484,2485,2484,2485,2484,2485,2384,2410,2509,2510,2509,2510,421,422,2130,2131,2294,2295,2420,2321,410,411,412,413,2160,2161,2368,
2535,2534,2535,2531,2507,2509,2510,2509,2510,2512,2513,0,0,0,2975,3097,3098,2185,2186,0,0,0,0,0,0,0,0,0,0,0,0,0,2557,2508,2509,2510,2509,2510,2509,2510,2509,2510,2509,2510,2409,2435,2534,2535,2534,2535,437,438,386,387,377,378,2392,2393,2392,2393,2393,2393,2185,2186,2368,
2560,2559,2560,2556,2532,2534,2535,2534,2535,2537,2538,2539,0,0,0,0,0,0,0,0,0,0,0,0,0,2174,2175,0,0,0,0,0,0,2533,2534,2535,2534,2535,2534,2535,2534,2535,2534,2535,2434,2460,2559,2560,2559,2560,453,454,402,403,393,394,373,386,387,386,387,386,387,386,396,
2119,2080,2081,2082,2557,2559,2560,2559,2560,2562,2563,2564,2565,0,0,0,0,0,2249,0,0,0,0,0,0,0,0,0,0,0,0,0,0,2558,2559,2560,2559,2560,2559,2560,2559,2560,2559,2560,2459,2080,2081,2082,2295,2393,2130,2131,2393,2393,2393,410,389,402,403,402,403,402,403,402,412,
2119,2119,2119,2119,2119,2119,2119,2119,2119,2119,2119,0,0,0,0,0,0,0,0,0,0,0,0,0,0,0,0,0,0,0,0,0,0,0,0,0,0,0,0,0,0,0,0,0,3045,3045,3045,3045,3044,3044,3044,3044,3044,3044,3044,3044,3044,3044,3044,3044,3044,3044,3044,3044,3044,
2119,2119,2119,2119,2119,2119,2119,2119,2119,2119,2119,0,0,0,0,0,0,0,0,0,0,3071,3071,3071,3071,3071,3071,3071,3071,0,0,0,0,0,0,0,0,0,0,0,0,0,0,0,3071,3071,3071,3071,3071,3071,3071,3071,3071,3071,3071,3071,3071,3071,3071,3071,3071,3071,3071,3071,3071,
2119,2119,2119,2119,2119,2119,2119,2119,2119,2119,2119,0,0,0,0,0,0,0,0,0,0,3073,3073,3099,3073,3073,3099,3073,3073,0,0,0,0,0,0,0,0,0,0,0,0,0,0,0,3073,3073,3073,3073,3073,3073,3073,3073,3073,3073,3073,3073,3073,3073,3073,3073,3073,3073,3073,3073,3073,
2119,2119,2119,2119,2119,2119,2119,2119,2119,2119,2119,0,0,0,0,0,0,0,0,0,0,3071,0,3071,3071,3071,3071,3071,3071,0,0,0,0,0,0,0,0,0,0,0,0,0,0,0,3071,3071,3071,3071,3071,3071,3071,3071,3071,3071,3071,3071,3071,3071,3071,3071,3071,3071,3071,3071,3071,
2119,2119,2119,2119,2119,2119,2119,2119,2119,2119,2342,2119,2119,0,0,0,0,0,0,0,0,0,0,0,0,0,0,0,0,0,0,0,0,0,0,0,0,0,0,0,0,0,0,0,3070,3070,3070,2408,2192,2192,2192,2192,2192,2342,2343,2343,2343,2344,2192,2192,2167,2192,2192,2161,3070,
2368,2317,2395,2318,2319,2320,2318,0,0,2343,2345,2369,2436,0,0,0,0,3074,0,0,0,0,0,0,0,0,0,0,0,0,0,0,0,0,0,0,0,0,0,0,2160,2161,2343,2400,2401,2401,2402,2433,2143,2080,2081,2082,2160,2161,2317,2343,2368,2369,2343,2146,2343,369,2185,2186,2420,
2321,2368,2371,2372,2372,2373,2322,0,0,2368,2368,2369,2411,0,0,0,0,0,0,0,0,0,0,0,0,0,0,0,0,0,0,0,0,0,0,0,0,0,0,0,2185,2186,2368,2371,2174,2175,2249,2408,2192,2167,2392,2420,2185,2186,2370,2293,2295,2394,2367,2368,2371,2462,373,374,2367,
2346,2368,2421,2422,2422,2423,2294,2295,2420,2317,2368,2249,2436,0,0,2249,0,0,0,0,0,0,0,0,0,0,2249,0,0,0,0,0,0,0,0,0,0,0,0,0,2403,2368,2317,2396,2397,2397,2398,2433,2192,2217,2220,2130,2131,2393,2394,2342,2343,2344,2392,2420,2396,401,389,390,2392,
2393,2293,2294,2295,2393,2394,375,439,2392,2420,2146,2274,2411,2403,0,0,0,0,0,0,0,0,0,0,0,0,0,0,0,0,0,0,0,0,0,0,0,0,0,0,2403,2372,2373,2396,2397,2374,2274,2408,2418,2267,2270,2192,2168,2342,2344,2367,2321,2369,2192,2367,2421,0,0,369,2168,
386,387,377,378,2168,2249,402,455,456,2345,2324,2369,2436,2403,0,0,0,0,0,0,0,0,0,0,0,0,0,0,0,0,0,0,2249,0,0,0,0,0,0,0,2403,2397,2398,2421,2422,2423,2368,2433,2417,2192,2192,2192,2192,2392,2394,2392,2393,2394,2192,2392,2393,2420,2396,385,386,
402,403,393,394,2463,387,388,2130,2131,2293,2295,2394,2461,2403,0,0,0,0,0,0,0,0,0,0,0,0,0,0,0,0,0,0,0,0,0,0,0,0,0,0,2403,2422,2031,2032,2143,2368,2368,386,387,386,387,386,387,373,374,2081,2082,2342,2149,2150,2344,2367,2421,401,402,
2393,2293,2143,410,402,403,404,2370,2394,472,2463,2485,2486,2403,2249,0,0,0,0,0,0,0,0,0,0,0,0,0,0,0,0,0,0,0,0,0,0,0,0,0,2403,2368,2056,2057,2398,2368,2368,402,403,402,403,402,403,389,390,2192,2192,2367,2174,2175,2369,2392,2293,2130,2131,
386,387,377,378,2392,2080,2081,2082,487,488,2509,2464,2511,2403,0,0,0,0,0,0,0,0,0,0,0,0,0,0,0,0,0,0,0,0,0,0,0,0,0,0,2403,2368,2081,2082,2423,2368,2368,2421,2422,2424,2397,2397,2130,2131,369,2168,2192,2130,2131,2393,2394,381,382,386,387,
402,403,393,394,386,387,2463,387,503,504,2465,2535,2536,2403,2160,2161,0,0,0,0,0,0,0,0,0,0,0,0,0,0,0,0,0,0,0,0,0,0,0,0,2428,2368,2324,2321,2317,2368,2346,2346,2317,2396,0,0,2324,2173,2462,386,387,2463,387,386,387,397,398,402,403,
2130,2131,2324,410,402,403,402,403,519,520,2559,2560,2561,2428,2185,2186,0,0,0,0,0,0,0,0,0,0,0,0,0,0,0,0,0,0,0,0,0,0,0,0,2453,2274,2321,2368,2321,2160,2161,2130,2131,2421,0,0,2422,2422,401,402,403,402,403,402,403,413,2080,2081,2082,
2401,2401,2451,2401,2401,2401,2402,2401,2401,2401,2401,2401,2402,2453,2400,2401,2451,2401,2402,2401,2402,0,0,0,0,0,2400,2401,2401,2401,2400,2401,2402,2401,2401,2402,2402,2401,2400,2451,2402,2401,2401,2402,2402,2185,2186,2400,2401,2402,2401,2401,2451,2401,2401,2401,2451,2401,2402,2401,2401,2451,2401,2401,2401,
2393,2394,2197,2197,2218,2196,2197,2222,2218,0,0,0,0,0,0,0,0,0,0,0,0,2452,0,0,0,0,0,0,0,0,0,0,0,0,0,0,0,0,0,0,0,0,0,0,0,2218,2218,2218,2218,2218,2218,2218,2218,2218,2218,2218,2218,2218,2218,2218,2220,2392,2393,2393,2393,
2170,2170,2170,2170,2170,2170,2170,2170,2244,0,0,0,0,0,0,0,0,0,0,0,0,0,0,0,0,0,0,0,0,0,0,0,0,0,0,0,0,0,0,0,0,0,0,0,0,2244,2170,2170,2170,2170,2170,2170,2170,2170,2170,2170,2170,2170,2170,2170,2270,2167,2167,2170,2170,
2268,2268,2268,2268,2268,2268,2268,2268,2221,0,0,0,0,0,0,0,0,0,0,0,0,0,0,0,0,0,0,0,0,0,0,0,0,0,0,0,0,0,0,0,0,0,0,0,0,2268,2268,2268,2268,2268,2268,2268,2268,2268,2268,2268,2268,2268,2368,2343,2343,2343,2343,2368,2368,
2343,2343,2343,2343,2343,2318,2319,2320,2343,0,0,0,0,0,0,0,0,0,0,0,0,0,0,0,0,0,0,0,0,0,0,0,0,0,0,0,0,0,0,0,0,0,0,0,0,2343,2343,2371,2372,2397,2397,2397,2397,2397,2397,2395,2343,2345,2371,2371,2371,2371,2371,2371,2397,
2401,2402,2401,2401,2401,2401,2402,2401,2400,2401,2402,2401,2400,2400,2401,2401,2400,2401,2402,2401,2401,2401,2401,2400,2401,2401,2401,2402,2401,2401,2451,2401,2402,2402,2401,2400,2402,2401,2400,2401,2400,2402,2401,2400,2401,2402,2401,2400,2401,2401,2401,2401,2401,2401,2401,2401,2451,2401,2401,2401,2401,2401,2401,2401,2401,
2160,2161,2130,2131,0,0,2373,2396,2185,2186,2398,2321,2368,2370,2080,2081,2082,2393,2293,2294,2295,2420,2372,2372,2372,2372,2372,2372,2372,2030,2031,2032,2372,2274,2372,2372,2372,2372,2324,2130,2131,2032,2372,2397,0,0,2321,2396,2160,2161,2080,2081,2082,2397,2397,2130,2131,2185,2186,0,0,2146,2397,0,0,
2185,2186,2398,2396,0,0,2398,2421,2422,2422,2423,2368,2322,2395,2343,2343,2343,2318,2319,2320,2344,2367,2397,2397,2397,2397,2397,2397,2397,2055,2056,2057,2397,2397,2397,2324,2397,2397,2397,2055,2056,2057,2397,2397,2368,2368,2396,2397,2185,2186,2397,2397,2397,2397,2397,2398,2421,2422,2423,2368,2421,2424,0,0,0,
2106,2422,2423,2421,2422,2422,2423,2143,2055,2056,2057,2368,2317,2368,2368,2321,2322,2321,2368,2368,2369,2367,2397,2397,2397,2274,2397,2397,2397,2080,2081,2082,2397,2397,2397,2397,2397,2397,2397,2080,2081,2082,2397,2397,2368,2322,2421,2422,2422,2397,2397,2423,2421,2422,2422,2423,2368,2368,2368,2368,2368,2396,0,0,0
</data>
 </layer>
 <layer id="3" name="Buildings2" width="65" height="30">
  <data encoding="csv">
0,0,0,0,0,0,0,0,0,0,0,0,0,0,0,0,0,0,0,0,0,0,0,0,0,0,0,0,0,0,0,0,0,0,0,0,0,0,0,0,0,0,0,0,0,0,0,0,0,0,0,0,0,0,0,0,5,0,0,0,0,0,0,0,0,
0,0,0,0,0,0,0,0,0,0,0,0,0,0,0,0,0,0,0,0,0,0,0,0,0,0,0,0,0,0,0,4,0,0,0,0,0,0,0,0,0,0,0,0,0,0,0,0,0,0,0,0,0,0,0,0,0,0,0,0,0,0,0,0,0,
0,0,0,0,0,0,0,0,0,0,0,0,0,0,0,0,0,0,0,0,0,0,0,0,0,0,0,0,0,0,0,0,0,0,0,0,0,0,0,0,0,0,0,5,0,0,0,0,0,4,0,0,0,0,0,0,0,0,0,0,0,0,0,0,0,
4,0,0,0,0,0,0,0,0,0,0,0,0,0,0,0,0,0,0,0,0,0,0,0,0,0,0,0,0,0,0,0,0,0,0,0,4,0,0,5,0,0,0,0,0,0,0,0,0,0,0,0,0,5,0,0,0,0,0,0,0,0,0,0,0,
0,0,0,0,0,0,0,0,4,0,0,0,0,0,0,0,0,0,0,0,0,0,0,0,0,0,0,0,0,0,0,0,0,0,0,0,0,0,0,0,0,0,4,0,0,0,0,0,0,0,0,0,0,0,0,0,0,0,0,0,5,0,0,0,4,
0,0,0,0,0,0,0,0,0,0,0,0,0,0,0,0,0,0,0,0,0,0,0,0,0,0,0,0,0,0,0,0,0,0,0,0,0,0,0,0,0,0,0,0,0,0,0,0,0,0,0,0,0,0,0,0,0,0,0,0,0,0,0,0,0,
0,0,0,0,0,0,0,0,0,0,0,0,0,0,0,0,0,0,0,0,0,0,0,0,0,0,0,0,0,0,0,0,0,0,0,0,0,0,0,0,0,0,0,0,0,0,0,0,0,0,0,0,0,0,0,0,0,0,0,0,0,0,0,0,0,
0,0,0,0,0,0,0,0,0,0,0,0,0,0,0,0,0,0,0,0,0,0,0,0,0,0,0,0,0,0,0,0,0,0,0,0,0,0,0,0,0,0,0,0,0,0,0,0,0,0,0,0,0,0,0,0,0,0,0,0,0,0,0,0,0,
0,0,0,0,0,0,0,0,0,0,0,0,0,0,0,0,0,0,0,0,0,0,0,0,0,0,0,0,0,0,0,0,0,0,0,0,0,0,0,0,0,0,0,0,0,0,0,0,0,0,0,0,0,0,0,0,0,0,0,0,0,0,0,0,0,
0,0,0,0,0,0,0,0,0,0,0,0,0,0,0,0,0,0,0,0,0,0,0,0,0,0,0,0,0,0,0,0,0,0,0,0,0,0,0,0,0,0,0,0,0,0,0,0,0,0,0,0,0,0,0,0,0,0,0,0,0,0,0,0,0,
0,0,0,0,0,0,0,0,0,0,0,0,0,0,0,0,0,0,0,0,0,0,0,0,0,0,0,0,0,0,0,0,0,0,0,0,0,0,0,0,0,0,0,0,0,0,0,0,0,0,0,0,0,0,0,0,0,0,0,0,0,0,2160,0,0,
0,0,0,0,0,0,0,0,0,0,0,0,0,0,0,0,0,0,0,0,0,0,0,0,0,0,0,0,0,0,0,0,0,0,0,0,0,0,0,0,0,0,0,0,0,0,0,0,0,0,0,0,0,0,0,0,0,0,0,0,0,0,0,0,0,
0,0,0,0,0,0,0,0,0,0,0,0,0,0,0,0,0,0,0,0,0,0,0,0,0,0,0,0,0,0,0,0,0,0,0,0,0,0,0,0,0,0,0,0,0,0,0,0,0,0,0,0,0,0,0,0,0,0,0,0,0,0,0,0,0,
0,0,0,0,0,0,0,0,0,0,0,0,0,0,0,0,0,0,0,0,0,0,0,0,0,0,0,0,0,0,0,0,0,0,0,0,0,0,0,0,0,0,0,0,0,0,0,0,0,0,0,0,0,0,0,0,0,0,0,0,0,0,0,0,0,
0,0,0,0,0,0,0,0,0,0,0,0,0,0,0,0,0,0,0,0,0,0,0,0,0,0,0,0,0,0,0,0,0,0,0,0,0,0,0,0,0,0,0,0,0,0,0,0,0,0,0,0,0,0,0,0,0,0,0,0,0,0,0,0,0,
0,0,0,0,0,0,0,0,0,0,0,0,0,0,0,0,0,0,0,0,0,0,0,0,0,0,0,0,0,0,0,0,0,0,0,0,0,0,0,0,0,0,0,2324,0,0,0,0,0,0,0,0,0,0,0,0,0,0,0,0,0,0,0,0,0,
0,0,0,0,0,0,0,0,0,0,0,0,0,0,0,0,0,0,0,0,0,0,0,0,0,0,0,0,0,0,0,0,0,0,0,0,0,0,0,0,0,0,0,0,0,0,0,0,0,0,0,0,0,5,0,0,0,0,0,0,0,0,0,0,0,
0,0,0,0,0,0,0,0,0,0,0,0,0,0,0,0,0,0,0,0,0,0,0,0,0,0,0,0,0,0,0,0,0,0,0,0,0,0,0,0,0,0,0,0,0,0,0,0,0,0,0,0,0,0,0,0,0,0,0,0,0,0,0,0,0,
0,0,0,0,0,0,0,0,0,0,0,0,0,0,0,0,0,0,0,0,0,0,0,0,0,0,0,0,0,0,0,0,0,0,0,0,0,0,0,0,0,0,0,0,0,0,0,0,0,0,0,0,0,0,0,0,0,0,0,0,0,0,0,0,0,
0,0,0,0,0,0,0,0,0,0,0,0,0,0,0,0,0,0,0,0,0,0,0,0,0,0,0,0,0,0,0,0,0,0,0,0,0,0,0,0,0,0,0,0,0,0,0,0,0,0,0,0,0,0,0,0,0,0,0,0,5,0,0,0,0,
0,0,0,0,0,0,0,0,0,0,0,0,0,0,0,0,0,0,0,0,0,0,0,0,0,0,0,0,0,0,0,0,0,0,0,0,0,0,0,0,0,0,0,0,0,0,0,0,0,0,0,0,0,0,0,0,0,0,0,0,0,0,0,0,0,
0,0,0,0,0,0,0,0,0,0,0,0,0,0,0,0,0,0,0,0,0,0,0,0,0,0,0,0,0,0,0,0,0,0,0,0,0,0,0,0,0,0,0,0,0,0,0,0,0,0,0,0,0,0,0,0,0,0,0,0,0,0,0,0,0,
0,0,0,0,0,0,0,0,0,0,0,0,0,0,0,0,0,0,0,0,0,0,0,0,0,0,0,0,0,0,0,0,0,0,0,0,0,0,0,0,0,0,0,0,0,0,0,0,0,0,0,0,0,0,0,0,0,0,0,0,0,0,0,0,0,
0,0,0,0,0,0,0,0,0,0,0,0,0,0,0,0,0,0,0,0,0,0,0,0,0,0,0,0,0,0,0,0,0,0,0,0,0,0,0,0,0,0,0,0,0,0,0,0,0,0,0,0,0,0,0,0,0,0,0,0,0,0,0,0,0,
0,0,0,0,0,0,0,0,0,0,0,0,0,0,0,0,0,0,0,0,0,0,0,0,0,0,0,0,0,0,0,0,0,0,0,0,0,0,0,0,0,0,0,0,0,0,0,0,0,0,0,0,0,0,0,0,0,0,0,0,0,0,0,0,0,
0,0,0,0,0,0,0,0,0,0,0,0,0,0,0,0,0,0,0,0,0,0,0,0,0,0,0,0,0,0,0,0,0,0,0,0,0,0,0,0,0,0,0,0,0,0,0,0,0,0,0,0,0,0,0,0,0,0,0,0,0,0,0,0,0,
0,0,0,0,0,0,0,0,0,0,0,0,0,0,0,0,0,0,0,0,0,0,0,0,0,0,0,0,0,0,0,0,0,0,0,0,0,0,0,0,0,0,0,0,0,0,0,0,0,0,0,0,0,0,0,0,0,0,0,0,0,0,0,0,0,
0,0,0,0,0,0,0,0,0,0,0,0,0,0,0,0,0,0,0,0,0,0,0,0,0,0,0,0,0,0,0,0,0,0,0,0,0,0,0,0,0,0,0,0,0,0,0,0,0,0,0,0,0,0,0,0,0,0,0,0,0,0,0,0,0,
0,0,0,0,0,0,0,0,0,0,0,0,0,0,0,0,0,0,0,0,0,0,0,0,0,0,0,0,0,0,0,0,0,0,0,0,0,0,0,0,0,0,0,0,0,0,0,0,0,0,0,0,0,0,0,0,0,0,0,0,0,0,0,0,0,
0,0,0,0,0,0,0,0,0,0,0,0,0,0,0,0,0,0,0,0,0,0,0,0,0,0,0,0,0,0,0,0,0,0,0,0,0,0,0,0,0,0,0,0,0,0,0,0,0,0,0,0,0,0,0,0,0,0,0,0,0,0,0,0,0
</data>
 </layer>
 <layer id="4" name="Front" width="65" height="30">
  <data encoding="csv">
0,0,2274,0,0,0,0,0,0,0,2135,2136,0,2093,2094,2108,2109,2110,2111,2112,2113,0,0,0,0,0,0,2377,0,0,0,0,0,0,0,0,0,0,0,0,0,0,0,0,0,0,0,2274,0,0,0,0,0,0,0,0,0,0,0,0,0,0,0,0,0,
0,0,5,0,0,0,0,0,2324,0,2160,2161,0,0,0,0,0,2135,2136,0,0,0,0,0,0,0,0,0,0,0,0,0,0,0,0,0,0,0,0,0,0,0,0,0,0,0,0,0,0,0,0,0,2105,2106,0,0,0,0,0,0,0,0,0,0,2017,
0,0,0,0,0,0,0,0,0,0,2185,0,0,0,2950,0,0,0,0,0,0,0,0,0,0,0,0,0,0,0,0,0,0,0,0,0,0,0,0,0,0,0,0,0,0,0,0,0,0,0,0,0,0,0,2324,0,0,0,0,0,0,0,0,0,2042,
0,2030,2031,2032,0,5,0,0,0,0,0,0,0,0,0,0,0,0,0,0,0,0,0,0,0,2149,2150,0,0,0,0,0,0,0,0,0,0,0,0,0,0,0,0,0,0,0,0,0,0,0,0,0,0,0,0,0,0,0,0,0,0,0,0,2022,2067,
0,2055,2056,2057,0,0,0,0,0,0,0,0,0,0,0,0,0,0,0,0,0,0,0,0,0,0,0,0,0,0,0,0,0,0,0,0,0,0,0,0,0,0,0,0,0,2055,2056,2057,0,0,2105,2106,0,0,0,0,0,0,0,0,0,0,0,0,2092,
0,0,0,0,0,0,0,0,0,0,0,0,0,0,0,0,0,0,0,0,0,0,0,0,0,0,0,0,0,0,0,0,0,0,0,0,0,0,0,0,0,0,0,0,0,0,0,0,0,0,0,0,0,0,0,0,0,0,0,0,0,0,0,0,0,
0,0,0,0,0,0,0,0,0,0,0,0,0,0,0,0,0,0,0,0,0,0,0,0,0,0,0,0,0,0,0,0,0,0,0,0,0,0,0,0,0,0,0,0,0,0,0,0,0,0,0,0,0,0,0,0,0,0,0,0,0,0,0,0,0,
0,0,0,0,0,0,0,0,0,0,0,0,0,0,0,0,0,0,0,0,0,0,0,0,0,0,0,0,0,0,0,0,0,0,0,0,0,0,0,0,0,0,0,0,0,0,0,0,0,0,0,0,0,0,0,0,0,0,0,0,0,0,0,2122,0,
0,0,0,0,0,0,0,0,0,0,0,0,0,0,0,0,0,0,0,0,2992,2993,2994,2995,2996,2997,2998,2999,0,0,0,0,0,0,0,0,0,0,0,0,0,0,0,0,0,0,0,0,0,0,0,0,0,0,0,0,0,0,0,0,0,2145,0,2147,0,
0,0,0,0,0,0,0,0,0,0,0,0,0,0,0,0,0,0,0,0,3017,3018,3019,3020,3021,3022,3023,3024,0,0,0,0,0,0,0,0,0,0,0,0,0,0,0,0,0,0,0,2456,2431,0,2430,2430,2430,2430,2430,2430,2430,2430,2430,2430,2430,2430,2431,2430,2431,
0,2324,0,0,0,0,0,0,0,0,0,2160,2161,0,0,0,0,3049,0,0,0,0,0,0,0,0,0,0,0,0,0,0,0,0,0,0,0,0,0,0,2135,2136,0,2375,2376,2376,2377,0,2118,0,0,0,0,0,0,0,0,2105,2106,2121,0,2456,2432,0,0,
0,0,0,0,0,0,0,0,0,0,0,2185,2186,0,0,0,0,0,0,0,0,0,0,0,0,0,0,0,0,0,0,0,0,0,0,0,0,0,0,0,0,2161,0,0,2149,2150,0,2030,2031,2032,0,0,0,0,0,0,0,2130,2131,2025,2026,0,0,0,0,
0,0,0,0,0,2274,0,0,0,0,0,0,0,0,0,0,0,0,0,0,0,0,0,0,0,0,0,0,0,0,0,0,0,0,0,0,0,0,0,0,2378,2186,0,0,0,0,0,2055,2056,2057,0,2105,2106,0,0,2274,0,2048,2049,2050,2051,0,0,0,0,
2274,0,0,0,0,2105,2106,0,0,0,2121,2122,0,0,0,0,0,0,0,0,0,0,0,0,0,0,0,0,0,0,0,0,0,0,0,0,0,0,0,0,2095,2096,0,0,0,0,0,2080,2081,2082,0,0,0,0,0,0,0,2073,2074,2075,2076,0,0,0,0,
0,0,0,0,0,2130,2131,0,0,0,0,0,2033,2034,2035,2036,2037,2038,0,0,0,0,0,0,0,0,0,0,0,0,0,0,0,0,0,0,0,0,0,0,0,2121,0,0,0,0,0,0,0,0,0,0,0,0,2030,2031,2032,2098,2099,2100,2101,0,0,0,0,
5,0,0,0,0,0,372,2105,2106,0,0,0,2058,2059,2060,2061,2062,2063,0,0,0,0,0,0,0,0,0,0,0,0,0,0,0,0,0,0,0,0,0,0,0,2146,0,0,2118,0,0,0,0,0,0,0,0,0,2055,2056,2057,0,2124,2125,2249,0,0,0,0,
0,0,2118,0,0,2030,2031,2032,0,0,0,0,2083,2084,2085,2086,2087,2088,0,0,0,0,0,0,0,0,0,0,0,0,0,0,0,0,0,0,0,0,0,0,0,2030,0,0,0,0,0,0,0,0,0,0,0,0,2080,0,0,0,0,0,0,0,2324,2105,2106,
0,2324,0,0,0,2055,2056,2057,0,0,0,0,2108,2109,2110,2111,2112,2113,0,0,0,0,0,0,0,0,0,0,0,0,0,0,0,0,0,0,0,0,0,0,0,2055,0,0,0,0,0,0,0,0,0,0,2105,2106,0,0,2324,2105,2106,0,0,0,0,0,0,
0,5,0,0,0,0,0,0,0,0,0,0,0,0,2135,2136,0,0,0,0,0,0,0,0,0,0,0,0,0,0,0,0,0,0,0,0,0,0,0,0,0,2080,0,0,0,0,0,0,0,0,0,0,0,0,0,0,0,0,0,2274,0,0,2030,2031,2032,
2105,2106,0,0,0,5,0,0,0,0,0,0,0,0,0,0,2151,0,0,0,0,0,0,0,0,0,0,0,0,0,0,0,0,0,0,0,0,0,0,0,0,0,0,0,0,2135,2136,2105,2106,0,0,0,0,0,0,0,0,0,0,0,0,0,2055,2056,2057,
2376,2376,2426,2376,2376,2376,2377,2376,2376,2376,2376,2376,2377,0,2375,2376,2426,2376,2377,2376,2377,0,0,0,0,0,2375,2376,2376,2376,2375,2376,2377,2376,2376,2377,2377,2376,2375,2426,2377,2376,2376,2377,2377,0,0,2375,2376,2377,2376,2376,2426,2376,2376,2376,2426,2376,2377,2376,2376,2426,2376,2376,2376,
0,0,0,0,0,0,0,0,0,0,0,0,0,0,0,0,0,0,0,0,0,2427,0,0,0,0,0,0,0,0,0,0,0,0,0,0,0,0,0,0,0,0,0,0,0,0,0,0,0,0,0,0,0,0,0,0,0,0,0,0,0,0,0,0,0,
0,0,0,0,0,0,0,0,0,0,0,0,0,0,0,0,0,0,0,0,0,0,0,0,0,0,0,0,0,0,0,0,0,0,0,0,0,0,0,0,0,0,0,0,0,0,0,0,0,0,0,0,0,0,0,0,0,0,0,0,0,0,0,0,0,
0,0,0,0,0,0,0,0,0,0,0,0,0,0,0,0,0,0,0,0,0,0,0,0,0,0,0,0,0,0,0,0,0,0,0,0,0,0,0,0,0,0,0,0,0,0,0,0,0,0,0,0,0,0,0,0,0,0,0,0,0,0,0,0,0,
0,0,0,0,0,0,0,0,0,0,0,0,0,0,0,0,0,0,0,0,0,0,0,0,0,0,0,0,0,0,0,0,0,0,0,0,0,0,0,0,0,0,0,0,0,0,0,0,0,0,0,0,0,0,0,0,0,0,0,0,0,0,0,0,0,
2376,2377,2376,2376,2376,2376,2377,0,2375,2376,2377,0,2375,2375,2376,2376,2375,2376,2377,2376,2376,2376,2376,2375,2376,2376,2376,2377,2376,2376,2426,2376,2377,2377,2376,2375,2377,2376,2375,2376,2375,2377,0,2375,2376,2377,0,2375,2376,2376,2030,2031,2032,2376,2376,2376,2426,2376,2376,2376,2376,2376,2376,2376,2376,
2135,2136,2105,2106,0,0,0,0,0,0,0,0,0,0,2055,2056,2057,0,0,0,0,0,0,0,0,0,2020,2021,2022,0,0,0,0,0,0,0,0,0,0,2105,2106,0,0,0,0,0,0,0,0,0,2055,2056,2057,0,0,2105,2106,0,0,0,0,2121,0,0,0,
0,0,0,0,0,0,0,0,0,0,0,0,0,2274,0,0,0,0,2118,0,2324,0,0,0,0,0,2045,2046,2047,0,0,2017,2018,2092,0,0,0,2018,2019,2030,2031,0,0,0,0,0,0,0,0,0,0,0,0,0,0,2017,2018,2019,0,0,0,0,0,0,0,
0,2030,2031,2032,0,0,0,0,2030,2031,2032,0,0,0,0,2324,0,2249,2143,2274,0,0,0,0,0,0,2070,2071,2072,0,0,2042,2043,0,2118,0,0,2043,2044,0,0,0,0,0,0,0,0,0,0,0,0,0,0,0,0,2042,2043,2044,0,0,0,0,0,0,0,
0,2055,2056,2057,0,0,0,0,0,0,0,0,0,0,0,0,0,0,2105,2106,0,0,0,0,0,0,2095,2096,2097,0,0,2067,2068,0,2143,0,2067,2068,2069,0,0,0,0,0,2105,2106,0,0,0,0,0,0,0,0,0,2067,2068,2069,0,0,0,0,0,0,0
</data>
 </layer>
 <layer id="5" name="AlwaysFront" width="65" height="30">
  <data encoding="csv">
0,0,0,0,0,0,0,0,0,0,2135,2136,2092,2093,2094,2108,2109,2110,2111,2112,2113,0,0,0,2073,2074,2075,2076,0,0,0,0,2033,0,2146,0,2146,0,0,0,0,0,0,0,0,0,0,0,0,0,0,0,0,0,0,0,0,0,0,0,2108,2109,2110,2111,2112,
0,0,0,0,0,0,0,0,0,0,0,0,0,0,0,0,0,2135,2136,0,0,0,0,0,2098,2099,2100,2101,0,0,0,0,0,0,0,0,0,0,0,0,0,0,0,0,0,0,0,0,0,0,0,0,0,0,0,0,0,0,0,0,0,0,2135,2136,0,
0,0,0,0,0,0,0,0,0,0,0,0,0,0,0,0,0,0,0,0,0,0,0,0,0,2124,2125,0,0,0,0,0,0,0,0,0,0,0,0,0,0,0,0,0,0,0,0,0,0,0,0,0,0,0,0,0,0,0,0,0,0,0,0,0,0,
0,0,0,0,0,0,0,0,0,0,0,0,0,0,0,0,0,0,0,0,0,0,0,0,0,0,0,0,0,0,0,0,0,0,0,0,0,0,0,0,0,0,0,0,0,2030,2031,2032,0,0,0,0,0,0,0,0,0,0,0,0,0,0,0,0,0,
0,0,0,0,0,0,0,0,0,0,0,0,0,0,0,0,0,0,0,0,0,0,0,0,0,0,0,0,0,0,0,0,0,0,0,0,0,0,0,0,0,0,0,0,0,0,0,0,0,0,0,0,0,0,0,0,0,0,0,0,0,0,0,0,0,
0,0,0,0,0,0,0,0,0,0,0,0,0,0,0,0,0,0,0,0,0,0,0,0,0,0,0,0,0,0,0,0,0,0,0,0,0,0,0,0,0,0,0,0,0,0,0,0,0,0,0,0,0,0,0,0,0,0,0,0,2033,2034,2035,2036,2037,
0,0,0,0,0,0,0,0,0,0,0,0,0,0,0,0,0,0,0,0,2942,2943,2944,2945,2946,2947,2948,2949,0,0,0,0,0,0,0,0,0,0,2033,2034,2035,2036,2037,2023,2024,2025,2026,0,0,0,0,0,0,0,0,0,0,0,2020,2021,2022,2059,2060,2061,2062,
0,0,0,0,0,0,0,0,0,0,0,0,0,0,0,0,0,0,0,0,2967,2968,2969,2970,2971,2972,2973,2974,0,0,0,0,0,0,0,0,0,0,2058,2059,2060,2061,2062,2048,2049,2050,2051,0,0,0,0,0,0,0,0,0,0,0,2045,2046,2047,2084,2085,2086,2087,
2430,2431,2455,0,0,0,0,0,0,0,0,0,0,0,0,0,0,0,0,0,0,0,0,0,0,0,0,0,0,0,0,0,0,0,0,0,0,0,2083,2084,2085,2086,2087,2073,2074,2075,2076,0,0,0,0,0,0,0,0,0,0,0,2070,2071,2072,2109,2110,2111,2112,
2192,2192,2429,2431,2455,0,0,2456,2430,2431,2430,2430,2455,0,0,0,0,0,0,0,0,0,0,0,0,0,0,0,0,0,0,0,0,0,0,0,0,0,2108,2109,2110,2111,2112,2098,2099,2100,2101,0,0,2030,2430,2431,2430,0,0,0,0,0,2095,2096,2097,0,2456,2136,2043,
2319,2320,2344,2192,2429,2430,2431,2432,2192,2192,2342,2344,2411,0,0,0,0,0,0,0,0,0,0,0,0,0,0,0,0,0,0,0,0,0,0,0,0,0,0,0,2020,2021,2022,0,2124,2125,0,0,0,2192,0,0,0,0,0,0,0,0,0,0,0,0,2160,2067,2068,
0,0,0,2160,2161,0,0,0,0,0,0,0,0,0,0,0,0,0,0,0,0,0,0,0,0,0,0,0,0,0,0,0,0,0,0,0,0,0,0,0,2045,2046,2047,2017,2018,2019,0,0,0,0,0,0,0,0,0,0,0,2023,2024,0,0,0,0,2092,2093,
0,0,0,2185,2186,0,0,0,0,0,0,0,0,0,0,0,0,0,0,0,0,0,0,0,0,0,0,0,0,0,0,0,0,0,0,0,0,0,0,0,2070,2071,2072,2042,2043,2044,0,0,0,0,0,0,0,0,0,0,0,2048,2049,0,0,0,0,0,2118,
0,0,0,0,0,0,0,0,0,0,0,0,0,2378,0,0,0,0,0,0,0,0,0,0,0,0,0,0,0,0,0,0,0,0,0,0,0,0,0,0,2095,2096,2097,2067,2068,2069,0,0,0,0,0,0,0,0,0,0,0,0,0,0,0,0,0,2142,2143,
0,0,0,0,0,0,0,0,0,0,0,0,2033,2034,2035,2036,2037,0,0,0,0,0,0,0,0,0,0,0,0,0,0,0,0,0,0,0,0,0,0,0,2120,2121,0,2092,2093,2094,0,0,0,0,0,0,0,0,0,0,0,0,0,0,0,0,0,0,0,
0,0,0,0,0,0,0,0,0,0,0,0,2058,2059,2060,2061,2062,2063,0,0,0,0,0,0,0,0,0,0,0,0,0,0,0,0,0,0,0,0,0,0,0,0,0,2033,2034,2035,2036,2037,2038,0,0,0,0,0,0,0,0,0,0,0,0,0,0,0,0,
0,0,0,0,0,0,0,0,0,0,0,0,2083,2084,2085,2086,2087,2088,0,0,0,0,0,0,0,0,0,0,0,0,0,0,0,0,0,0,0,0,0,0,0,0,0,2058,2059,2060,2061,2062,2063,0,0,0,0,0,0,0,0,0,0,0,0,0,0,0,0,
0,0,0,0,0,0,0,0,0,0,0,0,2108,2109,2110,2111,2112,2113,0,0,0,0,0,0,0,0,0,0,0,0,0,0,0,0,0,0,0,0,0,0,0,0,0,2083,2084,2085,2086,2087,2088,0,0,0,0,0,0,0,0,0,0,0,0,0,0,0,0,
0,0,0,0,0,0,0,0,0,0,0,0,0,0,2135,2136,0,0,0,0,0,0,0,0,0,0,0,0,0,0,0,0,0,0,0,0,0,0,0,0,0,0,0,2108,2109,2110,2111,2112,2113,0,0,0,0,0,0,0,0,0,0,0,0,0,0,0,0,
0,0,0,0,0,0,0,0,0,0,0,0,0,0,0,0,0,0,0,0,0,0,0,0,0,0,0,0,0,0,0,0,0,0,0,0,0,0,0,0,0,0,0,0,0,0,0,0,0,0,0,0,0,0,0,0,0,0,0,0,0,0,0,0,0,
0,0,0,0,0,0,0,0,0,0,0,0,0,0,0,0,0,0,0,0,0,0,0,0,0,0,0,0,0,0,0,0,0,0,0,0,0,0,0,0,0,0,0,0,0,0,0,0,0,0,0,0,0,0,0,0,0,0,0,0,0,0,0,0,0,
0,0,0,0,0,0,2033,2034,2035,2036,2037,2038,0,0,0,0,0,0,0,0,0,0,0,0,0,0,0,0,0,0,0,0,0,0,0,0,0,0,0,0,0,0,0,0,0,0,0,0,0,0,0,0,0,0,0,2033,2034,2035,2036,2037,2038,0,0,0,0,
2035,2036,2037,2038,0,0,2058,2059,2060,2061,2062,2063,0,0,0,0,0,0,0,0,0,0,0,0,0,0,0,0,0,0,0,0,0,0,0,0,0,0,0,0,0,0,0,0,0,0,0,0,0,0,0,0,0,0,0,2058,2059,2060,2061,2062,2063,0,0,0,0,
2060,2061,2062,2063,0,0,2083,2084,2085,2086,2087,2088,0,0,0,0,0,2017,2018,2019,0,0,0,0,0,0,0,0,0,0,0,0,0,0,0,0,0,0,0,0,0,0,0,0,0,0,0,0,0,0,0,0,0,0,0,2083,2084,2085,2086,2087,2088,0,0,0,0,
2085,2086,2087,2088,0,0,2108,2109,2110,2111,2112,2113,0,0,0,0,0,2042,2043,2044,0,0,0,0,0,0,0,0,0,0,0,0,0,2017,2018,2019,0,0,0,0,0,0,0,0,0,0,0,0,0,0,0,0,0,0,0,2108,2109,2110,2111,2112,2113,0,0,0,0,
2110,2111,2112,2113,0,0,0,0,2135,2136,0,0,0,0,2030,2031,2032,2067,2068,2069,0,0,0,0,0,0,0,0,0,0,0,0,0,2042,2043,2044,0,0,0,0,0,0,0,0,0,0,0,0,0,0,0,0,0,0,0,0,0,2135,2136,0,0,0,0,0,0,
0,0,0,0,0,0,0,0,2160,2161,0,0,0,0,0,0,0,2092,2093,2094,2033,2034,2035,2036,2037,2038,0,0,0,0,0,0,0,2067,2068,2069,0,0,0,0,2033,0,0,0,0,0,0,0,2135,2136,0,0,0,0,0,0,0,2160,2161,0,0,0,0,0,0,
0,0,0,0,2020,2021,2022,0,0,0,0,0,0,0,0,0,0,0,0,0,2058,2059,2060,2061,2062,2063,0,0,0,0,0,2017,2018,2019,2093,2094,2017,0,0,0,0,0,0,0,0,0,0,0,0,0,0,0,0,0,0,0,0,0,0,0,0,0,0,0,0,
0,0,0,0,2045,2046,2047,0,0,0,0,0,0,2020,2021,2022,0,0,0,0,2083,2084,2085,2086,2087,2088,0,0,0,0,0,2042,2043,2044,0,0,2042,0,0,0,0,0,0,0,0,0,0,0,0,0,0,0,0,0,0,0,0,0,2020,2021,2022,0,0,0,0,
0,0,0,0,2070,2071,2072,0,0,0,0,0,0,2045,2046,2047,0,0,0,0,2108,2109,2110,2111,2112,2113,0,0,0,0,0,2067,2068,2069,2017,2018,2019,0,0,0,0,0,2135,2136,0,0,0,0,0,0,0,0,0,0,0,0,0,0,2045,2046,2047,0,0,0,0
</data>
 </layer>
 <layer id="6" name="AlwaysFront2" width="65" height="30">
  <data encoding="csv">
0,0,0,0,0,0,0,0,0,0,0,0,0,0,0,0,0,0,0,0,0,0,0,0,0,0,0,0,0,0,0,0,0,0,0,0,0,0,0,0,0,0,0,0,0,0,0,0,0,0,0,0,0,0,0,0,0,0,0,0,0,0,0,0,0,
0,0,0,0,0,0,0,0,0,0,0,0,0,0,0,0,0,0,0,0,0,0,0,0,0,0,0,0,0,0,0,0,0,0,0,0,0,0,0,0,0,0,0,0,0,0,0,0,0,0,0,0,0,0,0,0,0,0,0,0,0,0,0,0,0,
0,0,0,0,0,0,0,0,0,0,0,0,0,0,0,0,0,0,0,0,0,0,0,0,0,0,0,0,0,0,0,0,0,0,0,0,0,0,0,0,0,0,0,0,0,0,0,0,0,0,0,0,0,0,0,0,0,0,0,0,0,0,0,0,0,
0,0,0,0,0,0,0,0,0,0,0,0,0,0,0,0,0,0,0,0,0,0,0,0,0,0,0,0,0,0,0,0,0,0,0,0,0,0,0,0,0,0,0,0,0,0,0,0,0,0,0,0,0,0,0,0,0,0,0,0,0,0,0,0,0,
0,0,0,0,0,0,0,0,0,0,0,0,0,0,0,0,0,0,0,0,0,0,0,0,0,0,0,0,0,0,0,0,0,0,0,0,0,0,0,0,0,0,0,0,0,0,0,0,0,0,0,0,0,0,0,0,0,0,0,0,0,0,0,0,0,
0,0,0,0,0,0,0,0,0,0,2034,2035,2036,2037,2038,0,0,0,0,0,0,0,0,0,0,0,0,0,0,0,0,0,0,0,0,0,0,0,0,0,0,0,0,0,0,0,0,0,0,0,0,0,0,0,0,0,0,0,0,0,2033,2034,0,0,0,
0,2033,2034,2035,2036,2037,2038,0,0,2058,2059,2060,2061,2062,2063,0,0,0,0,0,0,0,0,0,0,0,0,0,0,0,0,0,0,0,0,0,0,0,0,0,0,0,0,0,0,0,0,2017,2018,2019,0,0,0,0,0,0,0,0,0,0,2058,2059,0,0,0,
0,2058,2059,2060,2061,2062,2063,0,0,2083,2084,2085,2086,2087,2088,0,0,0,0,0,0,0,0,0,0,0,0,0,0,0,0,0,0,0,0,0,0,0,0,0,0,0,0,2063,0,0,0,2042,2043,2044,0,0,0,0,0,0,0,0,0,0,2083,2084,0,0,0,
0,2083,2084,2085,2086,2087,2088,0,0,2108,2109,2110,2111,2112,2113,0,0,0,0,0,0,0,0,0,0,0,0,0,0,0,0,0,0,0,0,0,0,0,0,0,0,0,0,2088,0,0,0,2067,2068,2069,0,0,0,0,0,0,0,0,0,0,2108,2109,0,2017,2018,
0,2108,2109,2110,2111,2112,2113,0,0,0,0,2135,2136,0,0,0,0,0,0,0,0,0,0,0,0,0,0,0,0,0,0,0,0,0,0,0,0,0,0,0,0,0,0,2113,0,0,0,2092,2093,2094,2031,2032,0,0,0,0,0,0,0,0,0,0,2135,2042,2043,
0,0,0,2135,2136,0,0,0,0,0,0,2160,2161,0,0,0,0,0,0,0,0,0,0,0,0,0,0,0,0,0,0,0,0,0,0,0,0,0,0,0,0,0,0,0,0,0,0,0,0,2055,2056,2057,0,0,0,0,0,0,0,0,0,0,0,0,0,
0,0,0,0,0,0,0,0,0,0,0,0,0,0,0,0,0,0,0,0,0,0,0,0,0,0,0,0,0,0,0,0,0,0,0,0,0,0,0,0,0,0,0,0,0,0,0,0,0,0,0,0,0,0,0,0,0,0,0,0,0,0,0,0,0,
0,2017,2018,2019,0,0,0,0,0,0,0,0,0,0,0,0,0,0,0,0,0,0,0,0,0,0,0,0,0,0,0,0,0,0,0,0,0,0,0,0,0,0,0,0,0,0,0,0,0,0,0,0,0,0,0,0,0,0,0,0,0,0,0,0,0,
0,2042,2043,2044,0,0,0,0,0,0,0,0,0,0,0,0,0,0,0,0,0,0,0,0,0,0,0,0,0,0,0,0,0,0,0,0,0,0,0,0,0,0,0,0,0,0,0,0,0,0,0,0,0,0,0,0,0,0,0,0,0,0,0,0,0,
0,2067,2068,2069,0,0,0,0,0,0,0,0,0,0,0,0,0,0,0,0,0,0,0,0,0,0,0,0,0,0,0,0,0,0,0,0,0,0,0,0,0,0,0,0,0,0,0,0,0,0,0,0,0,0,0,0,0,0,0,0,0,0,0,0,0,
0,2092,2093,2094,0,0,0,0,0,0,0,0,0,0,0,0,0,0,0,0,0,0,0,0,0,0,0,0,0,0,0,0,0,0,0,0,0,0,0,0,0,0,0,0,0,0,0,0,0,0,0,0,0,0,0,0,0,0,0,0,0,0,0,0,0,
0,0,0,0,0,0,0,0,0,0,0,0,0,0,0,0,0,0,0,0,0,0,0,0,0,0,0,0,0,0,0,0,0,0,0,0,0,0,0,0,0,0,0,0,0,0,0,0,0,0,0,0,0,0,0,0,0,0,0,0,0,0,0,0,0,
0,0,0,0,0,0,0,0,0,0,0,0,0,0,0,0,0,0,0,0,0,0,0,0,0,0,0,0,0,0,0,0,0,0,0,0,0,0,0,0,0,0,0,0,0,0,0,0,0,0,0,0,0,0,0,0,0,0,0,0,0,0,0,0,0,
0,0,0,0,0,0,0,0,0,0,0,0,0,0,0,0,0,0,0,0,0,0,0,0,0,0,0,0,0,0,0,0,0,0,0,0,0,0,0,0,0,0,0,0,0,0,0,0,0,0,0,0,0,0,0,0,0,0,0,0,0,0,0,0,0,
0,0,0,0,0,0,0,0,0,0,0,0,0,0,0,0,0,0,0,0,0,0,0,0,0,0,0,0,0,0,0,0,0,0,0,0,0,0,0,0,0,0,0,0,0,0,0,0,0,0,0,0,0,0,0,0,0,0,0,0,0,0,0,0,0,
0,0,0,0,0,0,0,0,0,0,0,0,0,0,0,0,0,0,0,0,0,0,0,0,0,0,0,0,0,0,0,0,0,0,0,0,0,0,0,0,0,0,0,0,0,0,0,0,0,0,0,0,0,0,0,0,0,0,0,0,0,0,0,0,0,
0,0,0,0,0,0,0,0,0,0,0,0,0,0,0,0,0,0,0,0,0,0,0,0,0,0,0,0,0,0,0,0,0,0,0,0,0,0,0,0,0,0,0,0,0,0,0,2034,2035,2036,2037,0,0,0,0,0,0,0,0,0,0,0,0,0,0,
0,0,0,0,0,0,0,0,0,0,0,0,0,0,0,0,0,0,0,0,0,0,0,0,0,0,0,0,0,0,0,0,0,0,0,0,0,0,0,0,0,0,0,0,0,0,2058,2059,2060,2061,2062,2036,2037,0,0,0,0,0,0,0,2020,2021,2022,0,0,
0,0,0,0,0,0,0,0,0,0,0,0,0,0,0,0,0,0,0,0,0,0,0,0,0,0,0,0,0,0,0,0,0,0,0,0,0,0,0,0,0,0,0,0,0,2058,2059,2060,2060,2061,2087,2060,2088,0,0,0,0,0,0,0,2045,2046,2047,0,0,
0,0,0,0,0,0,0,2018,2019,0,0,0,0,0,0,0,0,0,0,0,0,0,0,0,0,0,0,0,0,0,0,0,0,0,0,0,0,0,0,0,0,0,0,0,0,2083,2085,2086,2085,2086,2085,2060,2088,0,0,0,0,0,0,0,2070,2071,2072,0,2017,
0,0,0,0,0,0,2042,2043,2044,0,0,0,0,0,0,0,0,0,0,0,0,0,0,0,0,0,0,0,0,0,0,0,0,0,0,0,0,0,0,0,2033,2034,2035,2036,2037,2108,2109,2109,2110,2111,2112,2112,2113,0,0,0,0,0,0,0,2095,2096,2097,0,2042,
0,0,0,0,0,0,2067,2068,2069,0,0,0,0,0,0,0,0,0,0,0,0,0,0,0,0,0,0,0,0,0,0,0,0,0,0,0,0,0,0,0,2058,2059,2060,2061,2062,2063,0,0,0,0,0,0,0,0,0,0,0,0,0,0,0,0,0,0,2067,
0,0,0,0,0,0,2092,2093,2094,0,0,0,0,0,0,0,0,0,0,0,0,0,0,0,0,0,0,0,0,0,0,0,0,0,0,0,0,0,0,0,2083,2084,2085,2086,2087,2088,0,0,0,0,2033,2034,2035,2036,2037,2038,0,0,0,0,0,0,0,0,2092,
0,0,0,0,0,0,0,2118,0,0,0,0,0,0,0,0,0,0,0,0,0,0,0,0,0,0,0,0,0,0,0,0,0,0,0,0,0,0,0,0,2108,2109,2110,2111,2112,2113,0,0,0,0,2058,2059,2060,2061,2062,2063,0,0,0,2033,2034,2035,2036,2037,2038,
0,0,0,0,0,0,0,0,0,0,0,0,0,0,0,0,0,0,0,0,0,0,0,0,0,0,0,0,0,0,0,0,0,0,0,0,0,0,0,0,0,0,0,0,0,0,0,0,0,0,2083,2084,2085,2086,2087,2088,0,0,0,2058,2059,2060,2061,2062,2063
</data>
 </layer>
 <layer id="7" name="AlwaysFront3" width="65" height="30">
  <data encoding="csv">
0,0,0,0,0,0,0,0,0,0,0,0,0,0,0,0,0,0,0,0,0,0,0,0,0,0,0,0,0,0,0,0,0,0,0,0,0,0,0,0,0,0,0,0,0,0,0,0,0,0,0,0,0,0,0,0,0,0,0,0,0,0,0,0,0,
0,0,0,0,0,0,0,0,0,0,0,0,0,0,0,0,0,0,0,0,0,0,0,0,0,0,0,0,0,0,0,0,0,0,0,0,0,0,0,0,0,0,0,0,0,0,0,0,0,0,0,0,0,0,0,0,0,0,0,0,0,0,0,0,0,
0,0,0,0,0,0,0,0,0,0,0,0,0,0,0,0,0,0,0,0,0,0,0,0,0,0,0,0,0,0,0,0,0,0,0,0,0,0,0,0,0,0,0,0,0,0,0,0,0,0,0,0,0,0,0,0,0,0,0,0,0,0,0,0,0,
0,0,0,0,0,0,0,0,0,0,0,0,0,0,0,0,0,0,0,0,0,0,0,0,0,0,0,0,0,0,0,0,0,0,0,0,0,0,0,0,0,0,0,0,0,0,0,0,0,0,0,0,0,0,0,0,0,0,0,0,0,0,0,0,0,
0,0,0,0,0,0,0,0,0,0,0,0,0,0,0,0,0,0,0,0,0,0,0,0,0,0,0,0,0,0,0,0,0,0,0,0,0,0,0,0,0,0,0,0,0,0,0,0,0,0,0,0,0,0,0,0,0,0,0,0,0,0,0,0,0,
0,0,0,0,0,0,0,0,0,0,0,0,0,0,0,0,0,0,0,0,0,0,0,0,0,0,0,0,0,0,0,0,0,0,0,0,0,0,0,0,0,0,0,0,0,0,0,0,0,0,0,0,0,0,0,0,0,0,0,0,0,0,0,0,0,
0,0,0,0,0,0,0,0,0,0,0,0,0,0,0,0,0,0,0,0,0,0,0,0,0,0,0,0,0,0,0,0,0,0,0,0,0,0,0,0,0,0,0,0,0,0,0,0,0,0,2033,2034,2035,2036,2037,2038,0,0,0,0,0,0,0,0,0,
0,0,0,0,0,0,0,0,0,0,0,0,0,0,0,0,0,0,0,0,0,0,0,0,0,0,0,0,0,0,0,0,0,0,0,0,0,0,0,0,0,0,0,0,0,0,0,0,0,0,2058,2059,2060,2061,2062,2063,0,0,0,0,0,0,0,0,0,
0,0,0,0,0,0,0,0,0,0,0,0,0,0,0,0,0,0,0,0,0,0,0,3073,0,0,3073,0,0,0,0,0,0,0,0,0,0,0,0,0,0,0,0,0,0,0,0,0,0,0,2083,2084,2085,2086,2087,2088,0,0,0,0,0,0,0,0,0,
0,0,0,0,0,0,0,0,0,2020,2021,2022,0,0,0,0,0,0,0,0,0,0,0,0,0,0,0,0,0,0,0,0,0,0,0,0,0,0,0,0,0,0,0,0,0,0,0,0,0,0,2108,2109,2110,2111,2112,2113,0,0,0,0,0,0,0,0,0,
0,0,0,0,0,0,0,0,0,2045,2046,2047,0,0,0,0,0,0,0,0,0,0,0,0,0,0,0,0,0,0,0,0,0,0,0,0,0,0,0,0,0,0,0,0,0,0,0,0,0,0,0,0,2135,2136,0,0,0,0,0,0,0,0,0,0,0,
0,0,0,0,0,0,0,0,0,2070,2071,2072,0,0,0,0,0,0,0,0,0,0,0,0,0,0,0,0,0,0,0,0,0,0,0,0,0,0,0,0,0,0,0,0,0,0,0,0,0,0,0,0,0,0,0,0,0,0,0,0,0,0,0,0,0,
0,0,0,0,0,0,0,0,0,2095,2096,2097,0,0,0,0,0,0,0,0,0,0,0,0,0,0,0,0,0,0,0,0,0,0,0,0,0,0,0,0,0,0,0,0,0,0,0,0,0,0,0,0,0,0,0,0,0,0,0,0,0,0,0,0,0,
0,0,0,0,0,0,0,0,0,0,0,0,0,0,0,0,0,0,0,0,0,0,0,0,0,0,0,0,0,0,0,0,0,0,0,0,0,0,0,0,0,0,0,0,0,0,0,0,0,0,0,0,0,0,0,0,0,0,0,0,0,0,0,0,0,
0,0,0,0,0,0,0,0,0,0,0,0,0,0,0,0,0,0,0,0,0,0,0,0,0,0,0,0,0,0,0,0,0,0,0,0,0,0,0,0,0,0,0,0,0,0,0,0,0,0,0,0,0,0,0,0,0,0,0,0,0,0,0,0,0,
0,0,0,0,0,0,0,0,0,0,0,0,0,0,0,0,0,0,0,0,0,0,0,0,0,0,0,0,0,0,0,0,0,0,0,0,0,0,0,0,0,0,0,0,0,0,0,0,0,0,0,0,0,0,0,0,0,0,0,0,0,0,0,0,0,
0,0,0,0,0,0,0,0,0,0,0,0,0,0,0,0,0,0,0,0,0,0,0,0,0,0,0,0,0,0,0,0,0,0,0,0,0,0,0,0,0,0,0,0,0,0,0,0,0,0,0,0,0,0,0,0,0,0,0,0,0,0,0,0,0,
0,0,0,0,0,0,0,0,0,0,0,0,0,0,0,0,0,0,0,0,0,0,0,0,0,0,0,0,0,0,0,0,0,0,0,0,0,0,0,0,0,0,0,0,0,0,0,0,0,0,0,0,0,0,0,0,0,0,0,0,0,0,0,0,0,
0,0,0,0,0,0,0,0,0,0,0,0,0,0,0,0,0,0,0,0,0,0,0,0,0,0,0,0,0,0,0,0,0,0,0,0,0,0,0,0,0,0,0,0,0,0,0,0,0,0,0,0,0,0,0,0,0,0,0,0,0,0,0,0,0,
0,0,0,0,0,0,0,0,0,0,0,0,0,0,0,0,0,0,0,0,0,0,0,0,0,0,0,0,0,0,0,0,0,0,0,0,0,0,0,0,0,0,0,0,0,0,0,0,0,0,0,0,0,0,0,0,0,0,0,0,0,0,0,0,0,
0,0,0,0,0,0,0,0,0,0,0,0,0,0,0,0,0,0,0,0,0,0,0,0,0,0,0,0,0,0,0,0,0,0,0,0,0,0,0,0,0,0,0,0,0,0,0,0,0,0,0,0,0,0,0,0,0,0,0,0,0,0,0,0,0,
0,0,0,0,0,0,0,0,0,0,0,0,0,0,0,0,0,0,0,0,0,0,0,0,0,0,0,0,0,0,0,0,0,0,0,0,0,0,0,0,0,0,0,0,0,0,0,0,0,0,0,0,0,0,0,0,0,0,0,0,0,0,0,0,0,
0,0,0,0,0,0,0,0,0,0,0,0,0,0,0,0,0,0,0,0,0,0,0,0,0,0,0,0,0,0,0,0,0,0,0,0,0,0,0,0,0,0,0,0,0,0,0,0,0,0,0,0,0,0,0,0,0,0,0,0,0,0,0,0,0,
0,0,0,0,0,0,0,0,0,0,0,0,0,0,0,0,0,0,0,0,0,0,0,0,0,0,0,0,0,0,0,0,0,0,0,0,0,0,0,0,0,0,0,0,0,0,0,0,0,0,0,0,0,0,0,0,0,0,0,0,0,0,0,0,0,
0,0,0,0,0,0,0,0,0,0,0,0,0,0,0,0,0,0,0,0,0,0,0,0,0,0,0,0,0,0,0,0,0,0,0,0,0,0,0,0,0,0,0,0,0,0,0,0,0,0,0,0,0,0,0,0,0,0,0,0,0,0,0,0,0,
0,0,0,0,0,0,0,0,0,0,0,0,0,0,0,0,0,0,0,0,0,0,0,0,0,0,0,0,0,0,0,0,0,0,0,0,0,0,0,0,0,0,0,0,0,0,0,0,0,0,0,0,0,0,0,0,0,0,0,0,0,0,0,0,0,
0,0,0,0,0,0,0,0,0,0,0,0,0,0,0,0,0,0,0,0,0,0,0,0,0,0,0,0,0,0,0,0,0,0,0,0,0,0,0,0,0,0,0,0,0,0,0,0,0,0,0,0,0,0,0,0,0,0,0,0,0,0,0,0,0,
0,0,0,0,0,0,0,0,0,0,0,0,0,0,0,0,0,0,0,0,0,0,0,0,0,0,0,0,0,0,0,0,0,0,0,0,0,0,0,0,0,0,0,0,0,0,0,0,2020,2021,2022,0,0,0,0,0,0,0,0,0,0,0,0,0,0,
0,0,0,0,0,0,0,0,0,0,0,0,0,0,0,0,0,0,0,0,0,0,0,0,0,0,0,0,0,0,0,0,0,0,0,0,0,0,0,0,0,0,0,0,0,0,0,0,2045,2046,2047,0,0,0,0,0,0,0,0,0,0,0,0,0,0,
0,0,0,0,0,0,0,0,0,0,0,0,0,0,0,0,0,0,0,0,0,0,0,0,0,0,0,0,0,0,0,0,0,0,0,0,0,0,0,0,0,0,0,0,0,0,0,0,2070,2071,2072,0,0,0,0,0,0,0,0,0,0,0,0,0,0
</data>
 </layer>
 <objectgroup id="8" name="Collisions">
  <object id="2" x="0" y="416" width="1044" height="10.6667"/>
  <object id="3" x="0" y="334.667" width="338.667" height="14.6667"/>
  <object id="4" x="241.333" y="317.333"/>
  <object id="5" x="209.333" y="225.333" width="12" height="105.333"/>
  <object id="6" x="128" y="185.333"/>
  <object id="7" x="167" y="233"/>
  <object id="8" x="40" y="279.333"/>
  <object id="9" x="159.333" y="274" width="45.3333" height="54"/>
  <object id="10" x="150" y="278.667" width="7.33333" height="51.3333"/>
  <object id="11" x="150" y="330"/>
  <object id="12" x="144" y="306" height="0.666667"/>
  <object id="13" x="140.667" y="318"/>
  <object id="14" x="132" y="322.667" width="2" height="0.666667"/>
  <object id="15" x="130.667" y="310.667" height="3.33333"/>
  <object id="16" x="138" y="305.333"/>
  <object id="17" x="150.667" y="300.667"/>
  <object id="18" x="119.333" y="318" width="1.33333"/>
  <object id="19" x="112" y="317.333" width="0.666667"/>
  <object id="20" x="106" y="317.333" width="3.33333"/>
  <object id="21" x="94" y="317.333"/>
  <object id="22" x="76" y="316"/>
  <object id="23" x="118" y="318"/>
  <object id="24" x="52" y="313.333"/>
  <object id="25" x="32.6667" y="304"/>
  <object id="26" x="12" y="301.333" height="1.33333"/>
  <object id="27" x="11.3333" y="298" height="0.666667"/>
  <object id="28" x="11.3333" y="304" height="0.666667"/>
  <object id="30" x="2" y="291.625" width="20.125" height="22.375"/>
  <object id="31" x="417.333" y="336" width="413.333" height="12"/>
  <object id="32" x="833.333" y="335.333" width="204" height="12"/>
  <object id="33" x="752" y="259.333" width="116.667" height="25.3333"/>
  <object id="34" x="752" y="157.333" width="8" height="103.333"/>
  <object id="35" x="777.333" y="182.667"/>
  <object id="36" x="848" y="189.333"/>
  <object id="37" x="951.333" y="182"/>
  <object id="38" x="1007.33" y="176" height="1.33333"/>
  <object id="39" x="946" y="277.333"/>
  <object id="40" x="979.333" y="185.333" width="30.6667" height="34"/>
  <object id="41" x="1010" y="220.667" width="29.3333" height="44"/>
  <object id="42" x="866" y="292" width="7.33333" height="29.3333"/>
  <object id="43" x="877.333" y="306" width="89.3333" height="13.3333"/>
  <object id="44" x="1004.67" y="288" width="32.6667" height="12"/>
  <object id="45" x="972" y="295.333" width="30.6667" height="12"/>
  <object id="46" x="900" y="66" width="140.667" height="12.6667"/>
  <object id="47" x="828.667" y="51.3333" width="36" height="6.66667"/>
  <object id="48" x="65" y="27.5" width="121.5" height="47"/>
  <object id="49" x="0.5" y="16.5" width="63.5" height="36.5"/>
  <object id="50" x="64" y="53"/>
  <object id="51" x="1.33333" y="241.667" width="35" height="8.33333"/>
  <object id="52" x="36.6667" y="245.667" width="22.3333" height="15"/>
  <object id="53" x="62.3333" y="260.667" width="38.6667" height="6.66667"/>
  <object id="54" x="112" y="230" width="12" height="7.5"/>
  <object id="55" x="320.5" y="98.5" width="126.5" height="57.5"/>
  <object id="56" x="272.667" y="165.333" width="17.3333" height="25.3333"/>
  <object id="57" x="-0.666667" y="134.667" width="43.3333" height="15.3333"/>
  <object id="58" x="45.3333" y="150" width="32.6667" height="14"/>
  <object id="59" x="82.6667" y="166" width="32.6667" height="6.66667"/>
  <object id="60" x="118.667" y="151.333" width="87.3333" height="16"/>
  <object id="61" x="196.667" y="168" width="8" height="102.667"/>
  <object id="62" x="642" y="174.667" width="12" height="156"/>
  <object id="63" x="689" y="176.667" width="58.6667" height="8.33333"/>
  <object id="64" x="760.5" y="158.5" width="275.5" height="13.5"/>
  <object id="65" x="535.333" y="35.3333" width="179.333" height="40"/>
  <object id="66" x="714.667" y="15.3333" width="112" height="40"/>
  <object id="67" x="859.333" y="27.3333" width="61.3333" height="33.3333"/>
  <object id="68" x="877.333" y="56.6667" width="42" height="12.6667"/>
  <object id="70" x="186.667" y="14" width="52.6667" height="31.3333"/>
  <object id="71" x="221.333" y="46.6667" width="17.3333" height="32.6667"/>
  <object id="72" x="248.667" y="0" width="285.333" height="19.3333"/>
  <object id="73" x="488.667" y="1.33333" width="46.6667" height="34"/>
  <object id="74" x="286.667" y="53.3333"/>
  <object id="75" x="250" y="35.3333" width="2.66667" height="4.66667"/>
  <object id="76" x="259.333" y="46.6667" width="3.33333" height="2"/>
  <object id="77" x="264" y="50"/>
  <object id="78" x="245.333" y="35.3333"/>
  <object id="79" x="413.333" y="62" height="0.666667"/>
  <object id="80" x="417.333" y="67.3333"/>
  <object id="88" x="-0.5" y="52.5" width="5" height="82"/>
  <object id="89" x="1036" y="79.3333" width="3.66667" height="79"/>
 </objectgroup>
 <objectgroup id="9" name="ActionFarm">
  <object id="81" name="ActionFarm" x="-0.25" y="350" width="5.75" height="65.5"/>
 </objectgroup>
 <objectgroup id="10" name="ActionTown">
  <object id="85" name="ActionTown" x="1034.75" y="346.75" width="5.25" height="69.25"/>
 </objectgroup>
</map>
