<?xml version="1.0" encoding="UTF-8"?>
<map version="1.10" tiledversion="1.11.2" orientation="orthogonal" renderorder="right-down" width="65" height="30" tilewidth="16" tileheight="16" infinite="0" nextlayerid="11" nextobjectid="90">
 <tileset firstgid="1" source="spring_outdoorsTileSheet2.tsx"/>
 <tileset firstgid="1121" source="spring_town.tsx"/>
 <tileset firstgid="3425" name="spring_BusStop" tilewidth="16" tileheight="16" tilecount="896" columns="32">
  <image source="spring_BusStop.png" width="512" height="448"/>
 </tileset>
 <tileset firstgid="4321" source="spring_outdoorsTileSheet.tsx"/>
 <layer id="1" name="Back" width="65" height="30">
  <data encoding="csv">
4496,4496,4496,4496,4496,4671,4672,4626,4625,4672,4672,4672,4672,4672,5397,4672,4699,4650,4701,4701,4701,4701,4701,4701,4701,4701,4701,4496,4496,4496,4701,4701,4701,4671,4696,4672,4701,4726,4726,4726,4726,4726,4727,4674,4698,4696,4597,4598,4599,4697,4698,4496,4671,4672,4672,4672,4672,4672,4672,4696,4697,4698,4671,4650,4650,
4496,4496,4496,4496,4496,4696,4697,4597,4598,4599,4724,4701,4727,4672,5397,4697,4724,4650,4726,4726,4726,4726,4728,4701,4701,4701,4726,4726,4650,4728,4701,4701,4701,4636,4701,4697,4597,4598,4599,4697,4597,4598,4599,4698,4496,4496,4496,4496,4496,4496,4496,4472,4671,4672,4672,4672,4672,4672,4672,4672,4701,4646,4649,4650,4650,
4496,4496,4496,4496,4496,4496,4496,4496,4496,4496,4696,4724,4672,4672,5397,4575,4671,4650,4672,4626,4650,4621,4725,4726,4726,4726,4674,4697,4724,4725,4728,4701,4672,4661,4701,4701,4701,4496,4496,4496,4496,4496,4496,4496,4496,4496,4496,4496,4496,4496,4496,4496,4696,4597,4598,4599,4724,4625,4672,4650,4650,4672,4672,4650,4650,
4496,4496,4496,4496,4496,4496,4496,4496,4496,4496,4696,4696,4724,4673,5397,4471,4696,4597,4598,4599,4697,4724,4672,4626,4625,4672,4673,4472,4696,4724,4725,4726,4728,4835,4701,4701,4701,4496,4496,4496,4496,4496,4496,4496,4496,4496,4496,4496,4496,4496,4496,4496,4496,4496,4496,4496,4696,4697,4696,4697,4697,4697,4697,4650,4672,
4672,4672,4672,4672,4672,4672,4672,4672,4672,4672,4672,4672,4696,4698,5396,4496,4496,4496,4496,4496,4575,4696,4697,4597,4598,4599,4721,4496,4496,4696,4697,4724,4725,4726,4701,4701,4701,4672,4672,4672,4672,4672,4672,4672,4672,4672,4672,4672,4672,4672,4672,4672,4672,4672,4672,4672,4672,4496,4582,4700,4701,4671,4672,4672,4672,
4697,4597,4598,4599,4697,4697,4697,4697,4697,4697,4697,4697,4496,4496,4722,4496,4496,4496,4577,4496,4471,4496,4496,4471,4472,4471,4721,4496,4496,4496,4575,4696,4697,4597,4598,4599,4597,4598,4599,4697,4597,4598,4599,4697,4697,4697,4597,4598,4599,4697,4597,4599,4697,4697,4697,4697,4697,4697,4697,4697,4697,4697,4697,4697,4697,
5349,5349,5349,5348,5349,5349,5349,5349,5348,5349,5348,5349,5349,5348,5349,5348,5349,5349,5349,5352,5348,5349,5349,5349,5349,5349,5349,5349,5348,5349,5349,5349,5348,5349,5349,5349,5349,5349,5348,5349,5349,5349,5349,5349,5348,5349,5349,5349,5348,5349,5349,5349,5349,5349,5349,5349,5349,4672,4632,5348,5348,4496,4496,4671,4672,
5375,5375,5375,5375,5375,5375,5375,5375,5375,5375,5375,5375,5375,5375,5375,5375,5375,5375,5375,5351,5375,5375,5375,5375,5375,5375,5375,5375,5375,5375,5375,5375,5375,5375,5375,5375,5375,5375,5375,5375,5375,5375,5375,5375,5375,5375,5375,5375,5375,5375,5375,5375,5375,5375,5375,5375,5375,4672,4671,5375,5375,4648,4646,4649,4621,
5377,5377,5377,5377,5377,5377,5377,5377,5377,5377,5375,5377,5377,5377,5377,5377,5377,5377,5377,5351,5377,5377,5377,5377,5377,5377,5377,5377,5377,5377,5377,5377,5377,5377,5377,5377,5377,5377,5377,5377,5377,5377,5377,5377,5377,5377,5377,5377,5377,5377,5377,5377,5377,5377,5377,5377,5377,4672,4582,5377,5377,4698,4671,4672,4650,
4496,4496,5375,5375,5375,5375,5375,5375,5375,5375,5375,5375,5375,5375,5375,5375,5375,5375,5375,5351,5375,5375,5375,5375,5375,5375,5375,5375,5375,5375,5375,5375,5375,5375,5375,5375,5375,5375,5375,5375,5375,5375,5375,5375,5375,5375,5375,5375,5375,5375,5375,5375,5375,5375,5375,5375,5375,4472,4607,5375,5375,4496,4671,4672,4672,
4623,4624,4648,4496,5374,5374,5374,5374,4496,4496,5374,5374,5374,5374,5374,5374,5374,5374,5374,5399,5374,5374,5374,5374,5374,5374,5374,5374,5374,5374,5374,5374,5374,5374,5374,5374,5374,5374,5374,5374,5374,5374,5374,5374,5374,5374,5374,5374,5374,5374,5374,5374,5374,5374,5374,5374,5374,4648,4607,5374,5374,4701,4696,4724,4672,
4672,4621,4699,4622,4623,4624,4622,4623,4624,4647,4649,4648,4647,4648,5371,5372,5372,5372,5372,5372,5372,5372,5372,5372,5372,5372,5372,5372,5372,5373,4722,4496,4471,4496,4496,4472,4721,4496,4471,4646,4647,4647,4647,4647,4647,4647,4647,4623,4496,4496,4646,4647,4647,4649,4647,4650,4650,4647,4647,4647,4647,4647,4472,4696,4724,
4625,4672,4675,4676,4676,4677,4626,4672,4672,4672,4672,4673,4672,4699,4623,4648,4471,4496,4496,4496,4471,4496,4521,4524,4496,4496,4496,4496,4471,4496,4496,4646,4647,4648,4521,4522,4522,4524,4496,4671,4700,4701,4672,4675,4676,4676,4677,4672,4673,4496,4696,4724,4650,4650,4674,4597,4599,4698,4671,4672,4675,4676,4672,4496,4671,
4650,4672,4725,4726,4726,4727,4598,4599,4724,4621,4672,4673,4701,4677,4672,4673,4496,4472,4521,4522,4524,4521,4523,4549,4471,4496,4577,4521,4522,4524,4472,4671,4672,4673,4546,4547,4552,4549,4496,4582,4672,4672,4672,4700,4701,4701,4702,4701,4701,4521,4524,4696,4697,4697,4698,4646,4647,4648,4696,4724,4700,4701,4701,4701,4696,
4697,4597,4598,4599,4697,4698,4672,4672,4696,4724,4672,4673,4726,4702,4672,4673,4496,4722,4546,4910,4549,4546,4935,4549,4722,4496,4521,4523,4552,4549,4496,4696,4697,4698,4571,4572,4572,4574,4496,4607,4675,4676,4677,4700,4701,4702,4727,4700,4722,4571,4574,4496,4472,4646,4648,4671,4625,4673,4496,4671,4725,4726,4728,4701,4472,
4672,4672,4672,4672,4472,4496,4672,4672,4647,4649,4672,4702,4625,4702,4672,4673,4496,4496,4571,4572,4574,4546,4548,4498,4524,4471,4546,4503,4548,4498,4524,4496,4577,4496,4496,4471,4496,4722,4496,4632,4700,4701,4702,4725,4726,4727,4672,4700,4701,4496,4496,4496,4496,4696,4698,4696,4697,4698,4496,4696,4697,4724,4700,4701,4701,
4672,4672,4672,4672,4672,4672,4672,4672,4674,4597,4599,4702,4626,4702,4672,4673,4496,4496,4496,4722,4496,4571,4573,4784,4498,4524,4571,4550,4551,4525,4574,4577,4577,4496,4496,4496,4496,4496,4471,4671,4725,4726,4727,4676,4677,4672,4672,4700,4701,4496,4496,4496,4496,4496,4496,4496,4496,4646,4622,4624,4648,4671,4725,4726,4726,
4697,4597,4598,4599,4671,4672,4672,4674,4698,0,4701,4676,4700,4702,4672,4673,4496,4496,4471,4496,4521,4524,4571,4573,4548,4549,4521,4522,4524,4577,4722,4496,4577,4496,4496,4722,4496,4496,4721,4671,4650,4672,4700,4701,4702,4672,4672,4700,4701,4701,4701,4701,4701,4701,4701,4496,4496,4671,4672,4672,4673,4696,4597,4598,4599,
0,0,0,0,4696,4597,4599,4698,0,0,4701,4701,4701,4702,4672,4699,4647,4648,4721,4496,4571,4574,4722,4546,4881,4549,4546,4502,4498,4524,4496,4496,4496,4471,4646,4647,4648,4472,4496,4582,4650,4672,4725,4726,4727,4672,4672,4725,4726,4728,4701,4701,4701,4701,4701,4472,4496,4696,4697,4697,4698,4496,4496,4496,4496,
4701,4701,4701,4701,4672,4672,4672,4672,4672,4672,4701,4701,4701,4702,4625,4626,4625,4699,4622,4623,4624,4648,4521,4523,4499,4574,4571,4572,4572,4574,4721,4471,4496,4722,4671,4672,4673,4496,4496,4607,4650,4672,4650,4625,4621,4672,4650,4650,4621,4700,4701,4701,4701,4477,4701,4672,4672,4672,4672,4672,4672,4701,4701,4701,4701,
4726,4726,4726,4726,4672,4672,4672,4672,4672,4672,4726,4726,4726,4727,4672,4672,4626,4672,4625,4672,4672,4673,4571,4573,4498,4524,4646,4647,4647,4721,4647,4647,4647,4496,4696,4697,4698,4496,4496,4632,4650,4672,4625,4672,4625,4672,4650,4650,4672,4725,4726,4726,4726,4726,4726,4726,4726,4726,4726,4726,4726,4726,4726,4726,4726,
4672,4674,4697,4697,4697,4697,4697,4697,4697,4697,4697,4697,4697,4697,4697,4697,4697,4697,4697,4697,4697,4698,4721,4546,4547,4549,4696,4697,4697,4697,4697,4577,4577,4577,4577,4577,4577,4577,4577,4577,4697,4697,4697,4697,4697,4697,4697,4697,4697,4697,4697,4697,4697,4697,4697,4697,4697,4697,4697,4697,4697,4724,4650,4650,4650,
4697,4698,4501,4501,4522,4500,4501,4526,4522,4522,4522,4522,4500,4501,4526,4522,4500,4526,4522,4522,4500,4501,4526,4523,4548,4498,4522,4500,4526,4522,4522,4500,4501,4501,4526,4522,4522,4500,4526,4522,4522,4500,4501,4501,4522,4522,4522,4522,4522,4522,4522,4522,4522,4522,4522,4522,4522,4522,4522,4522,4524,4696,4697,4697,4697,
4474,4474,4474,4474,4474,4474,4474,4474,4474,4474,4548,4548,4809,4547,4528,4547,4548,4547,4548,4931,4548,4548,4552,4547,4548,4548,4547,4527,4547,4547,4885,4548,4547,4547,4552,4548,4548,4931,4547,4547,4910,4834,4547,4547,4474,4474,4474,4474,4474,4474,4474,4474,4474,4474,4474,4474,4474,4474,4474,4474,4474,4474,4474,4474,4474,
4572,4572,4572,4572,4572,4572,4572,4572,4572,4550,4551,4551,4525,4572,4572,4572,4550,4551,4551,4525,4572,4572,4550,4551,4551,4525,4572,4572,4550,4551,4525,4572,4550,4551,4551,4525,4572,4572,4550,4551,4525,4572,4550,4551,4572,4572,4572,4572,4572,4572,4572,4572,4572,4572,4572,4572,4572,4572,4672,4672,4672,4672,4672,4672,4672,
4647,4647,4647,4647,4647,4622,4623,4624,4647,4622,4623,4624,4647,4647,4722,4647,4647,4647,4647,4647,4647,4647,4721,4472,4722,4647,4647,4722,4647,4647,4647,4647,4647,4647,4647,4647,4647,4496,4496,4721,4496,4496,4721,4471,4646,4647,4647,4675,4676,4701,4701,4701,4701,4701,4701,4699,4647,4649,4675,4675,4675,4676,4701,4701,4701,
4650,4650,4650,4650,4650,4650,4650,4675,4676,4676,4677,4672,4672,4672,4672,4672,4672,4672,4672,4672,4672,4672,4672,4672,4672,4672,4672,4672,4672,4672,4672,4672,4672,4672,4672,4672,4672,4647,4647,4647,4647,4647,4647,4647,4649,4672,4626,4700,4701,4701,4701,4701,4701,4701,4701,4701,4701,4701,4701,4701,4701,4701,4701,4701,4701,
4676,4676,4677,4675,4676,4676,4677,4700,4701,4701,4702,4625,4672,4672,4697,4697,4697,4672,4672,4672,4672,4672,4672,4672,4672,4672,4672,4672,4672,4676,4676,4676,4676,4676,4672,4672,4672,4676,4676,4676,4676,4676,4676,4676,4672,4672,4625,4700,4701,4701,4701,4701,4701,4701,4701,4678,4700,4701,4678,4727,4700,4701,4701,4701,4701,
4701,4701,4702,4700,4701,4701,4702,4725,4726,4726,4727,4672,4672,4672,4647,4647,4647,4672,4577,4672,4672,4672,4672,4672,4672,4672,4672,4672,4672,4701,4701,4701,4701,4672,4672,4701,4672,4701,4701,4701,4701,4701,4701,4701,4672,4672,4700,4701,4701,4701,4701,4701,4701,4701,4701,4702,4725,4726,4727,4672,4725,4728,4701,4701,4701,
4726,4726,4727,4725,4726,4726,4727,4650,4672,4672,4672,4672,4672,4672,4672,4672,4672,4672,4672,4672,4672,4672,4672,4672,4672,4701,4672,4672,4672,4701,4701,4701,4701,4672,4672,4672,4672,4701,4701,4701,4701,4701,4701,4701,4672,4626,4725,4726,4726,4701,4701,4727,4725,4726,4726,4727,4672,4672,4672,4672,4672,4700,4701,4701,4701
</data>
 </layer>
 <layer id="2" name="Buildings" width="65" height="30">
  <data encoding="csv">
4490,4496,4496,4478,4479,4464,4465,4626,4625,4453,4454,4464,4465,4672,0,4672,4699,4650,4705,4706,4447,4704,4705,4706,4447,4679,4680,4860,4836,4835,4811,4786,4611,4612,4671,4725,4726,4384,4385,4386,4578,4478,4479,4674,4450,4696,4597,4598,4599,401,403,404,4766,4767,387,386,387,377,378,4434,4435,381,382,385,386,
4789,4788,4789,4785,4761,4489,4490,4597,4598,4478,4479,4489,4490,4422,4449,4449,4449,0,0,0,0,0,0,0,0,4704,4705,4706,4861,4860,4836,4835,4636,4762,4696,4628,4597,4598,4578,4697,4597,4598,4599,4628,4663,4689,4767,4789,4788,4789,405,4472,401,402,403,402,403,393,394,395,396,397,398,401,402,
4814,4813,4814,4810,4786,4788,4789,4767,4789,4791,4696,4490,0,4447,4449,4449,4449,4464,4465,0,0,0,0,0,0,0,0,0,0,0,4861,4860,4661,4787,4767,4789,4788,4789,4788,4789,4788,4789,4788,4789,4688,4714,4813,4814,4813,4814,421,422,4434,4435,4598,4599,4724,4625,410,411,412,413,4464,4465,4672,
4839,4838,4839,4835,4811,4813,4814,4813,4814,4816,4817,0,0,0,5279,5401,5402,4489,4490,0,0,0,0,0,0,0,0,0,0,0,0,0,4861,4812,4813,4814,4813,4814,4813,4814,4813,4814,4813,4814,4713,4739,4838,4839,4838,4839,437,438,386,387,377,378,4696,4697,4696,4697,4697,4697,4489,4490,4672,
4864,4863,4864,4860,4836,4838,4839,4838,4839,4841,4842,4843,0,0,0,0,0,0,0,0,0,0,0,0,0,4478,4479,0,0,0,0,0,0,4837,4838,4839,4838,4839,4838,4839,4838,4839,4838,4839,4738,4764,4863,4864,4863,4864,453,454,402,403,393,394,373,386,387,386,387,386,387,386,396,
4423,4384,4385,4386,4861,4863,4864,4863,4864,4866,4867,4868,4869,0,0,0,0,0,4553,0,0,0,0,0,0,0,0,0,0,0,0,0,0,4862,4863,4864,4863,4864,4863,4864,4863,4864,4863,4864,4763,4384,4385,4386,4599,4697,4434,4435,4697,4697,4697,410,389,402,403,402,403,402,403,402,412,
4423,4423,4423,4423,4423,4423,4423,4423,4423,4423,4423,0,0,0,0,0,0,0,0,0,0,0,0,0,0,0,0,0,0,0,0,0,0,0,0,0,0,0,0,0,0,0,0,0,5349,5349,5349,5349,5348,5348,5348,5348,5348,5348,5348,5348,5348,5348,5348,5348,5348,5348,5348,5348,5348,
4423,4423,4423,4423,4423,4423,4423,4423,4423,4423,4423,0,0,0,0,0,0,0,0,0,0,5375,5375,5375,5375,5375,5375,5375,5375,0,0,0,0,0,0,0,0,0,0,0,0,0,0,0,5375,5375,5375,5375,5375,5375,5375,5375,5375,5375,5375,5375,5375,5375,5375,5375,5375,5375,5375,5375,5375,
4423,4423,4423,4423,4423,4423,4423,4423,4423,4423,4423,0,0,0,0,0,0,0,0,0,0,5377,5377,5403,5377,5377,5403,5377,5377,0,0,0,0,0,0,0,0,0,0,0,0,0,0,0,5377,5377,5377,5377,5377,5377,5377,5377,5377,5377,5377,5377,5377,5377,5377,5377,5377,5377,5377,5377,5377,
4423,4423,4423,4423,4423,4423,4423,4423,4423,4423,4423,0,0,0,0,0,0,0,0,0,0,5375,0,5375,5375,5375,5375,5375,5375,0,0,0,0,0,0,0,0,0,0,0,0,0,0,0,5375,5375,5375,5375,5375,5375,5375,5375,5375,5375,5375,5375,5375,5375,5375,5375,5375,5375,5375,5375,5375,
4423,4423,4423,4423,4423,4423,4423,4423,4423,4423,4646,4423,4423,0,0,0,0,0,0,0,0,0,0,0,0,0,0,0,0,0,0,0,0,0,0,0,0,0,0,0,0,0,0,0,5374,5374,5374,4712,4496,4496,4496,4496,4496,4646,4647,4647,4647,4648,4496,4496,4471,4496,4496,4465,5374,
4672,4621,4699,4622,4623,4624,4622,2064,2065,4647,4649,4673,4740,0,0,0,0,5378,0,0,0,0,0,0,0,0,0,0,0,0,0,0,0,0,0,0,0,0,0,0,4464,4465,4647,4704,4705,4705,4706,4737,4447,4384,4385,4386,4464,4465,4621,4647,4672,4673,4647,4450,4647,369,4489,4490,4724,
4625,4672,4675,4676,4676,4677,4626,2096,2097,4672,4672,4673,4715,0,0,0,0,0,0,0,0,0,0,0,0,0,0,0,0,0,0,0,0,0,0,0,0,0,0,0,4489,4490,4672,4675,4478,4479,4553,4712,4496,4471,4696,4724,4489,4490,4674,4597,4599,4698,4671,4672,4675,4766,373,374,4671,
4650,4672,4725,4726,4726,4727,4598,4599,4724,4621,4672,4553,4740,0,0,4553,0,0,0,0,0,0,0,0,0,0,4553,0,0,0,0,0,0,0,0,0,0,0,0,0,4707,4672,4621,4700,4701,4701,4702,4737,4496,4521,4524,4434,4435,4697,4698,4646,4647,4648,4696,4724,4700,401,389,390,4696,
4697,4597,4598,4599,4697,4698,375,439,4696,4724,4450,4578,4715,4707,0,0,0,0,0,0,0,0,0,0,0,0,0,0,0,0,0,0,0,0,0,0,0,0,0,0,4707,4676,4677,4700,4701,4678,4578,4712,4722,4571,4574,4496,4472,4646,4648,4671,4625,4673,4496,4671,4725,2035,2036,369,4472,
386,387,377,378,4472,4553,402,455,456,4649,4628,4673,4740,4707,0,0,0,0,0,0,0,0,0,0,0,0,0,0,0,0,0,0,4553,0,0,0,0,0,0,0,4707,4701,4702,4725,4726,4727,4672,4737,4721,4496,4496,4496,4496,4696,4698,4696,4697,4698,4496,4696,4697,4724,4700,385,386,
402,403,393,394,4767,387,388,4434,4435,4597,4599,4698,4765,4707,0,0,0,0,0,0,0,0,0,0,0,0,0,0,0,0,0,0,0,0,0,0,0,0,0,0,4707,4726,4335,4336,4447,4672,4672,386,387,386,387,386,387,373,374,4385,4386,4646,4453,4454,4648,4671,4725,401,402,
4697,4597,4447,410,402,403,404,4674,4698,472,4767,4789,4790,4707,4553,0,0,0,0,0,0,0,0,0,0,0,0,0,0,0,0,0,0,0,0,0,0,0,0,0,4707,4672,4360,4361,4702,4672,4672,402,403,402,403,402,403,389,390,4496,4496,4671,4478,4479,4673,4696,4597,4434,4435,
386,387,377,378,4696,4384,4385,4386,487,488,4813,4768,4815,4707,0,0,0,0,0,0,0,0,0,0,0,0,0,0,0,0,0,0,0,0,0,0,0,0,0,0,4707,4672,4385,4386,4727,4672,4672,4725,4726,4728,4701,4701,4434,4435,369,4472,4496,4434,4435,4697,4698,381,382,386,387,
402,403,393,394,386,387,4767,387,503,504,4769,4839,4840,4707,4464,4465,0,0,0,0,0,0,0,0,0,0,0,0,0,0,0,0,0,0,0,0,0,0,0,0,4732,4672,4628,4625,4621,4672,4650,4650,4621,4700,2064,2065,4628,4477,4766,386,387,4767,387,386,387,397,398,402,403,
4434,4435,4628,410,402,403,402,403,519,520,4863,4864,4865,4732,4489,4490,0,0,0,0,0,0,0,0,0,0,0,0,0,0,0,0,0,0,0,0,0,0,0,0,4757,4578,4625,4672,4625,4464,4465,4434,4435,4725,2096,2097,4726,4726,401,402,403,402,403,402,403,413,4384,4385,4386,
4705,4705,4755,4705,4705,4705,4706,4705,4705,4705,4705,4705,4706,4757,4704,4705,4755,4705,4706,4705,4706,0,0,0,0,0,4704,4705,4705,4705,4704,4705,4706,4705,4705,4706,4706,4705,4704,4755,4706,4705,4705,4706,4706,4489,4490,4704,4705,4706,4705,4705,4755,4705,4705,4705,4755,4705,4706,4705,4705,4755,4705,4705,4705,
4697,4698,4501,4501,4522,4500,4501,4526,4522,0,0,0,0,0,0,0,0,0,0,0,0,4756,0,0,0,0,0,0,0,0,0,0,0,0,0,0,0,0,0,0,0,0,0,0,0,4522,4522,4522,4522,4522,4522,4522,4522,4522,4522,4522,4522,4522,4522,4522,4524,4696,4697,4697,4697,
4474,4474,4474,4474,4474,4474,4474,4474,4548,0,0,0,0,0,0,0,0,0,0,0,0,0,0,0,0,0,0,0,0,0,0,0,0,0,0,0,0,0,0,0,0,0,0,0,0,4548,4474,4474,4474,4474,4474,4474,4474,4474,4474,4474,4474,4474,4474,4474,4574,4471,4471,4474,4474,
4572,4572,4572,4572,4572,4572,4572,4572,4525,0,0,0,0,0,0,0,0,0,0,0,0,0,0,0,0,0,0,0,0,0,0,0,0,0,0,0,0,0,0,0,0,0,0,0,0,4572,4572,4572,4572,4572,4572,4572,4572,4572,4572,4572,4572,4572,4672,4647,4647,4647,4647,4672,4672,
4647,4647,4647,4647,4647,4622,4623,4624,4647,0,0,0,0,0,0,0,0,0,0,0,0,0,0,0,0,0,0,0,0,0,0,0,0,0,0,0,0,0,0,0,0,0,0,0,0,4647,4647,4675,4676,4701,4701,4701,4701,4701,4701,4699,4647,4649,4675,4675,4675,4675,4675,4675,4701,
4705,4706,4705,4705,4705,4705,4706,4705,4704,4705,4706,4705,4704,4704,4705,4705,4704,4705,4706,4705,4705,4705,4705,4704,4705,4705,4705,4706,4705,4705,4755,4705,4706,4706,4705,4704,4706,4705,4704,4705,4704,4706,4705,4704,4705,4706,4705,4704,4705,4705,4705,4705,4705,4705,4705,4705,4755,4705,4705,4705,4705,4705,4705,4705,4705,
4464,4465,4434,4435,2064,2065,4677,4700,4489,4490,4702,4625,4672,4674,4384,4385,4386,4697,4597,4598,4599,4724,4676,4676,4676,4676,4676,4676,4676,4334,4335,4336,4676,4578,4676,4676,4676,4676,4628,4434,4435,4336,4676,4701,2096,2097,4625,4700,4464,4465,4384,4385,4386,4701,4701,4434,4435,4489,4490,2035,2036,4450,4701,2096,2097,
4489,4490,4702,4700,2096,2097,4702,4725,4726,4726,4727,4672,4626,4699,4647,4647,4647,4622,4623,4624,4648,4671,4701,4701,4701,4701,4701,4701,4701,4359,4360,4361,4701,4701,4701,4628,4701,4701,4701,4359,4360,4361,4701,4701,4672,4672,4700,4701,4489,4490,4701,4701,4701,4701,4701,4702,4725,4726,4727,4672,4725,4728,1939,1940,1941,
4410,4726,4727,4725,4726,4726,4727,4447,4359,4360,4361,4672,4621,4672,4672,4625,4626,4625,4672,4672,4673,4671,4701,4701,4701,4578,4701,4701,4701,4384,4385,4386,4701,4701,4701,4701,4701,4701,4701,4384,4385,4386,4701,4701,4672,4626,4725,4726,4726,4701,4701,4727,4725,4726,4726,4727,4672,4672,4672,4672,4672,4700,1971,1972,1973
</data>
 </layer>
 <layer id="3" name="Buildings2" width="65" height="30">
  <data encoding="csv">
0,0,0,0,0,0,0,0,0,0,0,0,0,0,0,0,0,0,0,0,0,0,0,0,0,0,0,0,0,0,0,0,0,0,0,0,0,0,0,0,0,0,0,0,0,0,0,0,0,0,0,0,0,0,0,0,5,0,0,0,0,0,0,0,0,
0,0,0,0,0,0,0,0,0,0,0,0,0,0,0,0,0,0,0,0,0,0,0,0,0,0,0,0,0,0,0,4,0,0,0,0,0,0,0,0,0,0,0,0,0,0,0,0,0,0,0,0,0,0,0,0,0,0,0,0,0,0,0,0,0,
0,0,0,0,0,0,0,0,0,0,0,0,0,0,0,0,0,0,0,0,0,0,0,0,0,0,0,0,0,0,0,0,0,0,0,0,0,0,0,0,0,0,0,5,0,0,0,0,0,4,0,0,0,0,0,0,0,0,0,0,0,0,0,0,0,
4,0,0,0,0,0,0,0,0,0,0,0,0,0,0,0,0,0,0,0,0,0,0,0,0,0,0,0,0,0,0,0,0,0,0,0,4,0,0,5,0,0,0,0,0,0,0,0,0,0,0,0,0,5,0,0,0,0,0,0,0,0,0,0,0,
0,0,0,0,0,0,0,0,4,0,0,0,0,0,0,0,0,0,0,0,0,0,0,0,0,0,0,0,0,0,0,0,0,0,0,0,0,0,0,0,0,0,4,0,0,0,0,0,0,0,0,0,0,0,0,0,0,0,0,0,5,0,0,0,4,
0,0,0,0,0,0,0,0,0,0,0,0,0,0,0,0,0,0,0,0,0,0,0,0,0,0,0,0,0,0,0,0,0,0,0,0,0,0,0,0,0,0,0,0,0,0,0,0,0,0,0,0,0,0,0,0,0,0,0,0,0,0,0,0,0,
0,0,0,0,0,0,0,0,0,0,0,0,0,0,0,0,0,0,0,0,0,0,0,0,0,0,0,0,0,0,0,0,0,0,0,0,0,0,0,0,0,0,0,0,0,0,0,0,0,0,0,0,0,0,0,0,0,0,0,0,0,0,0,0,0,
0,0,0,0,0,0,0,0,0,0,0,0,0,0,0,0,0,0,0,0,0,0,0,0,0,0,0,0,0,0,0,0,0,0,0,0,0,0,0,0,0,0,0,0,0,0,0,0,0,0,0,0,0,0,0,0,0,0,0,0,0,0,0,0,0,
0,0,0,0,0,0,0,0,0,0,0,0,0,0,0,0,0,0,0,0,0,0,0,0,0,0,0,0,0,0,0,0,0,0,0,0,0,0,0,0,0,0,0,0,0,0,0,0,0,0,0,0,0,0,0,0,0,0,0,0,0,0,0,0,0,
0,0,0,0,0,0,0,0,0,0,0,0,0,0,0,0,0,0,0,0,0,0,0,0,0,0,0,0,0,0,0,0,0,0,0,0,0,0,0,0,0,0,0,0,0,0,0,0,0,0,0,0,0,0,0,0,0,0,0,0,0,0,0,0,0,
0,0,0,0,0,0,0,0,0,0,0,0,0,0,0,0,0,0,0,0,0,0,0,0,0,0,0,0,0,0,0,0,0,0,0,0,0,0,0,0,0,0,0,0,0,0,0,0,0,0,0,0,0,0,0,0,0,0,0,0,0,0,4464,0,0,
0,0,0,0,0,0,0,0,0,0,0,0,0,0,0,0,0,0,0,0,0,0,0,0,0,0,0,0,0,0,0,0,0,0,0,0,0,0,0,0,0,0,0,0,0,0,0,0,0,0,0,0,0,0,0,0,0,0,0,0,0,0,0,0,0,
0,0,0,0,0,0,0,0,0,0,0,0,0,0,0,0,0,0,0,0,0,0,0,0,0,0,0,0,0,0,0,0,0,0,0,0,0,0,0,0,0,0,0,0,0,0,0,0,0,0,0,0,0,0,0,0,0,0,0,0,0,0,0,0,0,
0,0,0,0,0,0,0,0,0,0,0,0,0,0,0,0,0,0,0,0,0,0,0,0,0,0,0,0,0,0,0,0,0,0,0,0,0,0,0,0,0,0,0,0,0,0,0,0,0,0,0,0,0,0,0,0,0,0,0,0,0,0,0,0,0,
0,0,0,0,0,0,0,0,0,0,0,0,0,0,0,0,0,0,0,0,0,0,0,0,0,0,0,0,0,0,0,0,0,0,0,0,0,0,0,0,0,0,0,0,0,0,0,0,0,0,0,0,0,0,0,0,0,0,0,0,0,0,0,0,0,
0,0,0,0,0,0,0,0,0,0,0,0,0,0,0,0,0,0,0,0,0,0,0,0,0,0,0,0,0,0,0,0,0,0,0,0,0,0,0,0,0,0,0,4628,0,0,0,0,0,0,0,0,0,0,0,0,0,0,0,0,0,0,0,0,0,
0,0,0,0,0,0,0,0,0,0,0,0,0,0,0,0,0,0,0,0,0,0,0,0,0,0,0,0,0,0,0,0,0,0,0,0,0,0,0,0,0,0,0,0,0,0,0,0,0,0,0,0,0,5,0,0,0,0,0,0,0,0,0,0,0,
0,0,0,0,0,0,0,0,0,0,0,0,0,0,0,0,0,0,0,0,0,0,0,0,0,0,0,0,0,0,0,0,0,0,0,0,0,0,0,0,0,0,0,0,0,0,0,0,0,0,0,0,0,0,0,0,0,0,0,0,0,0,0,0,0,
0,0,0,0,0,0,0,0,0,0,0,0,0,0,0,0,0,0,0,0,0,0,0,0,0,0,0,0,0,0,0,0,0,0,0,0,0,0,0,0,0,0,0,0,0,0,0,0,0,0,0,0,0,0,0,0,0,0,0,0,0,0,0,0,0,
0,0,0,0,0,0,0,0,0,0,0,0,0,0,0,0,0,0,0,0,0,0,0,0,0,0,0,0,0,0,0,0,0,0,0,0,0,0,0,0,0,0,0,0,0,0,0,0,0,0,0,0,0,0,0,0,0,0,0,0,5,0,0,0,0,
0,0,0,0,0,0,0,0,0,0,0,0,0,0,0,0,0,0,0,0,0,0,0,0,0,0,0,0,0,0,0,0,0,0,0,0,0,0,0,0,0,0,0,0,0,0,0,0,0,0,0,0,0,0,0,0,0,0,0,0,0,0,0,0,0,
0,0,0,0,0,0,0,0,0,0,0,0,0,0,0,0,0,0,0,0,0,0,0,0,0,0,0,0,0,0,0,0,0,0,0,0,0,0,0,0,0,0,0,0,0,0,0,0,0,0,0,0,0,0,0,0,0,0,0,0,0,0,0,0,0,
0,0,0,0,0,0,0,0,0,0,0,0,0,0,0,0,0,0,0,0,0,0,0,0,0,0,0,0,0,0,0,0,0,0,0,0,0,0,0,0,0,0,0,0,0,0,0,0,0,0,0,0,0,0,0,0,0,0,0,0,0,0,0,0,0,
0,0,0,0,0,0,0,0,0,0,0,0,0,0,0,0,0,0,0,0,0,0,0,0,0,0,0,0,0,0,0,0,0,0,0,0,0,0,0,0,0,0,0,0,0,0,0,0,0,0,0,0,0,0,0,0,0,0,0,0,0,0,0,0,0,
0,0,0,0,0,0,0,0,0,0,0,0,0,0,0,0,0,0,0,0,0,0,0,0,0,0,0,0,0,0,0,0,0,0,0,0,0,0,0,0,0,0,0,0,0,0,0,0,0,0,0,0,0,0,0,0,0,0,0,0,0,0,0,0,0,
0,0,0,0,0,0,0,0,0,0,0,0,0,0,0,0,0,0,0,0,0,0,0,0,0,0,0,0,0,0,0,0,0,0,0,0,0,0,0,0,0,0,0,0,0,0,0,0,0,0,0,0,0,0,0,0,0,0,0,0,0,0,0,0,0,
0,0,0,0,0,0,0,0,0,0,0,0,0,0,0,0,0,0,0,0,0,0,0,0,0,0,0,0,0,0,0,0,0,0,0,0,0,0,0,0,0,0,0,0,2064,2065,0,0,0,0,0,0,0,0,0,0,0,0,0,0,0,0,0,0,0,
0,0,0,0,0,0,0,0,0,0,0,0,0,0,0,0,0,0,0,0,0,0,0,0,0,0,0,0,0,0,0,0,0,0,0,0,0,0,0,0,0,0,0,0,0,0,0,0,0,0,0,0,0,0,0,0,0,0,0,0,0,0,0,0,0,
0,0,0,0,0,0,0,0,0,0,0,0,0,0,0,0,0,0,0,0,0,0,0,0,0,0,0,0,0,0,0,0,0,0,0,0,0,0,0,0,0,0,0,0,0,0,0,0,0,0,0,0,0,0,0,0,0,0,0,0,0,0,0,0,0,
0,0,0,0,0,0,0,0,0,0,0,0,0,0,0,0,0,0,0,0,0,0,0,0,0,0,0,0,0,0,0,0,0,0,0,0,0,0,0,0,0,0,0,0,0,0,0,0,0,0,0,0,0,0,0,0,0,0,0,0,0,0,0,0,0
</data>
 </layer>
 <layer id="4" name="Front" width="65" height="30">
  <data encoding="csv">
0,0,4578,0,0,0,0,0,0,0,4439,4440,0,4397,4398,4412,4413,4414,4415,4416,4417,0,0,0,0,0,0,4681,0,0,0,0,0,0,0,0,0,0,0,0,0,0,0,0,0,0,0,4578,0,0,0,0,0,0,0,0,0,0,0,0,0,0,0,0,0,
0,0,5,0,0,0,0,0,4628,0,4464,4465,0,0,0,0,0,4439,4440,0,0,0,0,0,0,0,0,0,0,0,0,0,0,0,0,0,0,0,0,0,0,0,0,0,0,0,0,0,0,0,0,0,4409,4410,0,0,0,0,0,0,0,0,0,0,4321,
0,0,0,0,0,0,0,0,0,0,4489,0,0,0,5254,0,0,0,0,0,0,0,0,0,0,0,0,0,0,0,0,0,0,0,0,0,0,0,0,0,0,0,0,0,0,0,0,0,0,0,0,0,0,0,4628,0,0,0,0,0,0,0,0,0,4346,
0,4334,4335,4336,0,5,0,0,0,0,0,0,0,0,0,0,0,0,0,0,0,0,0,0,0,4453,4454,0,0,0,0,0,0,0,0,0,0,0,0,0,0,0,0,0,0,0,0,0,0,0,0,0,0,0,0,0,0,0,0,0,0,0,0,4326,4371,
0,4359,4360,4361,0,0,0,0,0,0,0,0,0,0,0,0,0,0,0,0,0,0,0,0,0,0,0,0,0,0,0,0,0,0,0,0,0,0,0,0,0,0,0,0,0,4359,4360,4361,0,0,4409,4410,0,0,0,0,0,0,0,0,0,0,0,0,4396,
0,0,0,0,0,0,0,0,0,0,0,0,0,0,0,0,0,0,0,0,0,0,0,0,0,0,0,0,0,0,0,0,0,0,0,0,0,0,0,0,0,0,0,0,0,0,0,0,0,0,0,0,0,0,0,0,0,0,0,0,0,0,0,0,0,
0,0,0,0,0,0,0,0,0,0,0,0,0,0,0,0,0,0,0,0,0,0,0,0,0,0,0,0,0,0,0,0,0,0,0,0,0,0,0,0,0,0,0,0,0,0,0,0,0,0,0,0,0,0,0,0,0,0,0,0,0,0,0,0,0,
0,0,0,0,0,0,0,0,0,0,0,0,0,0,0,0,0,0,0,0,0,0,0,0,0,0,0,0,0,0,0,0,0,0,0,0,0,0,0,0,0,0,0,0,0,0,0,0,0,0,0,0,0,0,0,0,0,0,0,0,0,0,0,4426,0,
0,0,0,0,0,0,0,0,0,0,0,0,0,0,0,0,0,0,0,0,5296,5297,5298,5299,5300,5301,5302,5303,0,0,0,0,0,0,0,0,0,0,0,0,0,0,0,0,0,0,0,0,0,0,0,0,0,0,1999,2000,2001,2002,0,0,0,4449,0,4451,0,
0,0,0,0,0,0,0,0,0,0,0,0,0,0,0,0,0,0,0,0,5321,5322,5323,5324,5325,5326,5327,5328,0,0,0,0,0,0,0,0,0,0,0,0,0,0,0,0,0,0,0,4760,4735,0,4734,4734,4734,4734,4734,4734,4734,4734,4734,4734,4734,4734,4735,4734,4735,
0,4628,0,0,0,0,0,0,0,0,0,4464,4465,0,0,0,0,5353,0,0,0,0,0,0,0,0,0,0,0,0,0,0,0,0,0,0,0,0,0,0,4439,4440,0,4679,4680,4680,4681,0,4422,0,0,0,0,0,0,2064,2065,4409,4410,4425,0,4760,4736,0,0,
0,0,0,0,0,0,0,0,0,0,0,4489,4490,0,0,0,0,0,0,0,0,0,0,0,0,0,0,0,0,0,0,0,0,0,0,0,0,0,0,0,0,4465,0,0,4453,4454,0,4334,4335,4336,0,0,0,0,0,2096,2097,4434,4435,4329,4330,0,0,0,0,
0,0,0,0,0,4578,0,0,0,0,0,0,0,0,0,0,0,0,0,0,0,0,0,0,0,0,0,0,0,0,0,0,0,0,0,0,0,0,0,0,4682,4490,0,0,0,0,0,4359,4360,4361,0,4409,4410,0,0,4578,0,4352,4353,4354,4355,0,0,0,0,
4578,0,0,0,0,4409,4410,0,0,0,4425,4426,0,0,0,0,0,0,0,0,0,0,0,0,0,0,0,0,0,0,0,0,0,0,0,0,0,0,0,0,4399,4400,0,0,0,0,0,4384,4385,4386,0,0,0,0,0,0,0,4377,4378,4379,4380,2003,2004,0,0,
0,0,0,0,0,4434,4435,0,0,0,0,0,4337,4338,4339,4340,4341,4342,0,0,0,0,0,0,0,0,0,0,0,0,0,0,0,0,0,0,0,0,0,0,0,4425,0,0,0,0,0,0,0,0,0,0,0,0,4334,4335,4336,4402,4403,4404,4405,0,0,0,0,
5,0,0,0,0,0,372,4409,4410,0,0,0,4362,4363,4364,4365,4366,4367,0,0,0,0,0,0,0,0,0,0,0,0,0,0,0,0,0,0,0,0,0,0,0,4450,0,0,4422,0,0,0,0,0,0,0,0,0,4359,4360,4361,2031,4428,4429,4553,0,0,0,0,
0,0,4422,0,0,4334,4335,4336,0,0,0,0,4387,4388,4389,4390,4391,4392,0,0,0,0,0,0,0,0,0,0,0,0,0,0,0,0,0,0,0,0,0,0,0,4334,0,0,0,0,0,0,0,0,0,0,0,0,4384,0,0,0,0,0,0,0,4628,4409,4410,
0,4628,0,0,0,4359,4360,4361,0,0,0,0,4412,4413,4414,4415,4416,4417,0,0,0,0,0,0,0,0,0,0,0,0,0,0,0,0,0,0,0,0,0,0,0,4359,0,0,0,0,0,0,0,0,0,0,4409,4410,0,0,4628,4409,4410,0,0,0,0,0,0,
0,5,0,0,0,0,0,0,0,0,0,0,0,0,4439,4440,0,0,0,0,0,0,0,0,0,0,0,0,0,0,0,0,0,0,0,0,0,0,0,0,0,4384,0,0,0,0,0,0,0,0,2032,2033,0,0,0,0,0,0,0,4578,0,0,4334,4335,4336,
4409,4410,0,0,0,5,0,0,0,0,0,0,0,0,0,0,4455,0,0,0,0,0,0,0,0,0,0,0,0,0,0,0,0,0,0,0,0,0,0,0,0,0,0,0,0,4439,4440,4409,4410,0,0,0,0,0,0,0,0,0,0,0,0,0,4359,4360,4361,
4680,4680,4730,4680,4680,4680,4681,4680,4680,4680,4680,4680,4681,0,4679,4680,4730,4680,4681,4680,4681,0,0,0,0,0,4679,4680,4680,4680,4679,4680,4681,4680,4680,4681,4681,4680,4679,4730,4681,4680,4680,4681,4681,0,0,4679,4680,4681,4680,4680,4730,4680,4680,4680,4730,4680,4681,4680,4680,4730,4680,4680,4680,
0,0,0,0,0,0,0,0,0,0,0,0,0,0,0,0,0,0,0,0,0,4731,0,0,0,0,0,0,0,0,0,0,0,0,0,0,0,0,0,0,0,0,0,0,0,0,0,0,0,0,0,0,0,0,0,0,0,0,0,0,0,0,0,0,0,
0,0,0,0,0,0,0,0,0,0,0,0,0,0,0,0,0,0,0,0,0,0,0,0,0,0,0,0,0,0,0,0,0,0,0,0,0,0,0,0,0,0,0,0,0,0,0,0,0,0,0,0,0,0,0,0,0,0,0,0,0,0,0,0,0,
0,0,0,0,0,0,0,0,0,0,0,0,0,0,0,0,0,0,0,0,0,0,0,0,0,0,0,0,0,0,0,0,0,0,0,0,0,0,0,0,0,0,0,0,0,0,0,0,0,0,0,0,0,0,0,0,0,0,0,0,0,0,0,0,0,
0,0,0,0,0,0,0,0,0,0,0,0,0,0,0,0,0,0,0,0,0,0,0,0,0,0,0,0,0,0,0,0,0,0,0,0,0,0,0,0,0,0,0,0,0,0,0,0,0,0,0,0,0,0,0,0,0,0,0,0,0,0,0,0,0,
4680,4681,4680,4680,4680,4680,4681,0,4679,4680,4681,0,4679,4679,4680,4680,4679,4680,4681,4680,4680,4680,4680,4679,4680,4680,4680,4681,4680,4680,4730,4680,4681,4681,4680,4679,4681,4680,4679,4680,4679,4681,0,4679,4680,4681,0,4679,4680,4680,4334,4335,4336,4680,4680,4680,4730,4680,4680,4680,4680,4680,4680,4680,4680,
4439,4440,4409,4410,0,0,0,0,0,0,0,0,0,0,4359,4360,4361,0,0,0,0,0,0,0,0,0,4324,4325,4326,0,0,0,0,0,0,0,0,0,0,4409,4410,0,0,0,0,0,0,0,0,0,4359,4360,4361,0,0,4409,4410,0,0,2003,2004,4425,0,0,0,
0,0,0,0,0,0,0,0,0,0,0,0,0,4578,0,0,0,0,4422,0,4628,0,0,0,0,0,4349,4350,4351,0,0,4321,4322,4396,0,0,0,4322,4323,4334,4335,0,0,0,0,0,0,0,0,0,0,0,0,0,0,4321,4322,4323,0,0,0,0,1907,1908,1909,
0,4334,4335,4336,0,0,0,0,4334,4335,4336,0,0,0,0,4628,0,4553,4447,4578,0,0,0,0,0,0,4374,4375,4376,0,0,4346,4347,0,4422,0,0,4347,4348,0,0,0,0,0,0,0,0,0,0,0,0,0,0,0,0,4346,4347,4348,0,0,0,0,0,0,0,
0,4359,4360,4361,0,0,0,0,0,0,0,0,0,0,0,0,0,0,4409,4410,0,0,0,0,0,0,4399,4400,4401,0,0,4371,4372,0,4447,0,4371,4372,4373,0,0,0,0,0,4409,4410,0,0,2003,2004,0,0,0,0,0,4371,4372,4373,0,0,0,0,0,0,0
</data>
 </layer>
 <layer id="5" name="AlwaysFront" width="65" height="30">
  <data encoding="csv">
0,0,0,0,0,0,0,0,0,0,4439,4440,4396,4397,4398,4412,4413,4414,4415,4416,4417,0,0,0,4377,4378,4379,4380,0,0,0,0,4337,0,4450,0,4450,0,0,0,0,0,0,0,0,0,0,0,0,0,0,0,0,0,0,0,0,0,0,0,4412,4413,4414,4415,4416,
0,0,0,0,0,0,0,0,0,0,0,0,0,0,0,0,0,4439,4440,0,0,0,0,0,4402,4403,4404,4405,0,0,0,0,0,0,0,0,0,0,0,0,0,0,0,0,0,0,0,0,0,0,0,0,0,0,0,0,1907,1908,1909,0,0,0,4439,4440,0,
0,0,0,0,0,0,0,0,0,0,0,0,0,0,0,0,0,0,0,0,0,0,0,0,0,4428,4429,0,0,0,0,0,0,0,0,0,0,0,0,0,0,0,0,0,0,0,0,0,0,0,0,0,0,0,0,0,1939,1940,1941,0,0,0,0,0,0,
0,0,0,0,0,0,0,0,0,0,0,0,0,0,0,0,0,0,0,0,0,0,0,0,0,0,0,0,0,0,0,0,0,0,0,0,0,0,0,0,0,0,0,0,0,4334,4335,4336,0,0,0,0,0,0,0,0,1971,1972,1973,0,0,0,0,0,0,
0,0,0,0,0,0,0,0,0,0,0,0,0,0,0,0,0,0,0,0,0,0,0,0,0,0,0,0,0,0,0,0,0,0,0,0,0,0,0,0,0,0,0,0,0,0,0,0,0,0,0,0,0,0,0,0,0,0,0,0,0,0,0,0,0,
0,0,0,0,0,0,0,0,0,0,0,0,0,0,0,0,0,0,0,0,0,0,0,0,0,0,0,0,0,0,0,0,0,0,0,0,0,0,0,0,0,0,0,0,0,0,0,0,0,0,0,0,0,0,1903,1904,1905,1906,0,0,4337,4338,4339,4340,4341,
0,0,0,0,0,0,0,0,0,0,0,0,0,0,0,0,0,0,0,0,5246,5247,5248,5249,5250,5251,5252,5253,0,0,0,0,0,0,0,0,0,0,4337,4338,4339,4340,4341,4327,4328,4329,4330,0,0,0,0,0,0,0,1935,1936,1937,1938,4324,4325,4326,4363,4364,4365,4366,
0,0,0,0,0,0,0,0,0,0,0,0,0,0,0,0,0,0,0,0,5271,5272,5273,5274,5275,5276,5277,5278,0,0,0,0,0,0,0,0,0,0,4362,4363,4364,4365,4366,4352,4353,4354,4355,0,0,0,0,0,0,0,1967,1968,1969,1970,4349,4350,4351,4388,4389,4390,4391,
4734,4735,4759,0,0,0,0,0,0,0,0,0,0,0,0,0,0,0,0,0,0,0,0,0,0,0,0,0,0,0,0,0,0,0,0,0,0,0,4387,4388,4389,4390,4391,4377,4378,4379,4380,0,0,0,0,0,0,0,0,0,0,0,4374,4375,4376,4413,4414,4415,4416,
4496,4496,4733,4735,4759,0,0,4760,4734,4735,4734,4734,4759,0,0,0,0,0,0,0,0,0,0,0,0,0,0,0,0,0,0,0,0,0,0,0,0,0,4412,4413,4414,4415,4416,4402,4403,4404,4405,0,0,4334,4734,4735,4734,0,0,2032,2033,0,4399,4400,4401,0,4760,4440,4347,
4623,4624,4648,4496,4733,4734,4735,4736,4496,4496,4646,4648,4715,0,0,0,0,0,0,0,0,0,0,0,0,0,0,0,0,0,0,0,0,0,0,0,0,0,0,0,4324,4325,4326,0,4428,4429,0,0,0,4496,0,0,0,0,0,0,0,0,0,0,0,0,4464,4371,4372,
0,0,0,4464,4465,0,0,0,0,0,0,0,0,0,0,0,0,0,0,0,0,0,0,0,0,0,0,0,0,0,0,0,0,0,0,0,0,0,0,0,4349,4350,4351,4321,4322,4323,0,0,0,0,0,0,0,0,0,0,0,4327,4328,0,0,0,0,4396,4397,
0,0,0,4489,4490,0,0,0,0,0,0,0,0,0,0,0,0,0,0,0,0,0,0,0,0,0,0,0,0,0,0,0,0,0,0,0,0,0,0,0,4374,4375,4376,4346,4347,4348,0,0,0,0,0,0,0,0,0,0,0,4352,4353,0,0,0,0,0,4422,
0,0,0,0,0,0,0,0,0,0,0,0,0,4682,0,0,0,0,0,0,0,0,0,0,0,0,0,0,0,0,0,0,0,0,0,0,0,0,0,0,4399,4400,4401,4371,4372,4373,0,0,0,0,0,0,0,0,0,0,0,0,0,0,0,0,0,4446,4447,
0,0,0,0,0,0,0,0,0,0,0,0,4337,4338,4339,4340,4341,0,0,0,0,0,0,0,0,0,0,0,0,0,0,0,0,0,0,0,0,0,0,0,4424,4425,0,4396,4397,4398,0,0,0,1903,1904,1905,1906,0,0,0,0,0,0,0,0,0,0,0,0,
0,0,0,0,0,0,0,0,0,0,0,0,4362,4363,4364,4365,4366,4367,0,0,0,0,0,0,0,0,0,0,0,0,0,0,0,0,0,0,0,0,0,0,0,0,0,4337,4338,4339,4340,4341,4342,1935,1936,1937,1938,0,0,0,0,0,0,0,0,0,0,0,0,
0,0,0,0,0,0,0,0,0,0,0,0,4387,4388,4389,4390,4391,4392,0,0,0,0,0,0,0,0,0,0,0,0,0,0,0,0,0,0,0,0,0,0,0,0,0,4362,4363,4364,4365,4366,4367,1967,1968,1969,1970,0,0,0,0,0,0,0,0,0,0,0,0,
0,0,0,0,0,0,0,0,0,0,0,0,4412,4413,4414,4415,4416,4417,0,0,0,0,0,0,0,0,0,0,0,0,0,0,0,0,0,0,0,0,0,0,0,0,0,4387,4388,4389,4390,4391,4392,1999,2000,2001,2002,0,0,0,0,0,0,0,0,0,0,0,0,
0,0,0,0,0,0,0,0,0,0,0,0,0,0,4439,4440,0,0,0,0,0,0,0,0,0,0,0,0,0,0,0,0,0,0,0,0,0,0,0,0,0,0,0,4412,4413,4414,4415,4416,4417,0,0,0,0,0,0,0,0,0,0,0,0,0,0,0,0,
0,0,0,0,0,0,0,0,0,0,0,0,0,0,0,0,0,0,0,0,0,0,0,0,0,0,0,0,0,0,0,0,0,0,0,0,0,0,0,0,0,0,0,0,0,0,0,0,0,0,0,0,0,0,0,0,0,0,0,0,0,0,0,0,0,
0,0,0,0,0,0,0,0,0,0,0,0,0,0,0,0,0,0,0,0,0,0,0,0,0,0,0,0,0,0,0,0,0,0,0,0,0,0,0,0,0,0,0,0,0,0,0,0,0,0,0,0,0,0,0,0,0,0,0,0,0,0,0,0,0,
0,0,0,0,0,0,4337,4338,4339,4340,4341,4342,0,0,0,0,0,0,0,0,0,0,0,0,0,0,0,0,0,0,0,0,0,0,0,0,0,0,0,0,0,0,0,1903,1904,1905,1906,0,0,0,0,0,0,0,0,4337,4338,4339,4340,4341,4342,0,1903,1904,1905,
4339,4340,4341,4342,0,0,4362,4363,4364,4365,4366,4367,0,0,0,0,0,0,0,0,0,0,0,0,0,0,0,0,0,0,0,0,0,0,0,0,0,0,0,0,0,0,0,1935,1936,1937,1938,0,0,0,0,0,1903,1904,0,4362,4363,4364,4365,4366,4367,0,1935,1936,1937,
4364,4365,4366,4367,0,0,4387,4388,4389,4390,4391,4392,0,0,0,0,0,4321,4322,4323,0,0,0,0,0,0,0,0,0,0,0,0,0,0,0,0,0,0,0,0,0,0,0,1967,1968,1969,1970,0,0,0,0,0,1935,1936,0,4387,4388,4389,4390,4391,4392,0,1967,1968,1969,
4389,4390,4391,4392,0,0,4412,4413,4414,4415,4416,4417,0,0,0,0,0,4346,4347,4348,0,0,0,0,0,0,0,0,0,0,0,0,0,4321,4322,4323,0,0,0,0,0,0,0,1999,2000,2001,2002,0,0,0,0,0,1967,1968,0,4412,4413,4414,4415,4416,4417,0,1999,2000,2001,
4414,4415,4416,4417,2000,2001,2002,0,4439,4440,0,0,0,0,4334,4335,4336,4371,4372,4373,0,0,0,0,0,0,0,0,0,0,0,0,0,4346,4347,4348,0,0,0,0,0,0,0,2031,2032,2033,2034,0,0,0,0,0,1999,2000,0,0,0,4439,4440,0,0,0,2031,2032,2033,
0,0,0,0,2032,2033,2034,0,4464,4465,0,0,0,0,0,0,0,4396,4397,4398,4337,4338,4339,4340,4341,4342,0,0,0,0,0,0,0,4371,4372,4373,0,0,0,0,4337,0,0,0,0,0,0,0,4439,4440,0,0,2031,2032,0,0,0,4464,4465,0,0,0,0,2064,2065,
0,0,0,0,4324,4325,4326,0,0,0,0,0,0,0,0,0,0,0,0,0,4362,4363,4364,4365,4366,4367,0,0,0,0,0,4321,4322,4323,4397,4398,4321,0,0,0,0,0,0,0,0,0,0,0,0,0,0,0,0,2064,2065,0,0,0,0,0,0,0,0,0,0,
0,0,0,0,4349,4350,4351,0,0,0,0,0,0,4324,4325,4326,0,0,0,0,4387,4388,4389,4390,4391,4392,0,0,0,0,0,4346,4347,4348,0,0,4346,0,0,0,0,0,0,0,0,0,0,0,0,0,0,0,0,2096,2097,0,0,0,4324,4325,4326,0,0,0,0,
0,0,0,0,4374,4375,4376,0,0,0,0,0,0,4349,4350,4351,0,0,0,0,4412,4413,4414,4415,4416,4417,0,0,0,0,0,4371,4372,4373,4321,4322,4323,0,0,0,0,0,4439,4440,0,0,0,0,0,0,0,0,0,0,0,0,0,0,4349,4350,4351,0,0,0,0
</data>
 </layer>
 <layer id="6" name="AlwaysFront2" width="65" height="30">
  <data encoding="csv">
0,0,0,0,0,0,0,0,0,0,0,0,0,0,0,0,0,0,0,0,0,0,0,0,0,0,0,0,0,0,0,0,0,0,0,0,0,0,0,0,0,0,0,0,0,0,0,0,0,0,0,0,0,0,0,0,0,0,0,0,0,0,0,0,0,
0,0,0,0,0,0,0,0,0,0,0,0,0,0,0,0,0,0,0,0,0,0,0,0,0,0,0,0,0,0,0,0,0,0,0,0,0,0,0,0,0,0,0,0,0,0,0,0,0,0,0,0,0,0,0,0,0,0,0,0,0,0,0,0,0,
0,0,0,0,0,0,0,0,0,0,0,0,0,0,0,0,0,0,0,0,0,0,0,0,0,0,0,0,0,0,0,0,0,0,0,0,0,0,0,0,0,0,0,0,0,0,0,0,0,0,0,0,0,0,0,0,0,0,0,0,0,0,0,0,0,
0,0,0,0,0,0,0,0,0,0,0,0,0,0,0,0,0,0,0,0,0,0,0,0,0,0,0,0,0,0,0,0,0,0,0,0,0,0,0,0,0,0,0,0,0,0,0,0,0,0,0,0,0,0,0,0,0,0,0,0,0,0,0,0,0,
0,0,0,0,0,0,0,0,0,0,0,0,0,0,0,0,0,0,0,0,0,0,0,0,0,0,0,0,0,0,0,0,0,0,0,0,0,0,0,0,0,0,0,0,0,0,0,0,0,0,0,0,0,0,0,0,0,0,0,0,0,0,0,0,0,
1905,0,0,0,0,0,0,0,0,0,4338,4339,4340,4341,4342,0,0,0,0,0,0,0,0,0,0,0,0,0,0,0,0,0,0,0,0,0,0,0,0,0,0,0,0,0,0,0,0,0,0,0,0,0,0,0,0,0,0,0,0,0,4337,4338,0,0,0,
1937,4337,4338,4339,4340,4341,4342,0,0,4362,4363,4364,4365,4366,4367,0,0,0,0,0,0,0,0,0,0,0,0,0,0,0,0,0,0,0,0,0,0,0,0,0,0,0,0,0,0,0,0,4321,4322,4323,0,0,0,0,0,0,0,0,0,0,4362,4363,0,0,0,
1969,4362,4363,4364,4365,4366,4367,0,0,4387,4388,4389,4390,4391,4392,0,0,0,0,0,0,0,0,0,0,0,0,0,0,0,0,0,0,0,0,0,0,0,0,0,0,0,0,4367,0,0,0,4346,4347,4348,0,0,0,0,0,0,0,0,0,0,4387,4388,0,0,0,
2001,4387,4388,4389,4390,4391,4392,0,0,4412,4413,4414,4415,4416,4417,0,0,0,0,0,0,0,0,0,0,0,0,0,0,0,0,0,0,0,0,0,0,0,0,0,0,0,0,4392,0,0,0,4371,4372,4373,0,0,0,0,0,0,0,0,0,0,4412,4413,0,4321,4322,
2033,4412,4413,4414,4415,4416,4417,0,0,2002,0,4439,4440,0,0,0,0,0,0,0,0,0,0,0,0,0,0,0,0,0,0,0,0,0,0,0,0,0,0,0,0,0,0,4417,0,0,0,4396,4397,4398,4335,4336,0,0,0,0,0,0,0,0,0,0,4439,4346,4347,
2065,0,0,4439,4440,0,2031,0,0,2034,0,4464,4465,0,0,0,0,0,0,0,0,0,0,0,0,0,0,0,0,0,0,0,0,0,0,0,0,0,0,0,0,0,0,0,0,0,0,0,0,4359,4360,4361,0,0,0,0,0,0,0,0,0,0,0,0,0,
2097,0,0,0,0,0,0,0,0,0,0,0,0,0,0,0,0,0,0,0,0,0,0,0,0,0,0,0,0,0,0,0,0,0,0,0,0,0,0,0,0,0,0,0,0,0,0,0,0,0,0,0,0,0,0,0,0,0,0,0,0,0,0,0,0,
0,4321,4322,4323,0,0,0,0,0,0,0,0,0,0,0,0,0,0,0,0,0,0,0,0,0,0,0,0,0,0,0,0,0,0,0,0,0,0,0,0,0,0,0,0,0,0,0,0,0,0,0,0,0,0,0,0,0,0,0,0,0,0,0,0,0,
0,4346,4347,4348,0,0,0,0,0,0,0,0,0,0,0,0,0,0,0,0,0,0,0,0,0,0,0,0,0,0,0,0,0,0,0,0,0,0,0,0,0,0,0,0,0,0,0,0,0,0,0,0,0,0,0,0,0,0,0,0,0,0,0,0,0,
0,4371,4372,4373,0,0,0,0,0,0,0,0,0,0,0,0,0,0,0,0,0,0,0,0,0,0,0,0,0,0,0,0,0,0,0,0,0,0,0,0,0,0,0,0,0,0,0,0,0,0,0,0,0,0,0,0,0,0,0,0,0,0,0,0,0,
0,4396,4397,4398,0,0,0,0,0,0,0,0,0,0,0,0,0,0,0,0,0,0,0,0,0,0,0,0,0,0,0,0,0,0,0,0,0,0,0,0,0,0,0,0,0,0,0,0,0,0,0,0,0,0,0,0,0,0,0,0,0,0,0,0,0,
0,0,0,0,0,0,0,0,0,0,0,0,0,0,0,0,0,0,0,0,0,0,0,0,0,0,0,0,0,0,0,0,0,0,0,0,0,0,0,0,0,0,0,0,0,0,0,0,0,0,0,0,0,0,0,0,0,0,0,0,0,0,0,0,0,
0,0,0,0,0,0,0,0,0,0,0,0,0,0,0,0,0,0,0,0,0,0,0,0,0,0,0,0,0,0,0,0,0,0,0,0,0,0,0,0,0,0,0,0,0,0,0,0,0,0,0,0,0,0,0,0,0,0,0,0,0,0,0,0,0,
0,0,0,0,0,0,0,0,0,0,0,0,0,0,0,0,0,0,0,0,0,0,0,0,0,0,0,0,0,0,0,0,0,0,0,0,0,0,0,0,0,0,0,0,0,0,0,0,0,0,0,0,0,0,0,0,0,0,0,0,0,0,0,0,0,
0,0,0,0,0,0,0,0,0,0,0,0,0,0,0,0,0,0,0,0,0,0,0,0,0,0,0,0,0,0,0,0,0,0,0,0,0,0,0,0,0,0,0,0,0,0,0,0,0,0,0,0,0,0,0,0,0,0,0,0,0,0,0,0,0,
0,0,0,0,0,0,0,0,0,0,0,0,0,0,0,0,0,0,0,0,0,0,0,0,0,0,0,0,0,0,0,0,0,0,0,0,0,0,0,0,0,0,0,0,0,0,0,0,0,0,0,0,0,0,0,0,0,0,0,0,0,0,0,0,0,
0,0,0,0,0,0,0,0,0,0,0,0,0,0,0,0,0,0,0,0,0,0,0,0,0,0,0,0,0,0,0,0,0,0,0,0,0,0,0,0,0,0,0,0,0,0,0,4338,4339,4340,4341,0,0,0,0,0,0,0,0,0,0,0,0,0,0,
0,0,0,1903,1904,1905,1906,0,0,0,0,0,0,0,0,0,0,0,0,0,0,0,0,0,0,0,0,0,0,0,0,0,0,0,0,0,0,0,0,0,0,0,0,0,0,0,4362,4363,4364,4365,4366,4340,4341,0,1905,1906,0,0,0,0,4324,4325,4326,0,0,
0,0,0,1935,1936,1937,1938,0,0,0,0,0,0,0,0,0,0,0,0,0,0,0,0,0,0,0,0,0,0,0,0,0,0,0,0,0,0,0,0,0,0,0,0,0,0,4362,4363,4364,4364,4365,4391,4364,4392,0,1937,1938,0,0,0,0,4349,4350,4351,0,0,
0,0,0,1967,1968,1969,0,4322,4323,0,0,0,0,0,0,0,0,0,0,0,0,0,0,0,0,0,0,0,0,0,0,0,0,0,0,0,0,0,0,0,0,0,0,0,0,4387,4389,4390,4389,4390,4389,4364,4392,0,1969,1970,0,0,0,0,4374,4375,4376,0,4321,
0,0,0,1999,0,0,4346,4347,4348,0,0,0,0,0,0,0,0,0,0,0,0,0,0,0,0,0,0,0,0,0,0,0,0,0,0,0,0,0,0,0,4337,4338,4339,4340,4341,4412,4413,4413,4414,4415,4416,4416,4417,0,2001,2002,0,0,0,0,4399,4400,4401,0,4346,
0,0,0,0,0,0,4371,4372,4373,0,0,0,0,0,0,0,0,0,0,0,0,0,0,0,0,0,0,0,0,0,0,0,0,0,0,0,0,0,0,0,4362,4363,4364,4365,4366,4367,0,0,0,0,0,0,0,0,2033,2034,0,0,0,0,0,0,0,0,4371,
0,0,0,0,0,0,4396,4397,4398,0,0,0,0,0,0,0,0,0,0,0,0,0,0,0,0,0,0,0,0,0,0,0,0,0,0,0,0,0,0,0,4387,4388,4389,4390,4391,4392,0,1969,1970,0,4337,4338,4339,4340,4341,4342,0,0,0,2031,0,0,2034,0,4396,
0,0,0,0,0,0,0,4422,0,0,0,0,0,0,0,0,0,0,0,0,0,0,0,0,0,0,0,0,0,0,0,0,0,0,0,0,0,0,0,0,4412,4413,4414,4415,4416,4417,0,2001,2002,0,4362,4363,4364,4365,4366,4367,0,0,0,4337,4338,4339,4340,4341,4342,
0,0,0,0,0,0,0,0,0,0,0,0,0,0,0,0,0,0,0,0,0,0,0,0,0,0,0,0,0,0,0,0,0,0,0,0,0,0,0,0,0,0,0,0,0,0,0,2033,2034,0,4387,4388,4389,4390,4391,4392,0,0,0,4362,4363,4364,4365,4366,4367
</data>
 </layer>
 <layer id="7" name="AlwaysFront3" width="65" height="30">
  <data encoding="csv">
0,0,0,0,0,0,0,0,0,0,0,0,0,0,0,0,0,0,0,0,0,0,0,0,0,0,0,0,0,0,0,0,0,0,0,0,0,0,0,0,0,0,0,0,0,0,0,0,0,0,0,0,0,0,0,0,0,0,0,0,0,0,0,0,0,
0,0,0,0,0,0,0,0,0,0,0,0,0,0,0,0,0,0,0,0,0,0,0,0,0,0,0,0,0,0,0,0,0,0,0,0,0,0,0,0,0,0,0,0,0,0,0,0,0,0,0,0,0,0,0,0,0,0,0,0,0,0,0,0,0,
0,0,0,0,0,0,0,0,0,0,0,0,0,0,0,0,0,0,0,0,0,0,0,0,0,0,0,0,0,0,0,0,0,0,0,0,0,0,0,0,0,0,0,0,0,0,0,0,0,0,0,0,0,0,0,0,0,0,0,0,0,0,0,0,0,
0,0,0,0,0,0,0,0,0,0,0,0,0,0,0,0,0,0,0,0,0,0,0,0,0,0,0,0,0,0,0,0,0,0,0,0,0,0,0,0,0,0,0,0,0,0,0,0,0,0,0,0,0,0,0,0,0,0,0,0,0,0,0,0,0,
0,0,0,0,0,0,0,0,0,0,0,0,0,0,0,0,0,0,0,0,0,0,0,0,0,0,0,0,0,0,0,0,0,0,0,0,0,0,0,0,0,0,0,0,0,0,0,0,0,0,0,0,0,0,0,0,0,0,0,0,0,0,0,0,0,
0,1906,0,0,0,0,0,0,0,0,0,0,0,0,0,0,0,0,0,0,0,0,0,0,0,0,0,0,0,0,0,0,0,0,0,0,0,0,0,0,0,0,0,0,0,0,0,0,0,0,0,0,0,0,0,0,0,0,0,0,0,0,0,0,0,
0,1938,0,0,0,0,1903,1904,1905,1906,0,0,0,0,0,0,0,0,0,0,0,0,0,0,0,0,0,0,0,0,0,0,0,0,0,0,0,0,0,0,0,0,0,0,0,0,0,0,0,0,4337,4338,4339,4340,4341,4342,0,0,0,0,0,0,0,0,0,
0,1970,0,0,0,0,1935,1936,1937,1938,0,0,0,0,0,0,0,0,0,0,0,0,0,0,0,0,0,0,0,0,0,0,0,0,0,0,0,0,0,0,0,0,0,0,0,0,0,0,0,0,4362,4363,4364,4365,4366,4367,0,0,0,0,0,0,0,0,0,
0,2002,0,0,0,0,1967,1968,1969,1970,0,0,0,0,0,0,0,0,0,0,0,0,0,5377,0,0,5377,0,0,0,0,0,0,0,0,0,0,0,0,0,0,0,0,0,0,0,0,0,0,0,4387,4388,4389,4390,4391,4392,0,0,0,0,0,0,0,0,0,
0,0,0,0,0,0,1999,2000,2001,4324,4325,4326,0,0,0,0,0,0,0,0,0,0,0,0,0,0,0,0,0,0,0,0,0,0,0,0,0,0,0,0,0,0,0,0,0,0,0,0,0,0,4412,4413,4414,4415,4416,4417,0,0,0,0,0,0,0,0,0,
0,0,0,0,0,0,2031,2032,2033,4349,4350,4351,0,0,0,0,0,0,0,0,0,0,0,0,0,0,0,0,0,0,0,0,0,0,0,0,0,0,0,0,0,0,0,0,0,0,0,0,0,0,0,0,4439,4440,0,0,0,0,0,0,0,0,0,0,0,
0,0,0,0,0,0,0,0,0,4374,4375,4376,0,0,0,0,0,0,0,0,0,0,0,0,0,0,0,0,0,0,0,0,0,0,0,0,0,0,0,0,0,0,0,0,0,0,0,0,0,0,0,0,0,0,0,0,0,0,0,0,0,0,0,0,0,
0,0,0,0,0,0,0,0,0,4399,4400,4401,0,0,0,0,0,0,0,0,0,0,0,0,0,0,0,0,0,0,0,0,0,0,0,0,0,0,0,0,0,0,0,0,0,0,0,0,0,0,0,0,0,0,0,0,0,0,0,0,0,0,0,0,0,
0,0,0,0,0,0,0,0,0,0,0,0,0,0,0,0,0,0,0,0,0,0,0,0,0,0,0,0,0,0,0,0,0,0,0,0,0,0,0,0,0,0,0,0,0,0,0,0,0,0,0,0,0,0,0,0,0,0,0,0,0,0,0,0,0,
0,0,0,0,0,0,0,0,0,0,0,0,0,0,0,0,0,0,0,0,0,0,0,0,0,0,0,0,0,0,0,0,0,0,0,0,0,0,0,0,0,0,0,0,0,0,0,0,0,0,0,0,0,0,0,0,0,0,0,0,0,0,0,0,0,
0,0,0,0,0,0,0,0,0,0,0,0,0,0,0,0,0,0,0,0,0,0,0,0,0,0,0,0,0,0,0,0,0,0,0,0,0,0,0,0,0,0,0,0,0,0,0,0,0,0,0,0,0,0,0,0,0,0,0,0,0,0,0,0,0,
0,0,0,0,0,0,0,0,0,0,0,0,0,0,0,0,0,0,0,0,0,0,0,0,0,0,0,0,0,0,0,0,0,0,0,0,0,0,0,0,0,0,0,0,0,0,0,0,0,0,0,0,0,0,0,0,0,0,0,0,0,0,0,0,0,
0,0,0,0,0,0,0,0,0,0,0,0,0,0,0,0,0,0,0,0,0,0,0,0,0,0,0,0,0,0,0,0,0,0,0,0,0,0,0,0,0,0,0,0,0,0,0,0,0,0,0,0,0,0,0,0,0,0,0,0,0,0,0,0,0,
0,0,0,0,0,0,0,0,0,0,0,0,0,0,0,0,0,0,0,0,0,0,0,0,0,0,0,0,0,0,0,0,0,0,0,0,0,0,0,0,0,0,0,0,0,0,0,0,0,0,0,0,0,0,0,0,0,0,0,0,0,0,0,0,0,
0,0,0,0,0,0,0,0,0,0,0,0,0,0,0,0,0,0,0,0,0,0,0,0,0,0,0,0,0,0,0,0,0,0,0,0,0,0,0,0,0,0,0,0,0,0,0,0,0,0,0,0,0,0,0,0,0,0,0,0,0,0,0,0,0,
0,0,0,0,0,0,0,0,0,0,0,0,0,0,0,0,0,0,0,0,0,0,0,0,0,0,0,0,0,0,0,0,0,0,0,0,0,0,0,0,0,0,0,0,0,0,0,0,0,0,0,0,0,0,0,0,0,0,0,0,0,0,0,0,0,
0,0,0,0,0,0,0,0,0,0,0,0,0,0,0,0,0,0,0,0,0,0,0,0,0,0,0,0,0,0,0,0,0,0,0,0,0,0,0,0,0,0,0,0,0,0,0,0,0,0,0,0,0,0,0,0,0,0,0,0,0,0,0,0,0,
0,0,0,0,0,0,0,0,0,0,0,0,0,0,0,0,0,0,0,0,0,0,0,0,0,0,0,0,0,0,0,0,0,0,0,0,0,0,0,0,0,0,0,0,0,0,0,0,0,0,0,0,0,0,0,0,0,0,0,0,0,0,0,0,0,
0,0,0,0,0,0,0,0,0,0,0,0,0,0,0,0,0,0,0,0,0,0,0,0,0,0,0,0,0,0,0,0,0,0,0,0,0,0,0,0,0,0,0,0,0,0,0,0,0,0,0,0,0,0,0,0,0,0,0,0,0,0,0,0,0,
0,0,0,0,0,0,1970,0,0,0,0,0,0,0,0,0,0,0,0,0,0,0,0,0,0,0,0,0,0,0,0,0,0,0,0,0,0,0,0,0,0,0,0,0,0,0,0,0,0,0,0,0,0,0,0,0,0,0,0,0,0,0,0,0,0,
0,0,0,0,0,0,0,0,0,1903,1904,1905,1906,0,0,0,0,0,0,0,0,0,0,0,0,0,0,0,0,0,0,0,0,0,0,0,0,0,0,0,0,0,0,0,0,1903,1904,1905,1906,0,0,0,0,0,0,0,0,0,0,0,0,0,0,0,0,
0,0,0,0,0,0,0,0,0,1935,1936,1937,1938,0,0,0,0,0,0,0,0,0,0,0,0,0,0,0,0,0,0,0,0,0,0,0,0,0,0,0,0,0,0,0,0,1935,1936,1937,1938,0,0,0,0,0,0,0,0,0,0,0,0,0,0,0,0,
0,0,0,0,0,0,0,0,0,1967,1968,1969,1970,0,0,0,0,0,0,0,0,0,0,0,0,0,0,0,0,0,0,0,0,0,0,0,0,0,0,0,0,0,0,0,0,1967,1968,0,4324,4325,4326,0,0,0,0,0,0,0,0,0,0,0,0,0,0,
0,0,0,0,0,0,0,0,0,1999,2000,2001,2002,0,0,0,0,0,0,0,0,0,0,0,0,0,0,0,0,0,0,0,0,0,0,0,0,0,0,0,0,0,0,0,0,1999,2000,0,4349,4350,4351,0,0,0,0,0,0,0,0,0,0,0,0,0,0,
0,0,0,0,0,0,0,0,0,0,2032,2033,0,0,0,0,0,0,0,0,0,0,0,0,0,0,0,0,0,0,0,0,0,0,0,0,0,0,0,0,0,0,0,0,0,2031,2032,0,4374,4375,4376,0,0,0,0,0,0,0,0,0,0,0,0,0,0
</data>
 </layer>
 <objectgroup id="8" name="Collisions">
  <object id="2" x="0" y="416" width="1044" height="10.6667"/>
  <object id="3" x="0" y="334.667" width="338.667" height="14.6667"/>
  <object id="4" x="241.333" y="317.333"/>
  <object id="5" x="209.333" y="225.333" width="12" height="105.333"/>
  <object id="6" x="128" y="185.333"/>
  <object id="7" x="167" y="233"/>
  <object id="8" x="40" y="279.333"/>
  <object id="9" x="159.333" y="274" width="45.3333" height="54"/>
  <object id="10" x="150" y="278.667" width="7.33333" height="51.3333"/>
  <object id="11" x="150" y="330"/>
  <object id="12" x="144" y="306" height="0.666667"/>
  <object id="13" x="140.667" y="318"/>
  <object id="14" x="132" y="322.667" width="2" height="0.666667"/>
  <object id="15" x="130.667" y="310.667" height="3.33333"/>
  <object id="16" x="138" y="305.333"/>
  <object id="17" x="150.667" y="300.667"/>
  <object id="18" x="119.333" y="318" width="1.33333"/>
  <object id="19" x="112" y="317.333" width="0.666667"/>
  <object id="20" x="106" y="317.333" width="3.33333"/>
  <object id="21" x="94" y="317.333"/>
  <object id="22" x="76" y="316"/>
  <object id="23" x="118" y="318"/>
  <object id="24" x="52" y="313.333"/>
  <object id="25" x="32.6667" y="304"/>
  <object id="26" x="12" y="301.333" height="1.33333"/>
  <object id="27" x="11.3333" y="298" height="0.666667"/>
  <object id="28" x="11.3333" y="304" height="0.666667"/>
  <object id="30" x="2" y="291.625" width="20.125" height="22.375"/>
  <object id="31" x="417.333" y="336" width="413.333" height="12"/>
  <object id="32" x="833.333" y="335.333" width="204" height="12"/>
  <object id="33" x="752" y="259.333" width="116.667" height="25.3333"/>
  <object id="34" x="752" y="157.333" width="8" height="103.333"/>
  <object id="35" x="777.333" y="182.667"/>
  <object id="36" x="848" y="189.333"/>
  <object id="37" x="951.333" y="182"/>
  <object id="38" x="1007.33" y="176" height="1.33333"/>
  <object id="39" x="946" y="277.333"/>
  <object id="40" x="979.333" y="185.333" width="30.6667" height="34"/>
  <object id="41" x="1010" y="220.667" width="29.3333" height="44"/>
  <object id="42" x="866" y="292" width="7.33333" height="29.3333"/>
  <object id="43" x="877.333" y="306" width="89.3333" height="13.3333"/>
  <object id="44" x="1004.67" y="288" width="32.6667" height="12"/>
  <object id="45" x="972" y="295.333" width="30.6667" height="12"/>
  <object id="46" x="900" y="66" width="140.667" height="12.6667"/>
  <object id="47" x="828.667" y="51.3333" width="36" height="6.66667"/>
  <object id="48" x="65" y="27.5" width="121.5" height="47"/>
  <object id="49" x="0.5" y="16.5" width="63.5" height="36.5"/>
  <object id="50" x="64" y="53"/>
  <object id="51" x="1.33333" y="241.667" width="35" height="8.33333"/>
  <object id="52" x="36.6667" y="245.667" width="22.3333" height="15"/>
  <object id="53" x="62.3333" y="260.667" width="38.6667" height="6.66667"/>
  <object id="54" x="112" y="230" width="12" height="7.5"/>
  <object id="55" x="320.5" y="98.5" width="126.5" height="57.5"/>
  <object id="56" x="272.667" y="165.333" width="17.3333" height="25.3333"/>
  <object id="57" x="-0.666667" y="134.667" width="43.3333" height="15.3333"/>
  <object id="58" x="45.3333" y="150" width="32.6667" height="14"/>
  <object id="59" x="82.6667" y="166" width="32.6667" height="6.66667"/>
  <object id="60" x="118.667" y="151.333" width="87.3333" height="16"/>
  <object id="61" x="196.667" y="168" width="8" height="102.667"/>
  <object id="62" x="642" y="174.667" width="12" height="156"/>
  <object id="63" x="689" y="176.667" width="58.6667" height="8.33333"/>
  <object id="64" x="760.5" y="158.5" width="275.5" height="13.5"/>
  <object id="65" x="535.333" y="35.3333" width="179.333" height="40"/>
  <object id="66" x="714.667" y="15.3333" width="112" height="40"/>
  <object id="67" x="859.333" y="27.3333" width="61.3333" height="33.3333"/>
  <object id="68" x="877.333" y="56.6667" width="42" height="12.6667"/>
  <object id="70" x="186.667" y="14" width="52.6667" height="31.3333"/>
  <object id="71" x="221.333" y="46.6667" width="17.3333" height="32.6667"/>
  <object id="72" x="248.667" y="0" width="285.333" height="19.3333"/>
  <object id="73" x="488.667" y="1.33333" width="46.6667" height="34"/>
  <object id="74" x="286.667" y="53.3333"/>
  <object id="75" x="250" y="35.3333" width="2.66667" height="4.66667"/>
  <object id="76" x="259.333" y="46.6667" width="3.33333" height="2"/>
  <object id="77" x="264" y="50"/>
  <object id="78" x="245.333" y="35.3333"/>
  <object id="79" x="413.333" y="62" height="0.666667"/>
  <object id="80" x="417.333" y="67.3333"/>
  <object id="88" x="-0.5" y="52.5" width="5" height="82"/>
  <object id="89" x="1036" y="79.3333" width="3.66667" height="79"/>
 </objectgroup>
 <objectgroup id="9" name="ActionFarm">
  <object id="81" name="ActionFarm" x="-0.25" y="350" width="5.75" height="65.5"/>
 </objectgroup>
 <objectgroup id="10" name="ActionTown">
  <object id="85" name="ActionTown" x="1034.75" y="346.75" width="5.25" height="69.25"/>
 </objectgroup>
</map>
