<?xml version="1.0" encoding="UTF-8"?>
<map version="1.10" tiledversion="1.11.2" orientation="orthogonal" renderorder="right-down" width="65" height="30" tilewidth="16" tileheight="16" infinite="0" nextlayerid="12" nextobjectid="93">
 <tileset firstgid="1" name="spring_outdoorsTileSheet" tilewidth="16" tileheight="16" tilecount="1975" columns="25">
  <image source="spring_outdoorsTileSheet.png" width="400" height="1264"/>
 </tileset>
 <tileset firstgid="1976" name="spring_outdoorsTileSheet2" tilewidth="16" tileheight="16" tilecount="1120" columns="16">
  <image source="spring_outdoorsTileSheet2.png" width="256" height="1120"/>
 </tileset>
 <layer id="1" name="Back" width="65" height="30">
  <data encoding="csv">
176,176,176,176,176,351,352,306,305,352,352,352,352,352,1077,352,379,330,381,381,381,381,381,381,381,381,381,176,176,176,381,381,381,351,376,352,381,406,406,406,406,406,407,354,378,376,277,278,279,377,378,176,351,352,352,352,352,352,352,376,377,378,351,330,330,
176,176,176,176,176,376,377,277,278,279,404,381,407,352,1077,377,404,330,406,406,406,406,408,381,381,381,406,406,330,408,381,381,381,316,381,377,277,278,279,377,277,278,279,378,176,176,176,176,176,176,176,152,351,352,352,352,352,352,352,352,381,326,329,330,330,
176,176,176,176,176,176,176,176,176,176,376,404,352,352,1077,255,351,330,352,306,330,301,405,406,406,406,354,377,404,405,408,381,352,341,381,381,381,176,176,176,176,176,176,176,176,176,176,176,176,176,176,176,376,277,278,279,404,305,352,330,330,352,352,330,330,
176,176,176,176,176,176,176,176,176,176,376,376,404,353,1077,151,376,277,278,279,377,404,352,306,305,352,353,152,376,404,405,406,408,515,381,381,381,176,176,176,176,176,176,176,176,176,176,176,176,176,176,176,176,176,176,176,376,377,376,377,377,377,377,330,352,
352,352,352,352,352,352,352,352,352,352,352,352,376,378,1076,176,176,176,176,176,255,376,377,277,278,279,401,176,176,376,377,404,405,406,381,381,381,352,352,352,352,352,352,352,352,352,352,352,352,352,352,352,352,352,352,352,352,176,262,380,381,351,352,352,352,
377,277,278,279,377,377,377,377,377,377,377,377,176,176,402,176,176,176,257,176,151,176,176,151,152,151,401,176,176,176,255,376,377,277,278,279,277,278,279,377,277,278,279,377,377,377,277,278,279,377,277,279,377,377,377,377,377,377,377,377,377,377,377,377,377,
1029,1029,1029,1028,1029,1029,1029,1029,1028,1029,1028,1029,1029,1028,1029,1028,1029,1029,1029,1032,1028,1029,1029,1029,1029,1029,1029,1029,1028,1029,1029,1029,1028,1029,1029,1029,1029,1029,1028,1029,1029,1029,1029,1029,1028,1029,1029,1029,1028,1029,1029,1029,1029,1029,1029,1029,1029,352,312,1028,1028,176,176,351,352,
1055,1055,1055,1055,1055,1055,1055,1055,1055,1055,1055,1055,1055,1055,1055,1055,1055,1055,1055,1031,1055,1055,1055,1055,1055,1055,1055,1055,1055,1055,1055,1055,1055,1055,1055,1055,1055,1055,1055,1055,1055,1055,1055,1055,1055,1055,1055,1055,1055,1055,1055,1055,1055,1055,1055,1055,1055,352,351,1055,1055,328,326,329,301,
1057,1057,1057,1057,1057,1057,1057,1057,1057,1057,1055,1057,1057,1057,1057,1057,1057,1057,1057,1031,1057,1057,1057,1057,1057,1057,1057,1057,1057,1057,1057,1057,1057,1057,1057,1057,1057,1057,1057,1057,1057,1057,1057,1057,1057,1057,1057,1057,1057,1057,1057,1057,1057,1057,1057,1057,1057,352,262,1057,1057,378,351,352,330,
176,176,1055,1055,1055,1055,1055,1055,1055,1055,1055,1055,1055,1055,1055,1055,1055,1055,1055,1031,1055,1055,1055,1055,1055,1055,1055,1055,1055,1055,1055,1055,1055,1055,1055,1055,1055,1055,1055,1055,1055,1055,1055,1055,1055,1055,1055,1055,1055,1055,1055,1055,1055,1055,1055,1055,1055,152,287,1055,1055,176,351,352,352,
303,304,328,176,1054,1054,1054,1054,176,176,1054,1054,1054,1054,1054,1054,1054,1054,1054,1079,1054,1054,1054,1054,1054,1054,1054,1054,1054,1054,1054,1054,1054,1054,1054,1054,1054,1054,1054,1054,1054,1054,1054,1054,1054,1054,1054,1054,1054,1054,1054,1054,1054,1054,1054,1054,1054,328,287,1054,1054,381,376,404,352,
352,301,379,302,303,304,302,303,304,327,329,328,327,328,1051,1052,1052,1052,1052,1052,1052,1052,1052,1052,1052,1052,1052,1052,1052,1053,402,176,151,176,176,152,401,176,151,326,327,327,327,327,327,327,327,303,176,176,326,327,327,329,327,330,330,327,327,327,327,327,152,376,404,
305,352,355,356,356,357,306,352,352,352,352,353,352,379,303,328,151,176,176,176,151,176,201,204,176,176,176,176,151,176,176,326,327,328,201,202,202,204,176,351,380,381,352,355,356,356,357,352,353,176,376,404,330,330,354,277,279,378,351,352,355,356,352,176,351,
330,352,405,406,406,407,278,279,404,301,352,353,381,357,352,353,176,152,201,202,204,201,203,229,151,176,257,201,202,204,152,351,352,353,226,227,232,229,176,262,352,352,352,380,381,381,382,381,381,201,204,376,377,377,378,326,327,328,376,404,380,381,381,381,376,
377,277,278,279,377,378,352,352,376,404,352,353,406,382,352,353,176,402,226,590,229,226,615,229,402,176,201,203,232,229,176,376,377,378,251,252,252,254,176,287,355,356,357,380,381,382,407,380,402,251,254,176,152,326,328,351,305,353,176,351,405,406,408,381,152,
352,352,352,352,152,176,352,352,327,329,352,382,305,382,352,353,176,176,251,252,254,226,228,178,204,151,226,183,228,178,204,176,257,176,176,151,176,402,176,312,380,381,382,405,406,407,352,380,381,176,176,176,176,376,378,376,377,378,176,376,377,404,380,381,381,
352,352,352,352,352,352,352,352,354,277,279,382,306,382,352,353,176,176,176,402,176,251,253,464,178,204,251,230,231,205,254,257,257,176,176,176,176,176,151,351,405,406,407,356,357,352,352,380,381,176,176,176,176,176,176,176,176,326,302,304,328,351,405,406,406,
377,277,278,279,351,352,352,354,378,0,381,356,380,382,352,353,176,176,151,176,201,204,251,253,228,229,201,202,204,257,402,176,257,176,176,402,176,176,401,351,330,352,380,381,382,352,352,380,381,381,381,381,381,381,381,176,176,351,352,352,353,376,277,278,279,
0,0,0,0,376,277,279,378,0,0,381,381,381,382,352,379,327,328,401,176,251,254,402,226,561,229,226,182,178,204,176,176,176,151,326,327,328,152,176,262,330,352,405,406,407,352,352,405,406,408,381,381,381,381,381,152,176,376,377,377,378,176,176,176,176,
381,381,381,381,352,352,352,352,352,352,381,381,381,382,305,306,305,379,302,303,304,328,201,203,179,254,251,252,252,254,401,151,176,402,351,352,353,176,176,287,330,352,330,305,301,352,330,330,301,380,381,381,381,157,381,352,352,352,352,352,352,381,381,381,381,
406,406,406,406,352,352,352,352,352,352,406,406,406,407,352,352,306,352,305,352,352,353,251,253,178,204,326,327,327,401,327,327,327,176,376,377,378,176,176,312,330,352,305,352,305,352,330,330,352,405,406,406,406,406,406,406,406,406,406,406,406,406,406,406,406,
352,354,377,377,377,377,377,377,377,377,377,377,377,377,377,377,377,377,377,377,377,378,401,226,227,229,376,377,377,377,377,257,257,257,257,257,257,257,257,257,377,377,377,377,377,377,377,377,377,377,377,377,377,377,377,377,377,377,377,377,377,404,330,330,330,
377,378,181,181,202,180,181,206,202,202,202,202,180,181,206,202,180,206,202,202,180,181,206,203,228,178,202,180,206,202,202,180,181,181,206,202,202,180,206,202,202,180,181,181,202,202,202,202,202,202,202,202,202,202,202,202,202,202,202,202,204,376,377,377,377,
154,154,154,154,154,154,154,154,154,154,228,228,489,227,208,227,228,227,228,611,228,228,232,227,228,228,227,207,227,227,565,228,227,227,232,228,228,611,227,227,590,514,227,227,154,154,154,154,154,154,154,154,154,154,154,154,154,154,154,154,154,154,154,154,154,
252,252,252,252,252,252,252,252,252,230,231,231,205,252,252,252,230,231,231,205,252,252,230,231,231,205,252,252,230,231,205,252,230,231,231,205,252,252,230,231,205,252,230,231,252,252,252,252,252,252,252,252,252,252,252,252,252,252,352,352,352,352,352,352,352,
327,327,327,327,327,302,303,304,327,302,303,304,327,327,402,327,327,327,327,327,327,327,401,152,402,327,327,402,327,327,327,327,327,327,327,327,327,176,176,401,176,176,401,151,326,327,327,355,356,381,381,381,381,381,381,379,327,329,355,355,355,356,381,381,381,
330,330,330,330,330,330,330,355,356,356,357,352,352,352,352,352,352,352,352,352,352,352,352,352,352,352,352,352,352,352,352,352,352,352,352,352,352,327,327,327,327,327,327,327,329,352,306,380,381,381,381,381,381,381,381,381,381,381,381,381,381,381,381,381,381,
356,356,357,355,356,356,357,380,381,381,382,305,352,352,377,377,377,352,352,352,352,352,352,352,352,352,352,352,352,356,356,356,356,356,352,352,352,356,356,356,356,356,356,356,352,352,305,380,381,381,381,381,381,381,381,358,380,381,358,407,380,381,381,381,381,
381,381,382,380,381,381,382,405,406,406,407,352,352,352,327,327,327,352,257,352,352,352,352,352,352,352,352,352,352,381,381,381,381,352,352,381,352,381,381,381,381,381,381,381,352,352,380,381,381,381,381,381,381,381,381,382,405,406,407,352,405,408,381,381,381,
406,406,407,405,406,406,407,330,352,352,352,352,352,352,352,352,352,352,352,352,352,352,352,352,352,381,352,352,352,381,381,381,381,352,352,352,352,381,381,381,381,381,381,381,352,306,405,406,406,381,381,407,405,406,406,407,352,352,352,352,352,380,381,381,381
</data>
 </layer>
 <layer id="2" name="Buildings" width="65" height="30">
  <data encoding="csv">
170,176,176,158,159,144,145,306,305,133,134,144,145,352,0,352,379,330,385,386,127,384,385,386,127,359,360,540,516,515,491,466,291,292,351,405,406,64,65,66,258,158,159,354,130,376,277,278,279,2376,2378,2379,446,447,2362,2361,2362,2352,2353,114,115,2356,2357,2360,2361,
469,468,469,465,441,169,170,277,278,158,159,169,170,102,129,129,129,0,0,0,0,0,0,0,0,384,385,386,541,540,516,515,316,442,376,308,277,278,258,377,277,278,279,308,343,369,447,469,468,469,2380,152,2376,2377,2378,2377,2378,2368,2369,2370,2371,2372,2373,2376,2377,
494,493,494,490,466,468,469,447,469,471,376,170,0,127,129,129,129,144,145,0,0,0,0,0,0,0,0,0,0,0,541,540,341,467,447,469,468,469,468,469,468,469,468,469,368,394,493,494,493,494,2396,2397,114,115,278,279,404,305,2385,2386,2387,2388,144,145,352,
519,518,519,515,491,493,494,493,494,496,497,0,0,0,959,1081,1082,169,170,0,0,0,0,0,0,0,0,0,0,0,0,0,541,492,493,494,493,494,493,494,493,494,493,494,393,419,518,519,518,519,2412,2413,2361,2362,2352,2353,376,377,376,377,377,377,169,170,352,
544,543,544,540,516,518,519,518,519,521,522,523,0,0,0,0,0,0,0,0,0,0,0,0,0,158,159,0,0,0,0,0,0,517,518,519,518,519,518,519,518,519,518,519,418,444,543,544,543,544,2428,2429,2377,2378,2368,2369,2348,2361,2362,2361,2362,2361,2362,2361,2371,
103,64,65,66,541,543,544,543,544,546,547,548,549,0,0,0,0,0,233,0,0,0,0,0,0,0,0,0,0,0,0,0,0,542,543,544,543,544,543,544,543,544,543,544,443,64,65,66,279,377,114,115,377,377,377,2385,2364,2377,2378,2377,2378,2377,2378,2377,2387,
103,103,103,103,103,103,103,103,103,103,103,0,0,0,0,0,0,0,0,0,0,0,0,0,0,0,0,0,0,0,0,0,0,0,0,0,0,0,0,0,0,0,0,0,1029,1029,1029,1029,1028,1028,1028,1028,1028,1028,1028,1028,1028,1028,1028,1028,1028,1028,1028,1028,1028,
103,103,103,103,103,103,103,103,103,103,103,0,0,0,0,0,0,0,0,0,0,1055,1055,1055,1055,1055,1055,1055,1055,0,0,0,0,0,0,0,0,0,0,0,0,0,0,0,1055,1055,1055,1055,1055,1055,1055,1055,1055,1055,1055,1055,1055,1055,1055,1055,1055,1055,1055,1055,1055,
103,103,103,103,103,103,103,103,103,103,103,0,0,0,0,0,0,0,0,0,0,1057,1057,1083,1057,1057,1083,1057,1057,0,0,0,0,0,0,0,0,0,0,0,0,0,0,0,1057,1057,1057,1057,1057,1057,1057,1057,1057,1057,1057,1057,1057,1057,1057,1057,1057,1057,1057,1057,1057,
103,103,103,103,103,103,103,103,103,103,103,0,0,0,0,0,0,0,0,0,0,1055,0,1055,1055,1055,1055,1055,1055,0,0,0,0,0,0,0,0,0,0,0,0,0,0,0,1055,1055,1055,1055,1055,1055,1055,1055,1055,1055,1055,1055,1055,1055,1055,1055,1055,1055,1055,1055,1055,
103,103,103,103,103,103,103,103,103,103,326,103,103,0,0,0,0,0,0,0,0,0,0,0,0,0,0,0,0,0,0,0,0,0,0,0,0,0,0,0,0,0,0,0,1054,1054,1054,392,176,176,176,176,176,326,327,327,327,328,176,176,151,176,176,145,1054,
352,301,379,302,303,304,302,0,0,327,329,353,420,0,0,0,0,1058,0,0,0,0,0,0,0,0,0,0,0,0,0,0,0,0,0,0,0,0,0,0,144,145,327,384,385,385,386,417,127,64,65,66,144,145,301,327,352,353,327,130,327,2344,169,170,404,
305,352,355,356,356,357,306,0,0,352,352,353,395,0,0,0,0,0,0,0,0,0,0,0,0,0,0,0,0,0,0,0,0,0,0,0,0,0,0,0,169,170,352,355,158,159,233,392,176,151,376,404,169,170,354,277,279,378,351,352,355,446,2348,2349,351,
330,352,405,406,406,407,278,279,404,301,352,233,420,0,0,233,0,0,0,0,0,0,0,0,0,0,233,0,0,0,0,0,0,0,0,0,0,0,0,0,387,352,301,380,381,381,382,417,176,201,204,114,115,377,378,326,327,328,376,404,380,2376,2364,2365,376,
377,277,278,279,377,378,2350,2414,376,404,130,258,395,387,0,0,0,0,0,0,0,0,0,0,0,0,0,0,0,0,0,0,0,0,0,0,0,0,0,0,387,356,357,380,381,358,258,392,402,251,254,176,152,326,328,351,305,353,176,351,405,0,0,2344,152,
2361,2362,2352,2353,152,233,2377,2430,2431,329,308,353,420,387,0,0,0,0,0,0,0,0,0,0,0,0,0,0,0,0,0,0,233,0,0,0,0,0,0,0,387,381,382,405,406,407,352,417,401,176,176,176,176,376,378,376,377,378,176,376,377,404,380,2360,2361,
2377,2378,2368,2369,447,2362,2363,114,115,277,279,378,445,387,0,0,0,0,0,0,0,0,0,0,0,0,0,0,0,0,0,0,0,0,0,0,0,0,0,0,387,406,15,16,127,352,352,2361,2362,2361,2362,2361,2362,2348,2349,65,66,326,133,134,328,351,405,2376,2377,
377,277,127,2385,2377,2378,2379,354,378,2447,447,469,470,387,233,0,0,0,0,0,0,0,0,0,0,0,0,0,0,0,0,0,0,0,0,0,0,0,0,0,387,352,40,41,382,352,352,2377,2378,2377,2378,2377,2378,2364,2365,176,176,351,158,159,353,376,277,114,115,
2361,2362,2352,2353,376,64,65,66,2462,2463,493,448,495,387,0,0,0,0,0,0,0,0,0,0,0,0,0,0,0,0,0,0,0,0,0,0,0,0,0,0,387,352,65,66,407,352,352,405,406,408,381,381,114,115,2344,152,176,114,115,377,378,2356,2357,2361,2362,
2377,2378,2368,2369,2361,2362,447,2362,2478,2479,449,519,520,387,144,145,0,0,0,0,0,0,0,0,0,0,0,0,0,0,0,0,0,0,0,0,0,0,0,0,412,352,308,305,301,352,330,330,301,380,0,0,308,157,446,2361,2362,447,2362,2361,2362,2372,2373,2377,2378,
114,115,308,2385,2377,2378,2377,2378,2494,2495,543,544,545,412,169,170,0,0,0,0,0,0,0,0,0,0,0,0,0,0,0,0,0,0,0,0,0,0,0,0,437,258,305,352,305,144,145,114,115,405,0,0,406,406,2376,2377,2378,2377,2378,2377,2378,2388,64,65,66,
385,385,435,385,385,385,386,385,385,385,385,385,386,437,384,385,435,385,386,385,386,0,0,0,0,0,384,385,385,385,384,385,386,385,385,386,386,385,384,435,386,385,385,386,386,169,170,384,385,386,385,385,435,385,385,385,435,385,386,385,385,435,385,385,385,
377,378,181,181,202,180,181,206,202,0,0,0,0,0,0,0,0,0,0,0,0,436,0,0,0,0,0,0,0,0,0,0,0,0,0,0,0,0,0,0,0,0,0,0,0,202,202,202,202,202,202,202,202,202,202,202,202,202,202,202,204,376,377,377,377,
154,154,154,154,154,154,154,154,228,0,0,0,0,0,0,0,0,0,0,0,0,0,0,0,0,0,0,0,0,0,0,0,0,0,0,0,0,0,0,0,0,0,0,0,0,228,154,154,154,154,154,154,154,154,154,154,154,154,154,154,254,151,151,154,154,
252,252,252,252,252,252,252,252,205,0,0,0,0,0,0,0,0,0,0,0,0,0,0,0,0,0,0,0,0,0,0,0,0,0,0,0,0,0,0,0,0,0,0,0,0,252,252,252,252,252,252,252,252,252,252,252,252,252,352,327,327,327,327,352,352,
327,327,327,327,327,302,303,304,327,0,0,0,0,0,0,0,0,0,0,0,0,0,0,0,0,0,0,0,0,0,0,0,0,0,0,0,0,0,0,0,0,0,0,0,0,327,327,355,356,381,381,381,381,381,381,379,327,329,355,355,355,355,355,355,381,
385,386,385,385,385,385,386,385,384,385,386,385,384,384,385,385,384,385,386,385,385,385,385,384,385,385,385,386,385,385,435,385,386,386,385,384,386,385,384,385,384,386,385,384,385,386,385,384,385,385,385,385,385,385,385,385,435,385,385,385,385,385,385,385,385,
144,145,114,115,0,0,357,380,169,170,382,305,352,354,64,65,66,377,277,278,279,404,356,356,356,356,356,356,356,14,15,16,356,258,356,356,356,356,308,114,115,16,356,381,0,0,305,380,144,145,64,65,66,381,381,114,115,169,170,0,0,130,381,0,0,
169,170,382,380,0,0,382,405,406,406,407,352,306,379,327,327,327,302,303,304,328,351,381,381,381,381,381,381,381,39,40,41,381,381,381,308,381,381,381,39,40,41,381,381,352,352,380,381,169,170,381,381,381,381,381,382,405,406,407,352,405,408,0,0,0,
90,406,407,405,406,406,407,127,39,40,41,352,301,352,352,305,306,305,352,352,353,351,381,381,381,258,381,381,381,64,65,66,381,381,381,381,381,381,381,64,65,66,381,381,352,306,405,406,406,381,381,407,405,406,406,407,352,352,352,352,352,380,0,0,0
</data>
 </layer>
 <layer id="3" name="Buildings2" width="65" height="30">
  <data encoding="csv">
0,0,0,0,0,0,0,0,0,0,0,0,0,0,0,0,0,0,0,0,0,0,0,0,0,0,0,0,0,0,0,0,0,0,0,0,0,0,0,0,0,0,0,0,0,0,0,0,0,0,0,0,0,0,0,0,1980,0,0,0,0,0,0,0,0,
0,0,0,0,0,0,0,0,0,0,0,0,0,0,0,0,0,0,0,0,0,0,0,0,0,0,0,0,0,0,0,1979,0,0,0,0,0,0,0,0,0,0,0,0,0,0,0,0,0,0,0,0,0,0,0,0,0,0,0,0,0,0,0,0,0,
0,0,0,0,0,0,0,0,0,0,0,0,0,0,0,0,0,0,0,0,0,0,0,0,0,0,0,0,0,0,0,0,0,0,0,0,0,0,0,0,0,0,0,1980,0,0,0,0,0,1979,0,0,0,0,0,0,0,0,0,0,0,0,0,0,0,
1979,0,0,0,0,0,0,0,0,0,0,0,0,0,0,0,0,0,0,0,0,0,0,0,0,0,0,0,0,0,0,0,0,0,0,0,1979,0,0,1980,0,0,0,0,0,0,0,0,0,0,0,0,0,1980,0,0,0,0,0,0,0,0,0,0,0,
0,0,0,0,0,0,0,0,1979,0,0,0,0,0,0,0,0,0,0,0,0,0,0,0,0,0,0,0,0,0,0,0,0,0,0,0,0,0,0,0,0,0,1979,0,0,0,0,0,0,0,0,0,0,0,0,0,0,0,0,0,1980,0,0,0,1979,
0,0,0,0,0,0,0,0,0,0,0,0,0,0,0,0,0,0,0,0,0,0,0,0,0,0,0,0,0,0,0,0,0,0,0,0,0,0,0,0,0,0,0,0,0,0,0,0,0,0,0,0,0,0,0,0,0,0,0,0,0,0,0,0,0,
0,0,0,0,0,0,0,0,0,0,0,0,0,0,0,0,0,0,0,0,0,0,0,0,0,0,0,0,0,0,0,0,0,0,0,0,0,0,0,0,0,0,0,0,0,0,0,0,0,0,0,0,0,0,0,0,0,0,0,0,0,0,0,0,0,
0,0,0,0,0,0,0,0,0,0,0,0,0,0,0,0,0,0,0,0,0,0,0,0,0,0,0,0,0,0,0,0,0,0,0,0,0,0,0,0,0,0,0,0,0,0,0,0,0,0,0,0,0,0,0,0,0,0,0,0,0,0,0,0,0,
0,0,0,0,0,0,0,0,0,0,0,0,0,0,0,0,0,0,0,0,0,0,0,0,0,0,0,0,0,0,0,0,0,0,0,0,0,0,0,0,0,0,0,0,0,0,0,0,0,0,0,0,0,0,0,0,0,0,0,0,0,0,0,0,0,
0,0,0,0,0,0,0,0,0,0,0,0,0,0,0,0,0,0,0,0,0,0,0,0,0,0,0,0,0,0,0,0,0,0,0,0,0,0,0,0,0,0,0,0,0,0,0,0,0,0,0,0,0,0,0,0,0,0,0,0,0,0,0,0,0,
0,0,0,0,0,0,0,0,0,0,0,0,0,0,0,0,0,0,0,0,0,0,0,0,0,0,0,0,0,0,0,0,0,0,0,0,0,0,0,0,0,0,0,0,0,0,0,0,0,0,0,0,0,0,0,0,0,0,0,0,0,0,144,0,0,
0,0,0,0,0,0,0,0,0,0,0,0,0,0,0,0,0,0,0,0,0,0,0,0,0,0,0,0,0,0,0,0,0,0,0,0,0,0,0,0,0,0,0,0,0,0,0,0,0,0,0,0,0,0,0,0,0,0,0,0,0,0,0,0,0,
0,0,0,0,0,0,0,0,0,0,0,0,0,0,0,0,0,0,0,0,0,0,0,0,0,0,0,0,0,0,0,0,0,0,0,0,0,0,0,0,0,0,0,0,0,0,0,0,0,0,0,0,0,0,0,0,0,0,0,0,0,0,0,0,0,
0,0,0,0,0,0,0,0,0,0,0,0,0,0,0,0,0,0,0,0,0,0,0,0,0,0,0,0,0,0,0,0,0,0,0,0,0,0,0,0,0,0,0,0,0,0,0,0,0,0,0,0,0,0,0,0,0,0,0,0,0,0,0,0,0,
0,0,0,0,0,0,0,0,0,0,0,0,0,0,0,0,0,0,0,0,0,0,0,0,0,0,0,0,0,0,0,0,0,0,0,0,0,0,0,0,0,0,0,0,0,0,0,0,0,0,0,0,0,0,0,0,0,0,0,0,0,0,0,0,0,
0,0,0,0,0,0,0,0,0,0,0,0,0,0,0,0,0,0,0,0,0,0,0,0,0,0,0,0,0,0,0,0,0,0,0,0,0,0,0,0,0,0,0,308,0,0,0,0,0,0,0,0,0,0,0,0,0,0,0,0,0,0,0,0,0,
0,0,0,0,0,0,0,0,0,0,0,0,0,0,0,0,0,0,0,0,0,0,0,0,0,0,0,0,0,0,0,0,0,0,0,0,0,0,0,0,0,0,0,0,0,0,0,0,0,0,0,0,0,1980,0,0,0,0,0,0,0,0,0,0,0,
0,0,0,0,0,0,0,0,0,0,0,0,0,0,0,0,0,0,0,0,0,0,0,0,0,0,0,0,0,0,0,0,0,0,0,0,0,0,0,0,0,0,0,0,0,0,0,0,0,0,0,0,0,0,0,0,0,0,0,0,0,0,0,0,0,
0,0,0,0,0,0,0,0,0,0,0,0,0,0,0,0,0,0,0,0,0,0,0,0,0,0,0,0,0,0,0,0,0,0,0,0,0,0,0,0,0,0,0,0,0,0,0,0,0,0,0,0,0,0,0,0,0,0,0,0,0,0,0,0,0,
0,0,0,0,0,0,0,0,0,0,0,0,0,0,0,0,0,0,0,0,0,0,0,0,0,0,0,0,0,0,0,0,0,0,0,0,0,0,0,0,0,0,0,0,0,0,0,0,0,0,0,0,0,0,0,0,0,0,0,0,1980,0,0,0,0,
0,0,0,0,0,0,0,0,0,0,0,0,0,0,0,0,0,0,0,0,0,0,0,0,0,0,0,0,0,0,0,0,0,0,0,0,0,0,0,0,0,0,0,0,0,0,0,0,0,0,0,0,0,0,0,0,0,0,0,0,0,0,0,0,0,
0,0,0,0,0,0,0,0,0,0,0,0,0,0,0,0,0,0,0,0,0,0,0,0,0,0,0,0,0,0,0,0,0,0,0,0,0,0,0,0,0,0,0,0,0,0,0,0,0,0,0,0,0,0,0,0,0,0,0,0,0,0,0,0,0,
0,0,0,0,0,0,0,0,0,0,0,0,0,0,0,0,0,0,0,0,0,0,0,0,0,0,0,0,0,0,0,0,0,0,0,0,0,0,0,0,0,0,0,0,0,0,0,0,0,0,0,0,0,0,0,0,0,0,0,0,0,0,0,0,0,
0,0,0,0,0,0,0,0,0,0,0,0,0,0,0,0,0,0,0,0,0,0,0,0,0,0,0,0,0,0,0,0,0,0,0,0,0,0,0,0,0,0,0,0,0,0,0,0,0,0,0,0,0,0,0,0,0,0,0,0,0,0,0,0,0,
0,0,0,0,0,0,0,0,0,0,0,0,0,0,0,0,0,0,0,0,0,0,0,0,0,0,0,0,0,0,0,0,0,0,0,0,0,0,0,0,0,0,0,0,0,0,0,0,0,0,0,0,0,0,0,0,0,0,0,0,0,0,0,0,0,
0,0,0,0,0,0,0,0,0,0,0,0,0,0,0,0,0,0,0,0,0,0,0,0,0,0,0,0,0,0,0,0,0,0,0,0,0,0,0,0,0,0,0,0,0,0,0,0,0,0,0,0,0,0,0,0,0,0,0,0,0,0,0,0,0,
0,0,0,0,0,0,0,0,0,0,0,0,0,0,0,0,0,0,0,0,0,0,0,0,0,0,0,0,0,0,0,0,0,0,0,0,0,0,0,0,0,0,0,0,0,0,0,0,0,0,0,0,0,0,0,0,0,0,0,0,0,0,0,0,0,
0,0,0,0,0,0,0,0,0,0,0,0,0,0,0,0,0,0,0,0,0,0,0,0,0,0,0,0,0,0,0,0,0,0,0,0,0,0,0,0,0,0,0,0,0,0,0,0,0,0,0,0,0,0,0,0,0,0,0,0,0,0,0,0,0,
0,0,0,0,0,0,0,0,0,0,0,0,0,0,0,0,0,0,0,0,0,0,0,0,0,0,0,0,0,0,0,0,0,0,0,0,0,0,0,0,0,0,0,0,0,0,0,0,0,0,0,0,0,0,0,0,0,0,0,0,0,0,0,0,0,
0,0,0,0,0,0,0,0,0,0,0,0,0,0,0,0,0,0,0,0,0,0,0,0,0,0,0,0,0,0,0,0,0,0,0,0,0,0,0,0,0,0,0,0,0,0,0,0,0,0,0,0,0,0,0,0,0,0,0,0,0,0,0,0,0
</data>
 </layer>
 <layer id="4" name="Front" width="65" height="30">
  <data encoding="csv">
0,0,258,0,0,0,0,0,0,0,119,120,0,77,78,92,93,94,95,96,97,0,0,0,0,0,0,361,0,0,0,0,0,0,0,0,0,0,0,0,0,0,0,0,0,0,0,258,0,0,0,0,0,0,0,0,0,0,0,0,0,0,0,0,0,
0,0,1980,0,0,0,0,0,308,0,144,145,0,0,0,0,0,119,120,0,0,0,0,0,0,0,0,0,0,0,0,0,0,0,0,0,0,0,0,0,0,0,0,0,0,0,0,0,0,0,0,0,89,90,0,0,0,0,0,0,0,0,0,0,1,
0,0,0,0,0,0,0,0,0,0,169,0,0,0,934,0,0,0,0,0,0,0,0,0,0,0,0,0,0,0,0,0,0,0,0,0,0,0,0,0,0,0,0,0,0,0,0,0,0,0,0,0,0,0,308,0,0,0,0,0,0,0,0,0,26,
0,14,15,16,0,1980,0,0,0,0,0,0,0,0,0,0,0,0,0,0,0,0,0,0,0,133,134,0,0,0,0,0,0,0,0,0,0,0,0,0,0,0,0,0,0,0,0,0,0,0,0,0,0,0,0,0,0,0,0,0,0,0,0,6,51,
0,39,40,41,0,0,0,0,0,0,0,0,0,0,0,0,0,0,0,0,0,0,0,0,0,0,0,0,0,0,0,0,0,0,0,0,0,0,0,0,0,0,0,0,0,39,40,41,0,0,89,90,0,0,0,0,0,0,0,0,0,0,0,0,76,
0,0,0,0,0,0,0,0,0,0,0,0,0,0,0,0,0,0,0,0,0,0,0,0,0,0,0,0,0,0,0,0,0,0,0,0,0,0,0,0,0,0,0,0,0,0,0,0,0,0,0,0,0,0,0,0,0,0,0,0,0,0,0,0,0,
0,0,0,0,0,0,0,0,0,0,0,0,0,0,0,0,0,0,0,0,0,0,0,0,0,0,0,0,0,0,0,0,0,0,0,0,0,0,0,0,0,0,0,0,0,0,0,0,0,0,0,0,0,0,0,0,0,0,0,0,0,0,0,0,0,
0,0,0,0,0,0,0,0,0,0,0,0,0,0,0,0,0,0,0,0,0,0,0,0,0,0,0,0,0,0,0,0,0,0,0,0,0,0,0,0,0,0,0,0,0,0,0,0,0,0,0,0,0,0,0,0,0,0,0,0,0,0,0,106,0,
0,0,0,0,0,0,0,0,0,0,0,0,0,0,0,0,0,0,0,0,976,977,978,979,980,981,982,983,0,0,0,0,0,0,0,0,0,0,0,0,0,0,0,0,0,0,0,0,0,0,0,0,0,0,0,0,0,0,0,0,0,129,0,131,0,
0,0,0,0,0,0,0,0,0,0,0,0,0,0,0,0,0,0,0,0,1001,1002,1003,1004,1005,1006,1007,1008,0,0,0,0,0,0,0,0,0,0,0,0,0,0,0,0,0,0,0,440,415,0,414,414,414,414,414,414,414,414,414,414,414,414,415,414,415,
0,308,0,0,0,0,0,0,0,0,0,144,145,0,0,0,0,1033,0,0,0,0,0,0,0,0,0,0,0,0,0,0,0,0,0,0,0,0,0,0,119,120,0,359,360,360,361,0,102,0,0,0,0,0,0,0,0,89,90,105,0,440,416,0,0,
0,0,0,0,0,0,0,0,0,0,0,169,170,0,0,0,0,0,0,0,0,0,0,0,0,0,0,0,0,0,0,0,0,0,0,0,0,0,0,0,0,145,0,0,133,134,0,14,15,16,0,0,0,0,0,0,0,114,115,9,10,0,0,0,0,
0,0,0,0,0,258,0,0,0,0,0,0,0,0,0,0,0,0,0,0,0,0,0,0,0,0,0,0,0,0,0,0,0,0,0,0,0,0,0,0,362,170,0,0,0,0,0,39,40,41,0,89,90,0,0,258,0,32,33,34,35,0,0,0,0,
258,0,0,0,0,89,90,0,0,0,105,106,0,0,0,0,0,0,0,0,0,0,0,0,0,0,0,0,0,0,0,0,0,0,0,0,0,0,0,0,79,80,0,0,0,0,0,64,65,66,0,0,0,0,0,0,0,57,58,59,60,0,0,0,0,
0,0,0,0,0,114,115,0,0,0,0,0,17,18,19,20,21,22,0,0,0,0,0,0,0,0,0,0,0,0,0,0,0,0,0,0,0,0,0,0,0,105,0,0,0,0,0,0,0,0,0,0,0,0,14,15,16,82,83,84,85,0,0,0,0,
1980,0,0,0,0,0,2347,89,90,0,0,0,42,43,44,45,46,47,0,0,0,0,0,0,0,0,0,0,0,0,0,0,0,0,0,0,0,0,0,0,0,130,0,0,102,0,0,0,0,0,0,0,0,0,39,40,41,0,108,109,233,0,0,0,0,
0,0,102,0,0,14,15,16,0,0,0,0,67,68,69,70,71,72,0,0,0,0,0,0,0,0,0,0,0,0,0,0,0,0,0,0,0,0,0,0,0,14,0,0,0,0,0,0,0,0,0,0,0,0,64,0,0,0,0,0,0,0,308,89,90,
0,308,0,0,0,39,40,41,0,0,0,0,92,93,94,95,96,97,0,0,0,0,0,0,0,0,0,0,0,0,0,0,0,0,0,0,0,0,0,0,0,39,0,0,0,0,0,0,0,0,0,0,89,90,0,0,308,89,90,0,0,0,0,0,0,
0,1980,0,0,0,0,0,0,0,0,0,0,0,0,119,120,0,0,0,0,0,0,0,0,0,0,0,0,0,0,0,0,0,0,0,0,0,0,0,0,0,64,0,0,0,0,0,0,0,0,0,0,0,0,0,0,0,0,0,258,0,0,14,15,16,
89,90,0,0,0,1980,0,0,0,0,0,0,0,0,0,0,135,0,0,0,0,0,0,0,0,0,0,0,0,0,0,0,0,0,0,0,0,0,0,0,0,0,0,0,0,119,120,89,90,0,0,0,0,0,0,0,0,0,0,0,0,0,39,40,41,
360,360,410,360,360,360,361,360,360,360,360,360,361,0,359,360,410,360,361,360,361,0,0,0,0,0,359,360,360,360,359,360,361,360,360,361,361,360,359,410,361,360,360,361,361,0,0,359,360,361,360,360,410,360,360,360,410,360,361,360,360,410,360,360,360,
0,0,0,0,0,0,0,0,0,0,0,0,0,0,0,0,0,0,0,0,0,411,0,0,0,0,0,0,0,0,0,0,0,0,0,0,0,0,0,0,0,0,0,0,0,0,0,0,0,0,0,0,0,0,0,0,0,0,0,0,0,0,0,0,0,
0,0,0,0,0,0,0,0,0,0,0,0,0,0,0,0,0,0,0,0,0,0,0,0,0,0,0,0,0,0,0,0,0,0,0,0,0,0,0,0,0,0,0,0,0,0,0,0,0,0,0,0,0,0,0,0,0,0,0,0,0,0,0,0,0,
0,0,0,0,0,0,0,0,0,0,0,0,0,0,0,0,0,0,0,0,0,0,0,0,0,0,0,0,0,0,0,0,0,0,0,0,0,0,0,0,0,0,0,0,0,0,0,0,0,0,0,0,0,0,0,0,0,0,0,0,0,0,0,0,0,
0,0,0,0,0,0,0,0,0,0,0,0,0,0,0,0,0,0,0,0,0,0,0,0,0,0,0,0,0,0,0,0,0,0,0,0,0,0,0,0,0,0,0,0,0,0,0,0,0,0,0,0,0,0,0,0,0,0,0,0,0,0,0,0,0,
360,361,360,360,360,360,361,0,359,360,361,0,359,359,360,360,359,360,361,360,360,360,360,359,360,360,360,361,360,360,410,360,361,361,360,359,361,360,359,360,359,361,0,359,360,361,0,359,360,360,14,15,16,360,360,360,410,360,360,360,360,360,360,360,360,
119,120,89,90,0,0,0,0,0,0,0,0,0,0,39,40,41,0,0,0,0,0,0,0,0,0,4,5,6,0,0,0,0,0,0,0,0,0,0,89,90,0,0,0,0,0,0,0,0,0,39,40,41,0,0,89,90,0,0,0,0,105,0,0,0,
0,0,0,0,0,0,0,0,0,0,0,0,0,258,0,0,0,0,102,0,308,0,0,0,0,0,29,30,31,0,0,1,2,76,0,0,0,2,3,14,15,0,0,0,0,0,0,0,0,0,0,0,0,0,0,1,2,3,0,0,0,0,0,0,0,
0,14,15,16,0,0,0,0,14,15,16,0,0,0,0,308,0,233,127,258,0,0,0,0,0,0,54,55,56,0,0,26,27,0,102,0,0,27,28,0,0,0,0,0,0,0,0,0,0,0,0,0,0,0,0,26,27,28,0,0,0,0,0,0,0,
0,39,40,41,0,0,0,0,0,0,0,0,0,0,0,0,0,0,89,90,0,0,0,0,0,0,79,80,81,0,0,51,52,0,127,0,51,52,53,0,0,0,0,0,89,90,0,0,0,0,0,0,0,0,0,51,52,53,0,0,0,0,0,0,0
</data>
 </layer>
 <layer id="5" name="AlwaysFront" width="65" height="30">
  <data encoding="csv">
0,0,0,0,0,0,0,0,0,0,119,120,76,77,78,92,93,94,95,96,97,0,0,0,57,58,59,60,0,0,0,0,17,0,130,0,130,0,0,0,0,0,0,0,0,0,0,0,0,0,0,0,0,0,0,0,0,0,0,0,92,93,94,95,96,
0,0,0,0,0,0,0,0,0,0,0,0,0,0,0,0,0,119,120,0,0,0,0,0,82,83,84,85,0,0,0,0,0,0,0,0,0,0,0,0,0,0,0,0,0,0,0,0,0,0,0,0,0,0,0,0,0,0,0,0,0,0,119,120,0,
0,0,0,0,0,0,0,0,0,0,0,0,0,0,0,0,0,0,0,0,0,0,0,0,0,108,109,0,0,0,0,0,0,0,0,0,0,0,0,0,0,0,0,0,0,0,0,0,0,0,0,0,0,0,0,0,0,0,0,0,0,0,0,0,0,
0,0,0,0,0,0,0,0,0,0,0,0,0,0,0,0,0,0,0,0,0,0,0,0,0,0,0,0,0,0,0,0,0,0,0,0,0,0,0,0,0,0,0,0,0,14,15,16,0,0,0,0,0,0,0,0,0,0,0,0,0,0,0,0,0,
0,0,0,0,0,0,0,0,0,0,0,0,0,0,0,0,0,0,0,0,0,0,0,0,0,0,0,0,0,0,0,0,0,0,0,0,0,0,0,0,0,0,0,0,0,0,0,0,0,0,0,0,0,0,0,0,0,0,0,0,0,0,0,0,0,
0,0,0,0,0,0,0,0,0,0,0,0,0,0,0,0,0,0,0,0,0,0,0,0,0,0,0,0,0,0,0,0,0,0,0,0,0,0,0,0,0,0,0,0,0,0,0,0,0,0,0,0,0,0,0,0,0,0,0,0,17,18,19,20,21,
0,0,0,0,0,0,0,0,0,0,0,0,0,0,0,0,0,0,0,0,926,927,928,929,930,931,932,933,0,0,0,0,0,0,0,0,0,0,17,18,19,20,21,7,8,9,10,0,0,0,0,0,0,0,0,0,0,0,4,5,6,43,44,45,46,
0,0,0,0,0,0,0,0,0,0,0,0,0,0,0,0,0,0,0,0,951,952,953,954,955,956,957,958,0,0,0,0,0,0,0,0,0,0,42,43,44,45,46,32,33,34,35,0,0,0,0,0,0,0,0,0,0,0,29,30,31,68,69,70,71,
414,415,439,0,0,0,0,0,0,0,0,0,0,0,0,0,0,0,0,0,0,0,0,0,0,0,0,0,0,0,0,0,0,0,0,0,0,0,67,68,69,70,71,57,58,59,60,0,0,0,0,0,0,0,0,0,0,0,54,55,56,93,94,95,96,
176,176,413,415,439,0,0,440,414,415,414,414,439,0,0,0,0,0,0,0,0,0,0,0,0,0,0,0,0,0,0,0,0,0,0,0,0,0,92,93,94,95,96,82,83,84,85,0,0,14,414,415,414,0,0,0,0,0,79,80,81,0,440,120,27,
303,304,328,176,413,414,415,416,176,176,326,328,395,0,0,0,0,0,0,0,0,0,0,0,0,0,0,0,0,0,0,0,0,0,0,0,0,0,0,0,4,5,6,0,108,109,0,0,0,176,0,0,0,0,0,0,0,0,0,0,0,0,144,51,52,
0,0,0,144,145,0,0,0,0,0,0,0,0,0,0,0,0,0,0,0,0,0,0,0,0,0,0,0,0,0,0,0,0,0,0,0,0,0,0,0,29,30,31,1,2,3,0,0,0,0,0,0,0,0,0,0,0,7,8,0,0,0,0,76,77,
0,0,0,169,170,0,0,0,0,0,0,0,0,0,0,0,0,0,0,0,0,0,0,0,0,0,0,0,0,0,0,0,0,0,0,0,0,0,0,0,54,55,56,26,27,28,0,0,0,0,0,0,0,0,0,0,0,32,33,0,0,0,0,0,102,
0,0,0,0,0,0,0,0,0,0,0,0,0,362,0,0,0,0,0,0,0,0,0,0,0,0,0,0,0,0,0,0,0,0,0,0,0,0,0,0,79,80,81,51,52,53,0,0,0,0,0,0,0,0,0,0,0,0,0,0,0,0,0,126,127,
0,0,0,0,0,0,0,0,0,0,0,0,17,18,19,20,21,0,0,0,0,0,0,0,0,0,0,0,0,0,0,0,0,0,0,0,0,0,0,0,104,105,0,76,77,78,0,0,0,0,0,0,0,0,0,0,0,0,0,0,0,0,0,0,0,
0,0,0,0,0,0,0,0,0,0,0,0,42,43,44,45,46,47,0,0,0,0,0,0,0,0,0,0,0,0,0,0,0,0,0,0,0,0,0,0,0,0,0,17,18,19,20,21,22,0,0,0,0,0,0,0,0,0,0,0,0,0,0,0,0,
0,0,0,0,0,0,0,0,0,0,0,0,67,68,69,70,71,72,0,0,0,0,0,0,0,0,0,0,0,0,0,0,0,0,0,0,0,0,0,0,0,0,0,42,43,44,45,46,47,0,0,0,0,0,0,0,0,0,0,0,0,0,0,0,0,
0,0,0,0,0,0,0,0,0,0,0,0,92,93,94,95,96,97,0,0,0,0,0,0,0,0,0,0,0,0,0,0,0,0,0,0,0,0,0,0,0,0,0,67,68,69,70,71,72,0,0,0,0,0,0,0,0,0,0,0,0,0,0,0,0,
0,0,0,0,0,0,0,0,0,0,0,0,0,0,119,120,0,0,0,0,0,0,0,0,0,0,0,0,0,0,0,0,0,0,0,0,0,0,0,0,0,0,0,92,93,94,95,96,97,0,0,0,0,0,0,0,0,0,0,0,0,0,0,0,0,
0,0,0,0,0,0,0,0,0,0,0,0,0,0,0,0,0,0,0,0,0,0,0,0,0,0,0,0,0,0,0,0,0,0,0,0,0,0,0,0,0,0,0,0,0,0,0,0,0,0,0,0,0,0,0,0,0,0,0,0,0,0,0,0,0,
0,0,0,0,0,0,0,0,0,0,0,0,0,0,0,0,0,0,0,0,0,0,0,0,0,0,0,0,0,0,0,0,0,0,0,0,0,0,0,0,0,0,0,0,0,0,0,0,0,0,0,0,0,0,0,0,0,0,0,0,0,0,0,0,0,
0,0,0,0,0,0,17,18,19,20,21,22,0,0,0,0,0,0,0,0,0,0,0,0,0,0,0,0,0,0,0,0,0,0,0,0,0,0,0,0,0,0,0,0,0,0,0,0,0,0,0,0,0,0,0,17,18,19,20,21,22,0,0,0,0,
19,20,21,22,0,0,42,43,44,45,46,47,0,0,0,0,0,0,0,0,0,0,0,0,0,0,0,0,0,0,0,0,0,0,0,0,0,0,0,0,0,0,0,0,0,0,0,0,0,0,0,0,0,0,0,42,43,44,45,46,47,0,0,0,0,
44,45,46,47,0,0,67,68,69,70,71,72,0,0,0,0,0,1,2,3,0,0,0,0,0,0,0,0,0,0,0,0,0,0,0,0,0,0,0,0,0,0,0,0,0,0,0,0,0,0,0,0,0,0,0,67,68,69,70,71,72,0,0,0,0,
69,70,71,72,0,0,92,93,94,95,96,97,0,0,0,0,0,26,27,28,0,0,0,0,0,0,0,0,0,0,0,0,0,1,2,3,0,0,0,0,0,0,0,0,0,0,0,0,0,0,0,0,0,0,0,92,93,94,95,96,97,0,0,0,0,
94,95,96,97,0,0,0,0,119,120,0,0,0,0,14,15,16,51,52,53,0,0,0,0,0,0,0,0,0,0,0,0,0,26,27,28,0,0,0,0,0,0,0,0,0,0,0,0,0,0,0,0,0,0,0,0,0,119,120,0,0,0,0,0,0,
0,0,0,0,0,0,0,0,144,145,0,0,0,0,0,0,0,76,77,78,17,18,19,20,21,22,0,0,0,0,0,0,0,51,52,53,0,0,0,0,17,0,0,0,0,0,0,0,119,120,0,0,0,0,0,0,0,144,145,0,0,0,0,0,0,
0,0,0,0,4,5,6,0,0,0,0,0,0,0,0,0,0,0,0,0,42,43,44,45,46,47,0,0,0,0,0,1,2,3,77,78,1,0,0,0,0,0,0,0,0,0,0,0,0,0,0,0,0,0,0,0,0,0,0,0,0,0,0,0,0,
0,0,0,0,29,30,31,0,0,0,0,0,0,4,5,6,0,0,0,0,67,68,69,70,71,72,0,0,0,0,0,26,27,28,0,0,26,0,0,0,0,0,0,0,0,0,0,0,0,0,0,0,0,0,0,0,0,0,4,5,6,0,0,0,0,
0,0,0,0,54,55,56,0,0,0,0,0,0,29,30,31,0,0,0,0,92,93,94,95,96,97,0,0,0,0,0,51,52,53,1,2,3,0,0,0,0,0,119,120,0,0,0,0,0,0,0,0,0,0,0,0,0,0,29,30,31,0,0,0,0
</data>
 </layer>
 <layer id="6" name="AlwaysFront2" width="65" height="30">
  <data encoding="csv">
0,0,0,0,0,0,0,0,0,0,0,0,0,0,0,0,0,0,0,0,0,0,0,0,0,0,0,0,0,0,0,0,0,0,0,0,0,0,0,0,0,0,0,0,0,0,0,0,0,0,0,0,0,0,0,0,0,0,0,0,0,0,0,0,0,
0,0,0,0,0,0,0,0,0,0,0,0,0,0,0,0,0,0,0,0,0,0,0,0,0,0,0,0,0,0,0,0,0,0,0,0,0,0,0,0,0,0,0,0,0,0,0,0,0,0,0,0,0,0,0,0,0,0,0,0,0,0,0,0,0,
0,0,0,0,0,0,0,0,0,0,0,0,0,0,0,0,0,0,0,0,0,0,0,0,0,0,0,0,0,0,0,0,0,0,0,0,0,0,0,0,0,0,0,0,0,0,0,0,0,0,0,0,0,0,0,0,0,0,0,0,0,0,0,0,0,
0,0,0,0,0,0,0,0,0,0,0,0,0,0,0,0,0,0,0,0,0,0,0,0,0,0,0,0,0,0,0,0,0,0,0,0,0,0,0,0,0,0,0,0,0,0,0,0,0,0,0,0,0,0,0,0,0,0,0,0,0,0,0,0,0,
0,0,0,0,0,0,0,0,0,0,0,0,0,0,0,0,0,0,0,0,0,0,0,0,0,0,0,0,0,0,0,0,0,0,0,0,0,0,0,0,0,0,0,0,0,0,0,0,0,0,0,0,0,0,0,0,0,0,0,0,0,0,0,0,0,
0,0,0,0,0,0,0,0,0,0,18,19,20,21,22,0,0,0,0,0,0,0,0,0,0,0,0,0,0,0,0,0,0,0,0,0,0,0,0,0,0,0,0,0,0,0,0,0,0,0,0,0,0,0,0,0,0,0,0,0,17,18,0,0,0,
0,17,18,19,20,21,22,0,0,42,43,44,45,46,47,0,0,0,0,0,0,0,0,0,0,0,0,0,0,0,0,0,0,0,0,0,0,0,0,0,0,0,0,0,0,0,0,1,2,3,0,0,0,0,0,0,0,0,0,0,42,43,0,0,0,
0,42,43,44,45,46,47,0,0,67,68,69,70,71,72,0,0,0,0,0,0,0,0,0,0,0,0,0,0,0,0,0,0,0,0,0,0,0,0,0,0,0,0,47,0,0,0,26,27,28,0,0,0,0,0,0,0,0,0,0,67,68,0,0,0,
0,67,68,69,70,71,72,0,0,92,93,94,95,96,97,0,0,0,0,0,0,0,0,0,0,0,0,0,0,0,0,0,0,0,0,0,0,0,0,0,0,0,0,72,0,0,0,51,52,53,0,0,0,0,0,0,0,0,0,0,92,93,0,1,2,
0,92,93,94,95,96,97,0,0,0,0,119,120,0,0,0,0,0,0,0,0,0,0,0,0,0,0,0,0,0,0,0,0,0,0,0,0,0,0,0,0,0,0,97,0,0,0,76,77,78,15,16,0,0,0,0,0,0,0,0,0,0,119,26,27,
0,0,0,119,120,0,0,0,0,0,0,144,145,0,0,0,0,0,0,0,0,0,0,0,0,0,0,0,0,0,0,0,0,0,0,0,0,0,0,0,0,0,0,0,0,0,0,0,0,39,40,41,0,0,0,0,0,0,0,0,0,0,0,0,0,
0,0,0,0,0,0,0,0,0,0,0,0,0,0,0,0,0,0,0,0,0,0,0,0,0,0,0,0,0,0,0,0,0,0,0,0,0,0,0,0,0,0,0,0,0,0,0,0,0,0,0,0,0,0,0,0,0,0,0,0,0,0,0,0,0,
0,1,2,3,0,0,0,0,0,0,0,0,0,0,0,0,0,0,0,0,0,0,0,0,0,0,0,0,0,0,0,0,0,0,0,0,0,0,0,0,0,0,0,0,0,0,0,0,0,0,0,0,0,0,0,0,0,0,0,0,0,0,0,0,0,
0,26,27,28,0,0,0,0,0,0,0,0,0,0,0,0,0,0,0,0,0,0,0,0,0,0,0,0,0,0,0,0,0,0,0,0,0,0,0,0,0,0,0,0,0,0,0,0,0,0,0,0,0,0,0,0,0,0,0,0,0,0,0,0,0,
0,51,52,53,0,0,0,0,0,0,0,0,0,0,0,0,0,0,0,0,0,0,0,0,0,0,0,0,0,0,0,0,0,0,0,0,0,0,0,0,0,0,0,0,0,0,0,0,0,0,0,0,0,0,0,0,0,0,0,0,0,0,0,0,0,
0,76,77,78,0,0,0,0,0,0,0,0,0,0,0,0,0,0,0,0,0,0,0,0,0,0,0,0,0,0,0,0,0,0,0,0,0,0,0,0,0,0,0,0,0,0,0,0,0,0,0,0,0,0,0,0,0,0,0,0,0,0,0,0,0,
0,0,0,0,0,0,0,0,0,0,0,0,0,0,0,0,0,0,0,0,0,0,0,0,0,0,0,0,0,0,0,0,0,0,0,0,0,0,0,0,0,0,0,0,0,0,0,0,0,0,0,0,0,0,0,0,0,0,0,0,0,0,0,0,0,
0,0,0,0,0,0,0,0,0,0,0,0,0,0,0,0,0,0,0,0,0,0,0,0,0,0,0,0,0,0,0,0,0,0,0,0,0,0,0,0,0,0,0,0,0,0,0,0,0,0,0,0,0,0,0,0,0,0,0,0,0,0,0,0,0,
0,0,0,0,0,0,0,0,0,0,0,0,0,0,0,0,0,0,0,0,0,0,0,0,0,0,0,0,0,0,0,0,0,0,0,0,0,0,0,0,0,0,0,0,0,0,0,0,0,0,0,0,0,0,0,0,0,0,0,0,0,0,0,0,0,
0,0,0,0,0,0,0,0,0,0,0,0,0,0,0,0,0,0,0,0,0,0,0,0,0,0,0,0,0,0,0,0,0,0,0,0,0,0,0,0,0,0,0,0,0,0,0,0,0,0,0,0,0,0,0,0,0,0,0,0,0,0,0,0,0,
0,0,0,0,0,0,0,0,0,0,0,0,0,0,0,0,0,0,0,0,0,0,0,0,0,0,0,0,0,0,0,0,0,0,0,0,0,0,0,0,0,0,0,0,0,0,0,0,0,0,0,0,0,0,0,0,0,0,0,0,0,0,0,0,0,
0,0,0,0,0,0,0,0,0,0,0,0,0,0,0,0,0,0,0,0,0,0,0,0,0,0,0,0,0,0,0,0,0,0,0,0,0,0,0,0,0,0,0,0,0,0,0,18,19,20,21,0,0,0,0,0,0,0,0,0,0,0,0,0,0,
0,0,0,0,0,0,0,0,0,0,0,0,0,0,0,0,0,0,0,0,0,0,0,0,0,0,0,0,0,0,0,0,0,0,0,0,0,0,0,0,0,0,0,0,0,0,42,43,44,45,46,20,21,0,0,0,0,0,0,0,4,5,6,0,0,
0,0,0,0,0,0,0,0,0,0,0,0,0,0,0,0,0,0,0,0,0,0,0,0,0,0,0,0,0,0,0,0,0,0,0,0,0,0,0,0,0,0,0,0,0,42,43,44,44,45,71,44,72,0,0,0,0,0,0,0,29,30,31,0,0,
0,0,0,0,0,0,1,2,3,0,0,0,0,0,0,0,0,0,0,0,0,0,0,0,0,0,0,0,0,0,0,0,0,0,0,0,0,0,0,0,0,0,0,0,0,67,69,70,69,70,69,44,72,0,0,0,0,0,0,0,54,55,56,0,1,
0,0,0,0,0,0,26,27,28,0,0,0,0,0,0,0,0,0,0,0,0,0,0,0,0,0,0,0,0,0,0,0,0,0,0,0,0,0,0,0,17,18,19,20,21,92,93,93,94,95,96,96,97,0,0,0,0,0,0,0,79,80,81,0,26,
0,0,0,0,0,0,51,52,53,0,0,0,0,0,0,0,0,0,0,0,0,0,0,0,0,0,0,0,0,0,0,0,0,0,0,0,0,0,0,0,42,43,44,45,46,47,0,0,0,0,0,0,0,0,0,0,0,0,0,0,0,0,0,0,51,
0,0,0,0,0,0,76,77,78,0,0,0,0,0,0,0,0,0,0,0,0,0,0,0,0,0,0,0,0,0,0,0,0,0,0,0,0,0,0,0,67,68,69,70,71,72,0,0,0,0,17,18,19,20,21,22,0,0,0,0,0,0,0,0,76,
0,0,0,0,0,0,0,102,0,0,0,0,0,0,0,0,0,0,0,0,0,0,0,0,0,0,0,0,0,0,0,0,0,0,0,0,0,0,0,0,92,93,94,95,96,97,0,0,0,0,42,43,44,45,46,47,0,0,0,17,18,19,20,21,22,
0,0,0,0,0,0,0,0,0,0,0,0,0,0,0,0,0,0,0,0,0,0,0,0,0,0,0,0,0,0,0,0,0,0,0,0,0,0,0,0,0,0,0,0,0,0,0,0,0,0,67,68,69,70,71,72,0,0,0,42,43,44,45,46,47
</data>
 </layer>
 <layer id="7" name="AlwaysFront3" width="65" height="30">
  <data encoding="csv">
0,0,0,0,0,0,0,0,0,0,0,0,0,0,0,0,0,0,0,0,0,0,0,0,0,0,0,0,0,0,0,0,0,0,0,0,0,0,0,0,0,0,0,0,0,0,0,0,0,0,0,0,0,0,0,0,0,0,0,0,0,0,0,0,0,
0,0,0,0,0,0,0,0,0,0,0,0,0,0,0,0,0,0,0,0,0,0,0,0,0,0,0,0,0,0,0,0,0,0,0,0,0,0,0,0,0,0,0,0,0,0,0,0,0,0,0,0,0,0,0,0,0,0,0,0,0,0,0,0,0,
0,0,0,0,0,0,0,0,0,0,0,0,0,0,0,0,0,0,0,0,0,0,0,0,0,0,0,0,0,0,0,0,0,0,0,0,0,0,0,0,0,0,0,0,0,0,0,0,0,0,0,0,0,0,0,0,0,0,0,0,0,0,0,0,0,
0,0,0,0,0,0,0,0,0,0,0,0,0,0,0,0,0,0,0,0,0,0,0,0,0,0,0,0,0,0,0,0,0,0,0,0,0,0,0,0,0,0,0,0,0,0,0,0,0,0,0,0,0,0,0,0,0,0,0,0,0,0,0,0,0,
0,0,0,0,0,0,0,0,0,0,0,0,0,0,0,0,0,0,0,0,0,0,0,0,0,0,0,0,0,0,0,0,0,0,0,0,0,0,0,0,0,0,0,0,0,0,0,0,0,0,0,0,0,0,0,0,0,0,0,0,0,0,0,0,0,
0,0,0,0,0,0,0,0,0,0,0,0,0,0,0,0,0,0,0,0,0,0,0,0,0,0,0,0,0,0,0,0,0,0,0,0,0,0,0,0,0,0,0,0,0,0,0,0,0,0,0,0,0,0,0,0,0,0,0,0,0,0,0,0,0,
0,0,0,0,0,0,0,0,0,0,0,0,0,0,0,0,0,0,0,0,0,0,0,0,0,0,0,0,0,0,0,0,0,0,0,0,0,0,0,0,0,0,0,0,0,0,0,0,0,0,17,18,19,20,21,22,0,0,0,0,0,0,0,0,0,
0,0,0,0,0,0,0,0,0,0,0,0,0,0,0,0,0,0,0,0,0,0,0,0,0,0,0,0,0,0,0,0,0,0,0,0,0,0,0,0,0,0,0,0,0,0,0,0,0,0,42,43,44,45,46,47,0,0,0,0,0,0,0,0,0,
0,0,0,0,0,0,0,0,0,0,0,0,0,0,0,0,0,0,0,0,0,0,0,0,0,0,0,0,0,0,0,0,0,0,0,0,0,0,0,0,0,0,0,0,0,0,0,0,0,0,67,68,69,70,71,72,0,0,0,0,0,0,0,0,0,
0,0,0,0,0,0,0,0,0,4,5,6,0,0,0,0,0,0,0,0,0,0,0,0,0,0,0,0,0,0,0,0,0,0,0,0,0,0,0,0,0,0,0,0,0,0,0,0,0,0,92,93,94,95,96,97,0,0,0,0,0,0,0,0,0,
0,0,0,0,0,0,0,0,0,29,30,31,0,0,0,0,0,0,0,0,0,0,0,0,0,0,0,0,0,0,0,0,0,0,0,0,0,0,0,0,0,0,0,0,0,0,0,0,0,0,0,0,119,120,0,0,0,0,0,0,0,0,0,0,0,
0,0,0,0,0,0,0,0,0,54,55,56,0,0,0,0,0,0,0,0,0,0,0,0,0,0,0,0,0,0,0,0,0,0,0,0,0,0,0,0,0,0,0,0,0,0,0,0,0,0,0,0,0,0,0,0,0,0,0,0,0,0,0,0,0,
0,0,0,0,0,0,0,0,0,79,80,81,0,0,0,0,0,0,0,0,0,0,0,0,0,0,0,0,0,0,0,0,0,0,0,0,0,0,0,0,0,0,0,0,0,0,0,0,0,0,0,0,0,0,0,0,0,0,0,0,0,0,0,0,0,
0,0,0,0,0,0,0,0,0,0,0,0,0,0,0,0,0,0,0,0,0,0,0,0,0,0,0,0,0,0,0,0,0,0,0,0,0,0,0,0,0,0,0,0,0,0,0,0,0,0,0,0,0,0,0,0,0,0,0,0,0,0,0,0,0,
0,0,0,0,0,0,0,0,0,0,0,0,0,0,0,0,0,0,0,0,0,0,0,0,0,0,0,0,0,0,0,0,0,0,0,0,0,0,0,0,0,0,0,0,0,0,0,0,0,0,0,0,0,0,0,0,0,0,0,0,0,0,0,0,0,
0,0,0,0,0,0,0,0,0,0,0,0,0,0,0,0,0,0,0,0,0,0,0,0,0,0,0,0,0,0,0,0,0,0,0,0,0,0,0,0,0,0,0,0,0,0,0,0,0,0,0,0,0,0,0,0,0,0,0,0,0,0,0,0,0,
0,0,0,0,0,0,0,0,0,0,0,0,0,0,0,0,0,0,0,0,0,0,0,0,0,0,0,0,0,0,0,0,0,0,0,0,0,0,0,0,0,0,0,0,0,0,0,0,0,0,0,0,0,0,0,0,0,0,0,0,0,0,0,0,0,
0,0,0,0,0,0,0,0,0,0,0,0,0,0,0,0,0,0,0,0,0,0,0,0,0,0,0,0,0,0,0,0,0,0,0,0,0,0,0,0,0,0,0,0,0,0,0,0,0,0,0,0,0,0,0,0,0,0,0,0,0,0,0,0,0,
0,0,0,0,0,0,0,0,0,0,0,0,0,0,0,0,0,0,0,0,0,0,0,0,0,0,0,0,0,0,0,0,0,0,0,0,0,0,0,0,0,0,0,0,0,0,0,0,0,0,0,0,0,0,0,0,0,0,0,0,0,0,0,0,0,
0,0,0,0,0,0,0,0,0,0,0,0,0,0,0,0,0,0,0,0,0,0,0,0,0,0,0,0,0,0,0,0,0,0,0,0,0,0,0,0,0,0,0,0,0,0,0,0,0,0,0,0,0,0,0,0,0,0,0,0,0,0,0,0,0,
0,0,0,0,0,0,0,0,0,0,0,0,0,0,0,0,0,0,0,0,0,0,0,0,0,0,0,0,0,0,0,0,0,0,0,0,0,0,0,0,0,0,0,0,0,0,0,0,0,0,0,0,0,0,0,0,0,0,0,0,0,0,0,0,0,
0,0,0,0,0,0,0,0,0,0,0,0,0,0,0,0,0,0,0,0,0,0,0,0,0,0,0,0,0,0,0,0,0,0,0,0,0,0,0,0,0,0,0,0,0,0,0,0,0,0,0,0,0,0,0,0,0,0,0,0,0,0,0,0,0,
0,0,0,0,0,0,0,0,0,0,0,0,0,0,0,0,0,0,0,0,0,0,0,0,0,0,0,0,0,0,0,0,0,0,0,0,0,0,0,0,0,0,0,0,0,0,0,0,0,0,0,0,0,0,0,0,0,0,0,0,0,0,0,0,0,
0,0,0,0,0,0,0,0,0,0,0,0,0,0,0,0,0,0,0,0,0,0,0,0,0,0,0,0,0,0,0,0,0,0,0,0,0,0,0,0,0,0,0,0,0,0,0,0,0,0,0,0,0,0,0,0,0,0,0,0,0,0,0,0,0,
0,0,0,0,0,0,0,0,0,0,0,0,0,0,0,0,0,0,0,0,0,0,0,0,0,0,0,0,0,0,0,0,0,0,0,0,0,0,0,0,0,0,0,0,0,0,0,0,0,0,0,0,0,0,0,0,0,0,0,0,0,0,0,0,0,
0,0,0,0,0,0,0,0,0,0,0,0,0,0,0,0,0,0,0,0,0,0,0,0,0,0,0,0,0,0,0,0,0,0,0,0,0,0,0,0,0,0,0,0,0,0,0,0,0,0,0,0,0,0,0,0,0,0,0,0,0,0,0,0,0,
0,0,0,0,0,0,0,0,0,0,0,0,0,0,0,0,0,0,0,0,0,0,0,0,0,0,0,0,0,0,0,0,0,0,0,0,0,0,0,0,0,0,0,0,0,0,0,0,0,0,0,0,0,0,0,0,0,0,0,0,0,0,0,0,0,
0,0,0,0,0,0,0,0,0,0,0,0,0,0,0,0,0,0,0,0,0,0,0,0,0,0,0,0,0,0,0,0,0,0,0,0,0,0,0,0,0,0,0,0,0,0,0,0,4,5,6,0,0,0,0,0,0,0,0,0,0,0,0,0,0,
0,0,0,0,0,0,0,0,0,0,0,0,0,0,0,0,0,0,0,0,0,0,0,0,0,0,0,0,0,0,0,0,0,0,0,0,0,0,0,0,0,0,0,0,0,0,0,0,29,30,31,0,0,0,0,0,0,0,0,0,0,0,0,0,0,
0,0,0,0,0,0,0,0,0,0,0,0,0,0,0,0,0,0,0,0,0,0,0,0,0,0,0,0,0,0,0,0,0,0,0,0,0,0,0,0,0,0,0,0,0,0,0,0,54,55,56,0,0,0,0,0,0,0,0,0,0,0,0,0,0
</data>
 </layer>
 <objectgroup id="8" name="Collisions">
  <object id="2" x="0" y="416" width="1044" height="10.6667"/>
  <object id="3" x="0" y="334.667" width="338.667" height="14.6667"/>
  <object id="4" x="241.333" y="317.333"/>
  <object id="5" x="209.333" y="225.333" width="12" height="105.333"/>
  <object id="6" x="128" y="185.333"/>
  <object id="7" x="167" y="233"/>
  <object id="8" x="40" y="279.333"/>
  <object id="9" x="159.333" y="274" width="45.3333" height="54"/>
  <object id="10" x="150" y="278.667" width="7.33333" height="51.3333"/>
  <object id="11" x="150" y="330"/>
  <object id="12" x="144" y="306" height="0.666667"/>
  <object id="13" x="140.667" y="318"/>
  <object id="14" x="132" y="322.667" width="2" height="0.666667"/>
  <object id="15" x="130.667" y="310.667" height="3.33333"/>
  <object id="16" x="138" y="305.333"/>
  <object id="17" x="150.667" y="300.667"/>
  <object id="18" x="119.333" y="318" width="1.33333"/>
  <object id="19" x="112" y="317.333" width="0.666667"/>
  <object id="20" x="106" y="317.333" width="3.33333"/>
  <object id="21" x="94" y="317.333"/>
  <object id="22" x="76" y="316"/>
  <object id="23" x="118" y="318"/>
  <object id="24" x="52" y="313.333"/>
  <object id="25" x="32.6667" y="304"/>
  <object id="26" x="12" y="301.333" height="1.33333"/>
  <object id="27" x="11.3333" y="298" height="0.666667"/>
  <object id="28" x="11.3333" y="304" height="0.666667"/>
  <object id="30" x="2" y="291.625" width="20.125" height="22.375"/>
  <object id="31" x="417.333" y="336" width="413.333" height="12"/>
  <object id="32" x="833.333" y="335.333" width="204" height="12"/>
  <object id="33" x="752" y="259.333" width="116.667" height="25.3333"/>
  <object id="34" x="752" y="157.333" width="8" height="103.333"/>
  <object id="35" x="777.333" y="182.667"/>
  <object id="36" x="848" y="189.333"/>
  <object id="37" x="951.333" y="182"/>
  <object id="38" x="1007.33" y="176" height="1.33333"/>
  <object id="39" x="946" y="277.333"/>
  <object id="40" x="979.333" y="185.333" width="30.6667" height="34"/>
  <object id="41" x="1010" y="220.667" width="29.3333" height="44"/>
  <object id="42" x="866" y="292" width="7.33333" height="29.3333"/>
  <object id="43" x="877.333" y="306" width="89.3333" height="13.3333"/>
  <object id="44" x="1004.67" y="288" width="32.6667" height="12"/>
  <object id="45" x="972" y="295.333" width="30.6667" height="12"/>
  <object id="46" x="900" y="66" width="140.667" height="12.6667"/>
  <object id="47" x="828.667" y="51.3333" width="36" height="6.66667"/>
  <object id="48" x="65" y="27.5" width="121.5" height="47"/>
  <object id="49" x="0.5" y="16.5" width="63.5" height="36.5"/>
  <object id="50" x="64" y="53"/>
  <object id="51" x="1.33333" y="241.667" width="35" height="8.33333"/>
  <object id="52" x="36.6667" y="245.667" width="22.3333" height="15"/>
  <object id="53" x="62.3333" y="260.667" width="38.6667" height="6.66667"/>
  <object id="54" x="112" y="230" width="12" height="7.5"/>
  <object id="55" x="320.5" y="98.5" width="126.5" height="57.5"/>
  <object id="56" x="272.667" y="165.333" width="17.3333" height="25.3333"/>
  <object id="57" x="-0.666667" y="134.667" width="43.3333" height="15.3333"/>
  <object id="58" x="45.3333" y="150" width="32.6667" height="14"/>
  <object id="59" x="82.6667" y="166" width="32.6667" height="6.66667"/>
  <object id="60" x="118.667" y="151.333" width="87.3333" height="16"/>
  <object id="61" x="196.667" y="168" width="8" height="102.667"/>
  <object id="62" x="642" y="174.667" width="12" height="156"/>
  <object id="63" x="689" y="176.667" width="58.6667" height="8.33333"/>
  <object id="64" x="760.5" y="158.5" width="275.5" height="13.5"/>
  <object id="65" x="535.333" y="35.3333" width="179.333" height="40"/>
  <object id="66" x="714.667" y="15.3333" width="112" height="40"/>
  <object id="67" x="859.333" y="27.3333" width="61.3333" height="33.3333"/>
  <object id="68" x="877.333" y="56.6667" width="42" height="12.6667"/>
  <object id="70" x="186.667" y="14" width="52.6667" height="31.3333"/>
  <object id="71" x="221.333" y="46.6667" width="17.3333" height="32.6667"/>
  <object id="72" x="248.667" y="0" width="285.333" height="19.3333"/>
  <object id="73" x="488.667" y="1.33333" width="46.6667" height="34"/>
  <object id="74" x="286.667" y="53.3333"/>
  <object id="75" x="250" y="35.3333" width="2.66667" height="4.66667"/>
  <object id="76" x="259.333" y="46.6667" width="3.33333" height="2"/>
  <object id="77" x="264" y="50"/>
  <object id="78" x="245.333" y="35.3333"/>
  <object id="79" x="413.333" y="62" height="0.666667"/>
  <object id="80" x="417.333" y="67.3333"/>
  <object id="88" x="-0.5" y="52.5" width="5" height="82"/>
  <object id="89" x="1036" y="79.3333" width="3.66667" height="79"/>
 </objectgroup>
 <objectgroup id="9" name="ActionFarm">
  <object id="81" name="ActionFarm" x="-0.25" y="350" width="5.75" height="65.5"/>
 </objectgroup>
 <objectgroup id="10" name="ActionTown">
  <object id="85" name="ActionTown" x="1034.75" y="346.75" width="5.25" height="69.25"/>
 </objectgroup>
 <objectgroup id="11" name="Spawns">
  <object id="90" name="FromTown" x="1020" y="377.333"/>
  <object id="91" name="FromFarm" x="21.6667" y="375.333"/>
  <object id="92" name="FromCharacter" x="359.25" y="231.25"/>
 </objectgroup>
</map>
