<?xml version="1.0" encoding="UTF-8"?>
<map version="1.10" tiledversion="1.11.2" orientation="orthogonal" renderorder="right-down" width="80" height="65" tilewidth="16" tileheight="16" infinite="0" nextlayerid="17" nextobjectid="395">
 <tileset firstgid="1" source="spring_outdoorsTileSheet2.tsx"/>
 <tileset firstgid="1121" source="spring_outdoorsTileSheet.tsx"/>
 <tileset firstgid="3096" source="spring_outdoorTileSheet_extra.tsx"/>
 <tileset firstgid="3160" source="paths.tsx"/>
 <tileset firstgid="3224" name="PC Computer - Stardew Valley - Farm Buildings (1)" tilewidth="16" tileheight="16" tilecount="1508" columns="58">
  <image source="PC Computer - Stardew Valley - Farm Buildings (1).png" width="928" height="416"/>
 </tileset>
 <tileset firstgid="4732" name="PC Computer - Stardew Valley - Grass" tilewidth="16" tileheight="16" tilecount="60" columns="4">
  <image source="PC Computer - Stardew Valley - Grass.png" width="66" height="240"/>
 </tileset>
 <tileset firstgid="4792" name="paths" tilewidth="16" tileheight="16" tilecount="64" columns="4">
  <image source="paths.png" width="64" height="256"/>
 </tileset>
 <layer id="1" name="Back" width="80" height="65">
  <data encoding="csv">
1501,1501,1501,1501,1501,1501,1501,1501,1501,1501,1501,1501,1501,1501,1501,1501,1501,1501,1501,1501,1501,1501,1501,1501,1501,1277,1501,1501,1501,1501,1501,1501,1501,1501,1501,1501,1501,1527,1473,1683,1633,1684,1658,1471,1525,1472,1450,1472,1472,1472,1450,1450,1450,1450,1450,1450,1450,1450,1450,1450,1450,1450,1501,1501,1501,1501,1501,1501,1501,1501,1501,1501,1501,1501,1277,1501,1501,1501,1501,1501,
1526,1526,1526,1526,1526,1526,1526,1526,1526,1526,1526,1526,1526,1526,1526,1526,1526,1526,1526,1526,1526,1526,1526,1526,1526,1526,1526,1526,1526,1526,1526,1526,1526,1526,1526,1526,1526,1472,1473,1297,1744,1709,1658,1471,1472,1472,1474,1497,1497,1497,1397,1524,1450,1450,1450,1450,1450,1450,1450,1450,1450,1450,1501,1501,1501,1501,1501,1501,1501,1501,1501,1501,1501,1501,1501,1277,1501,1501,1501,1501,
1450,1472,1474,1497,1497,1497,1497,1497,1497,1397,1398,1399,1497,1397,1398,1399,1397,1398,1399,1397,1399,1497,1497,1497,1497,1497,1397,1398,1399,1497,1497,1497,1397,1398,1399,1397,1398,1399,1498,1297,1297,1709,1658,1496,1399,1497,1498,0,1296,1472,1522,1496,1524,1450,1450,1450,1450,1472,1472,1472,1472,1472,1526,1526,1526,1526,1526,1526,1526,1526,1450,1526,1526,1526,1526,1526,1526,1526,1450,1450,
1472,1498,1497,1377,1296,1377,1296,1296,1296,1296,1296,1296,1377,1296,1296,1296,1296,1296,1296,1296,1296,1296,1296,1296,1375,1296,1296,1376,1296,1375,1377,1377,1296,1376,1296,1296,1375,1296,1376,1297,1328,1709,1658,1296,1296,1375,0,0,1472,1472,1450,1522,1471,1472,1450,1472,1450,1450,1472,1472,1472,1472,1425,1472,1472,1421,1450,1450,1426,1425,1450,1472,1472,1472,1472,1472,1450,1472,1450,1450,
0,1498,1377,1296,1708,1708,1708,1708,1708,1708,1708,1708,1708,1708,1708,1708,1708,1708,1708,1708,1708,1708,1708,1708,1708,1708,1708,1708,1708,1708,1708,1708,1708,1708,1708,1708,1708,1708,1708,1297,1297,1659,1658,1708,1708,1708,1708,0,1472,1497,1497,1497,1496,1399,1397,1398,1450,1472,1472,1450,1450,1472,1472,1426,1425,1472,1472,1472,1472,1472,1421,1425,1472,1472,1472,1472,1472,1472,1472,1472,
1474,1377,0,1708,1708,1708,1708,1708,1708,1708,1708,1708,1708,1708,1708,1708,1708,1708,1708,1708,1708,1708,1708,1708,1708,1708,1708,1708,1708,1708,1708,1708,1708,1338,1338,1338,1708,1708,1708,1707,1681,1709,1658,1708,1708,1708,1708,1472,1498,1377,1377,1377,1377,1296,1375,1296,1496,1524,1421,1472,1472,1472,1425,1472,1472,1450,1472,1421,1472,1425,1472,1472,1421,1472,1450,1472,1421,1425,1472,1472,
1296,1296,1708,1708,1708,1708,1708,1708,1708,1708,1708,1708,1708,1708,1708,1708,1708,1708,1708,1708,1708,1708,1708,1708,1708,1708,1708,1708,1708,1708,1708,1708,1708,1338,1630,1338,1708,1708,1708,1707,1609,1709,1658,1708,1708,1708,1713,1714,1689,1688,1689,1688,1689,1688,1570,1690,1271,1496,1497,1397,1398,1399,1497,1497,1497,1397,1398,1398,1399,1497,1497,1497,1524,1425,1450,1421,1425,1472,1472,1472,
1448,1296,1708,1708,1658,1658,1658,1658,1658,1658,1658,1658,1658,1658,1658,1658,1658,1658,1658,1658,1658,1658,1658,1658,1658,1658,1658,1658,1658,1658,1658,1658,1658,1581,1581,1581,1658,1658,1658,1707,1297,1709,1658,1658,1658,1658,1732,1685,1719,1274,1347,1708,1708,1708,1297,1715,1522,1396,1296,1271,1296,1522,1296,1272,1296,1271,1296,1522,1296,3087,3085,3086,3085,1524,1450,1472,1421,1425,1472,1472,
0,1296,1708,1658,1658,1712,1633,1959,1959,1959,1683,1683,1633,1683,1683,1683,1683,1683,1683,1683,1633,1683,1683,1683,1683,1633,1633,1683,1683,1683,1683,1683,1683,1633,1683,1633,1633,1687,1658,1739,1297,1766,1297,1297,1297,1297,1297,1297,1297,1297,1297,0,0,1297,1297,1740,1377,1272,1296,1296,1296,1396,1296,1396,1296,1396,1377,1377,3085,3085,3086,3085,3087,1496,1497,1472,1472,1472,1475,1476,
0,1377,1658,1658,1732,1731,1708,1592,1593,1594,1708,1708,1708,1708,1708,1708,1731,1708,1708,1731,1708,1708,1708,1710,1708,1708,1708,1708,1708,1708,1708,1708,1708,1708,1708,1708,1708,1708,1594,1708,1708,1731,1297,1297,1297,1297,1297,1297,1297,1297,1297,1297,1297,1297,1297,1296,1377,1377,1377,1377,1377,1377,1377,1377,1377,1377,1377,1377,1377,3087,3085,3086,3085,1377,1377,1524,1472,1472,1500,1501,
0,1296,1658,1732,1708,1708,1710,1708,1347,1708,1274,1708,1328,1347,1347,1708,1708,1609,1708,1708,1708,1681,1708,1708,1708,1708,1327,1302,1299,1350,1351,1325,1372,1373,1685,1708,1347,1708,1609,1708,1708,1706,1297,1297,1297,1297,1297,1297,1297,1297,1297,1297,1297,1297,1297,3096,1271,1396,1522,1396,1296,1296,1271,1296,1396,1296,1521,1296,1296,1271,1296,1396,1522,1296,1396,1522,1496,1524,1525,1526,
0,1296,1732,1710,1708,1706,1708,1708,1708,1347,1681,1708,1708,1708,1708,1347,1274,1708,1685,1708,1708,1708,1584,1708,1708,1708,1708,1299,1374,1296,1296,1296,1271,742,1735,1327,1708,1708,1708,1708,1347,1708,1651,1652,1652,1652,1652,1652,1652,1652,1652,1652,1652,1652,1653,1298,1324,1272,1296,1271,1296,1296,1296,1296,1271,1296,1296,1296,1296,1396,1296,1272,1396,1296,1296,1296,1522,1382,1472,1472,
0,1296,1681,1735,1708,1708,1708,1710,1708,1274,1274,1347,1708,1584,1708,1708,1347,1708,1708,1708,1708,1708,1708,1708,1708,1708,1708,1298,1324,1296,1296,1296,1296,758,1685,1708,1708,1708,1327,1708,1708,1708,1676,1602,1602,1602,1602,1602,1602,1602,1602,1602,1602,1602,1678,1274,1298,1324,1296,1296,1446,1422,1424,1447,1422,1423,1424,1447,1447,1448,1522,1446,1448,1521,1296,1396,1296,1407,1472,1472,
1473,1296,1708,1708,1584,1708,1708,1708,1708,1634,1708,1274,1708,1708,1708,1708,1347,1708,1708,1708,1681,1708,1708,1685,1708,1609,1708,1302,1349,1296,1296,1296,1522,774,1731,1609,1708,1708,1708,1708,1708,1584,1676,1602,1602,1602,1602,1602,1602,1602,1602,1602,1602,1602,1678,1274,1274,1298,1324,1446,1449,1472,1472,1472,1421,1472,1472,1472,1474,1498,1446,1449,1499,1448,1522,1296,1296,1432,1472,1472,
1473,1296,1708,1685,1708,1347,1708,1274,1708,1274,1274,1708,1708,1710,1347,1708,1708,1708,1274,1708,1708,1708,1347,1681,1708,1708,1708,1708,1298,1324,1296,1296,1271,1346,1735,1708,1708,1347,1708,1708,1708,1708,1676,1602,1602,1602,1602,1602,1602,1602,1602,1602,1602,1602,1678,1352,1274,1678,3105,1471,1472,1421,1472,1472,1472,1472,1421,1472,1473,1375,1496,1472,1472,1498,1272,1396,1271,1471,1472,1472,
1473,1296,1708,1735,1274,1708,1681,1708,1347,1708,1681,1347,1274,1708,1274,1708,1328,1708,1685,1708,1708,1708,1708,1706,1708,1708,1708,1710,1708,1298,1300,1301,1326,1323,1710,1708,1708,1708,1352,1708,1708,1708,1676,1602,1602,1602,1602,1602,1602,1602,1602,1602,1602,1602,1678,1708,1347,1634,1349,1471,1472,1472,1472,1472,1421,1472,1472,1474,1498,1296,1321,1595,1620,1324,1396,1396,1296,1496,1497,1397,
1473,1296,1708,1708,1274,1708,1708,1708,1327,1347,1274,1347,1274,1274,1274,1708,1327,1708,1708,1708,1708,1328,1708,1584,1708,1731,1708,1708,1708,1708,1708,1708,1710,1685,1708,1347,1708,1708,1708,1708,1708,1706,1676,1602,1602,1602,1602,1602,1602,1602,1602,1602,1602,1602,1678,1710,1274,1347,1349,1678,1497,1497,1497,1397,1398,1399,1497,1498,1377,1321,1323,1731,1743,1298,1300,1326,1300,1301,1326,1322,
1473,1296,1708,1274,1708,1708,1609,1708,1708,1274,1327,1708,1328,1274,1710,1274,1708,1347,1708,1347,1274,1708,1708,1708,1681,1708,1708,1708,1708,1708,1708,1708,1708,1347,1708,1708,1274,1708,1708,1706,1708,1708,1676,1602,1602,1602,1602,1602,1602,1602,1602,1602,1602,1602,1678,1274,1347,1609,1298,1300,1678,1300,1326,1300,1301,1326,1300,1326,1322,1323,1708,1706,1745,1718,1694,1718,1694,1718,1694,1718,
1473,1450,1708,1735,1274,1708,1708,1347,1328,1347,1634,1708,1708,1347,1708,1274,1708,1352,1708,1708,1274,1708,1708,1708,1274,1274,1274,1708,1708,1708,1274,1708,1708,1710,1708,1708,1708,1708,1274,1347,1708,1708,1701,1702,1702,1702,1702,1702,1702,1702,1702,1702,1702,1702,1703,1352,1708,1347,1708,1347,1328,1347,1708,1708,1609,1347,1347,1274,1708,1352,1708,1708,1274,1708,1731,1348,1708,1731,1302,1708,
1473,1377,1708,1710,1274,1708,1708,1681,1708,1708,1347,1274,1708,1708,1274,1708,1708,1708,1708,1708,1708,1708,1274,1327,1708,1708,1274,1708,1584,1708,1347,1708,1708,1708,1681,1708,1634,1708,1708,1708,1347,1708,1708,1347,1708,1347,1708,1274,1274,1708,1708,1708,1274,1708,0,1708,1274,1708,1710,1708,1347,1708,1347,1678,1678,1708,1274,1708,1708,1708,1708,1708,1708,1708,1708,1348,1737,1716,1446,1447,
1473,1296,1708,1735,1708,1708,1584,1274,1708,1609,1708,1708,1347,1708,1584,1708,1274,1274,1708,1706,1708,1708,1708,1708,1708,1274,1710,1708,1708,1347,1708,1708,1347,1708,1708,1274,1708,1708,1297,1708,1708,1708,1609,1584,1708,1708,1274,1708,1708,1347,1708,1710,1708,1708,1274,1347,1297,1274,1297,1274,1708,1609,1708,1708,1347,1678,1678,1708,1274,1274,1708,1634,1708,1708,1708,1708,1733,1740,1471,1472,
1473,1296,1708,1681,1327,1708,1708,1708,1274,1708,1708,1681,1708,1347,1708,1708,1708,1609,1708,1708,1708,1297,1708,1708,1274,1297,1274,1708,1274,1708,1708,1327,1681,1708,1708,1584,1708,1347,1708,1609,1708,1708,1708,1708,1708,1634,1274,1347,1708,1708,1708,1327,1708,1681,1347,1708,1328,1708,1708,1708,1274,1708,1708,1274,1347,1347,1708,1678,1708,1609,1708,1708,1708,1634,1708,1347,1733,1715,1471,1472,
1473,1296,1708,1708,1708,1708,1681,1634,1708,1347,1708,1347,1710,1708,1708,1681,1347,1708,1708,1708,1274,1710,1708,1708,1708,1347,1708,1347,1708,1708,1708,1708,1708,1708,1708,1708,1708,1708,1708,1708,1708,1347,1708,1708,1708,1708,1708,1274,1584,1352,1708,1347,1708,1708,1708,1274,1708,1708,1352,1634,1708,1347,1708,1347,1710,1708,1708,1708,1708,1708,1708,1708,1708,1708,1708,1708,1733,1740,1471,1450,
1473,1296,1708,1708,1296,1708,1708,1708,1347,1327,1708,1347,1708,1708,1634,1708,1274,1274,1708,1274,1708,1708,1584,1708,1274,1708,1681,1708,1274,1681,1708,1347,1708,1710,1708,1708,1708,1710,1274,1708,1708,1708,1327,1708,1708,1710,1708,1347,1347,1708,1708,1708,1347,1274,1708,1274,1584,1708,1274,1708,1347,1327,1708,1347,1708,1708,1634,1708,1708,1708,1708,1708,1708,1584,1708,1708,1733,1715,1471,1450,
1450,1447,1447,1447,1447,1448,1708,1274,1681,1708,1708,1708,1347,1347,1708,1274,1708,1681,1708,1708,1584,1708,1708,1708,1347,1708,1708,1274,1274,1274,1708,1274,1681,1708,1708,1347,1708,1708,1708,1347,1708,1708,1708,1708,1634,1708,1708,1708,1708,1708,1584,1347,1297,1274,1634,1708,1708,1708,1708,1274,1708,1708,1708,1708,1347,1347,1708,1274,1708,1708,1708,1609,1708,1678,1706,1708,1733,1740,1471,1472,
1450,1450,1472,1472,1472,1473,1708,1708,1274,1708,1685,1708,1708,1708,1708,1708,1584,1708,1274,1347,1708,1708,1347,1708,1274,1274,1347,1708,1708,1347,1274,1681,1708,1708,1708,1708,1634,1708,1708,1708,1708,1708,1274,1347,1708,1708,1347,1609,1708,1274,1274,1708,1708,1274,1274,1274,1347,1708,1274,1708,1710,1708,1609,1584,1708,1634,1274,1706,1708,1609,1678,1708,1274,1708,1708,1708,1733,1715,1471,1472,
1450,1450,1472,1472,1472,1473,1708,1681,1708,1708,1708,1708,1708,1708,1352,1708,1708,1708,1274,1708,1274,1708,1708,1584,1708,1708,1274,1708,1708,1708,1708,1708,1708,1347,1706,1708,1708,1708,1708,1584,1708,1708,1710,1708,1708,1328,1708,1274,1347,1708,1708,1708,1710,1708,1708,1609,1347,1274,1274,1347,1708,1274,1708,1708,1708,1708,1327,1708,1708,1708,1708,1708,1708,1708,1708,1347,1733,1740,1471,1472,
1450,1472,1450,1450,1472,1473,1708,1708,1708,1347,1708,1274,1347,1710,1708,1274,1708,1708,1708,1634,1708,1347,1708,1708,1708,1708,1708,1708,1708,1352,1708,1708,1609,1708,1708,1708,1327,1708,1708,1708,1708,1710,1708,1708,1708,1708,1708,1708,1708,1708,1584,1708,1708,1708,1706,1708,1347,1347,1297,1708,1708,1347,1708,1708,1274,1708,1347,1708,1274,1708,1708,1708,1327,1685,1708,1708,1733,1715,1471,1472,
1450,1472,1450,1450,1450,1473,1708,1708,1327,1708,1708,1708,1584,1708,1708,1708,1634,1274,1708,1274,1708,1274,1274,1708,1710,1708,1347,1352,1708,1347,1708,1347,1328,1347,1634,1708,1708,1347,1708,1274,1708,1352,1708,1708,1274,1634,1708,1274,1347,1274,1708,1708,1708,1274,1274,1708,1708,1274,1347,1609,1274,1708,1708,1347,1347,1328,1708,1274,1708,1584,2364,2365,2365,2365,2366,1685,1733,1740,1471,1472,
1450,1450,1450,1450,1497,1498,1708,1681,1708,1347,1274,1708,1708,1708,1274,1708,1708,1681,1274,1708,1708,1681,1274,1708,1708,1708,1708,1708,1274,1708,1710,1708,1708,1708,1347,1274,1708,1708,1274,1708,1708,1708,1708,1708,1708,1708,1274,1708,1274,1708,1274,1347,1708,1708,1634,1347,1710,1708,1708,1708,1708,1274,1708,1584,1708,1708,1708,1347,1708,1708,2389,2390,2390,2390,2391,2366,1733,1715,1471,1450,
1450,1450,1474,1498,1296,1708,1708,1681,1274,1708,1708,1708,1708,1274,1274,1347,1327,1708,1708,1609,1708,1274,1708,1708,1327,1708,1710,1347,1297,1274,1297,1274,1708,1609,1708,1708,1347,1708,1584,1708,1274,1274,1708,1634,1634,1708,1708,1274,1274,1708,1274,1274,1708,1685,1708,1708,1708,1708,1708,1584,1708,1347,1347,1708,1708,1347,1708,1274,1708,1328,2367,2420,2367,2393,2388,2391,1733,1740,1471,1472,
1450,1450,1498,1296,1708,1708,1708,1708,1274,1708,1708,1609,1708,1274,1708,1708,1584,1708,1708,1708,1708,1274,1708,1681,1708,1681,1708,1708,1328,1708,1708,1708,1274,1708,1708,1274,1708,1347,1708,1708,1708,1609,1708,1708,1708,1708,1274,1634,1348,1708,1708,1708,1708,1708,1708,1708,1708,1352,1708,1708,1708,1274,1708,1274,1708,1708,1584,1708,1708,1706,868,2443,2367,2367,2367,2370,1733,1715,1471,1472,
1472,1473,1296,1708,1708,1708,1707,1708,1347,1708,1708,1708,1681,1347,1347,1710,1708,1708,1327,1708,1274,1348,1347,1708,1708,1708,1708,1274,1708,1708,1352,1634,1708,1347,1708,1347,1710,1708,1708,1274,1347,1708,1708,1708,1708,1708,1328,1708,1347,1708,1347,1708,1347,1708,1274,1347,1274,1708,1274,1708,1708,1708,1634,1708,1347,1706,1708,1708,1708,1708,884,2370,2350,2392,2392,2392,1733,1740,1471,1472,
1472,1473,1708,1708,1708,1658,1732,1708,1274,1708,1328,1708,1347,1274,1708,1347,1708,1708,1681,1274,1274,1328,1708,1274,1708,1274,1681,1274,1584,1708,1274,1708,1347,1327,1708,1347,1708,1708,1634,1708,1274,1274,1708,1708,1708,1274,1708,1708,1708,1274,1274,1710,1708,1708,1708,1584,1708,1708,1708,1634,1274,1708,1274,1708,1634,1274,1708,1710,1708,1708,1708,2392,2369,2420,2392,1347,1733,1715,1471,1472,
1377,1473,1708,1708,1658,1732,1708,1708,1708,1681,1708,1708,1708,1708,1710,1708,1708,1681,1274,1708,1708,1708,1708,1708,1710,1274,1274,1708,1708,1708,1710,1274,1708,1708,1708,1708,1347,1327,1708,1274,1708,1274,1708,1609,1708,1274,1708,1584,1708,1708,1708,1708,1347,1274,1708,1708,1708,1274,1708,1708,1708,1274,1708,1708,1347,1274,1708,1710,1708,1634,1708,1274,1731,1708,1706,1708,1733,1740,1471,1450,
1472,1473,1708,1658,1732,1681,1708,1708,1347,1708,1708,1681,1708,1274,1708,1708,1347,1708,1634,1708,1708,1710,1584,1708,1274,1708,1274,1609,1347,1708,1274,1708,1710,1708,1609,1584,1708,1274,1274,1708,1708,1609,1708,1708,1274,1274,1708,1706,1708,1708,1634,1347,1634,1708,1708,1708,1634,1274,1347,1347,1708,1708,1609,1708,1274,1708,1708,1274,1347,1708,1708,1708,1708,1584,1708,1347,1733,1715,1471,1450,
1472,1473,1708,1732,1708,1708,1634,1708,1710,1708,1347,1609,1708,1708,1274,1710,1347,1708,1347,1274,1274,1347,1708,1708,1708,1708,1708,1710,1708,1274,1609,1347,1708,1274,1708,1708,1708,1708,1327,1708,1708,1708,1708,1274,1681,1274,1708,1347,1274,1708,1708,1274,1708,1708,1609,1708,1274,1708,1708,1584,1708,1708,1708,1708,1274,1708,1681,1708,1708,1708,1708,1328,1708,1708,1708,1708,1733,1740,1471,1472,
1450,1473,1708,1708,1708,1708,1347,1708,1347,1708,1347,1708,1708,1584,1347,1348,1708,1710,1274,1708,1708,1274,1708,1708,1735,1708,1708,1708,1347,1347,1297,1708,1708,1347,1708,1708,1274,1708,1347,1706,1274,1327,1708,1708,1274,1708,1708,1347,1708,1708,1274,1347,1708,1708,1708,1708,1347,1347,1634,1708,1681,1274,1708,1274,1348,1347,1708,1708,1634,1708,1274,1708,1708,1708,1274,1708,1733,1715,1471,1450,
1450,1473,1708,1681,1708,1681,1708,1708,1708,1708,1708,1708,1708,1274,1708,1274,1708,1708,1708,1708,1708,1274,1347,1708,1708,1274,1274,1708,1708,1274,1347,1609,1274,1708,1708,1347,1708,1328,1708,1274,1708,1584,1681,1708,1708,1708,1708,1327,1348,1708,1347,1274,1708,1328,1708,1347,1274,1708,1347,1708,1708,1297,1297,1274,1328,1708,1274,1708,1584,1708,1708,1685,1710,1708,1710,1274,1733,1740,1471,1450,
1450,1448,1708,1735,1609,1708,1708,1708,1681,1609,1347,1274,1708,1347,1708,1347,1708,1274,1708,1328,1347,1347,1708,1708,1609,1708,1274,1347,1710,1708,1708,1708,1708,1274,1708,1584,1708,1708,1708,1347,1708,1708,1274,1274,1708,1708,1681,1708,1609,1634,1708,1708,1708,1708,1708,1708,1708,1710,1297,1297,1297,1297,1297,1297,1708,1708,1708,1708,1708,1708,1708,1708,1708,1708,1274,1708,1733,1715,1471,1472,
1450,1473,1708,1708,1708,1584,1708,1708,1708,1274,1297,1274,1274,1708,1708,1708,1347,1274,1708,1708,1708,1708,1347,1274,1708,1685,1708,1708,1708,1708,1708,1584,1708,1347,1274,1708,1274,1347,1708,1274,1708,1347,1274,1274,1347,1708,1274,1708,1708,1708,1708,1347,1708,1634,1681,1708,1274,1708,1708,1347,1708,1634,1708,1634,1708,1584,1708,1274,1708,1708,1708,1708,1274,1708,1708,1708,1733,1740,1471,1472,
1472,1402,1708,1735,1708,1708,1708,1708,1274,1328,1274,1347,1274,1708,1710,1708,1274,1274,1327,1708,1584,1708,1708,1347,1708,1708,1708,1708,1708,1352,1708,1609,1274,1710,1708,1274,1708,1708,1584,1708,1274,1274,1708,1708,1708,1708,1347,1708,1708,1708,1327,1710,1708,1347,1708,1708,1708,1274,1274,1347,1708,1347,1274,1274,1347,1708,1708,1708,1274,1347,1347,1708,1634,1708,1706,1708,1733,1715,1471,1472,
1527,1427,1708,1708,1708,1708,1708,1347,1274,1708,1681,1708,1609,1708,1708,1708,1634,1708,1274,1708,1708,1708,1708,1347,1708,1708,1274,1347,1274,1708,1274,1708,1708,1708,1634,1708,1347,1708,1708,1708,1274,1708,1708,1708,1352,1274,1274,1708,1327,1708,1347,1347,1708,1347,1708,1708,1584,1347,1348,1708,1710,1274,1708,1708,1274,1708,1708,1735,1708,1347,1710,1708,1708,1708,1710,1708,1733,1740,1471,1472,
1472,1452,1708,1708,1327,1708,1708,1708,1708,1708,1584,1708,1708,1347,1274,1708,1274,1708,1708,1708,1708,1347,1708,1708,1708,1274,1274,1708,1634,1708,1328,1347,1274,1708,1708,1708,1634,1274,1328,1708,1708,1710,1352,1708,1708,1634,1710,1708,1708,1708,1708,1708,1708,1681,1327,1708,1681,1708,1274,1708,1708,1708,1708,1708,1681,1347,1708,1708,1708,1708,1708,1584,1708,1708,1274,1708,1733,1715,1471,1472,
1472,1473,1708,1708,1708,1708,1708,1609,1708,1274,1708,1708,1708,1708,1681,1347,1708,1708,1609,1681,1708,1274,1708,1328,1708,1685,1708,1708,1708,1708,1274,1274,1708,1708,1274,1708,1274,1708,1708,1274,1274,1708,1708,1708,1708,1634,1708,1708,1708,1708,1274,1347,1274,1274,1274,1708,1347,1708,1347,1708,1274,1708,1328,1634,1347,1708,1708,1609,1708,1708,1708,1274,1708,1708,1708,1708,1733,1740,1471,1472,
1474,1498,1708,1735,1347,1708,1708,1708,1708,1274,1708,1708,1347,1347,1708,1327,1347,1274,1347,1274,1274,1708,1708,1327,1708,1708,1708,1274,1708,1708,1347,1708,1274,1710,1609,1708,1584,1708,1708,1274,1708,1708,1347,1708,1708,1708,1708,1708,1584,1347,1274,1708,1274,1297,1274,1634,1708,1708,1708,1347,1681,1708,1708,1708,1708,1347,1274,1708,1347,1274,1708,1274,1708,1706,1708,1708,1733,1715,1471,1472,
1473,1522,1708,1681,1708,1708,1681,1708,1347,1708,1274,1708,1348,1708,1708,1708,1274,1708,1708,1681,1274,1609,1274,1708,1347,1708,1274,1274,1347,1609,1708,1708,1708,1708,1708,1708,1708,1708,1708,1609,1708,1708,1708,1274,1708,1327,1274,1274,1708,1297,1274,1274,1708,1681,1347,1274,1708,1710,1708,1274,1274,1347,1708,1584,1708,1634,1347,1708,1297,1274,1347,1274,1708,1708,1708,1708,1733,1740,1471,1472,
1499,1448,1708,1708,1708,1708,1708,1708,1708,1347,1352,1708,1347,1708,1347,1328,1347,1634,1708,1708,1347,1708,1274,1708,1352,1708,1708,1274,1708,1708,1708,1706,1710,1274,1708,1274,1708,1274,1708,1708,1274,1708,1708,1274,1708,1274,1708,1708,1708,1708,1347,1274,1708,1708,1708,1327,1708,1708,1708,1634,1708,1274,1708,1708,1708,1681,1347,1708,1708,1708,1274,1708,1347,1708,1274,1708,1733,1715,1471,1472,
1472,1473,1708,1708,1584,1708,1609,1274,1708,1708,1708,1274,1609,1710,1708,1708,1708,1347,1274,1708,1708,1274,1708,1708,1609,1681,1708,1274,1708,1274,1274,1708,1708,1708,1708,1352,1708,1609,1710,1708,1681,1708,1708,1708,1710,1347,1274,1708,1710,1708,1274,1708,1708,1584,1274,1708,1347,1274,1708,1274,1708,1708,1708,1708,1347,1708,1708,1708,1274,1274,1708,1634,1708,1708,1347,1708,1733,1740,1471,1472,
1472,1473,1708,1708,1710,1708,1708,1708,1708,1274,1347,1297,1274,1297,1274,1708,1609,1708,1708,1347,1708,1584,1708,1274,1274,1708,1634,1708,1274,1708,1274,1274,1584,1708,1708,1685,2364,2365,2365,2365,2365,2365,2366,962,1708,1708,1681,1708,1708,1708,1328,1708,1274,1708,1328,1708,1274,1708,1347,1708,1708,1347,1274,1708,1274,1708,1328,1708,1685,1708,1708,1708,1708,1274,1274,1708,1733,1715,1471,1472,
1472,1473,1735,1735,1708,1708,1708,1634,1681,1609,1708,1328,1708,1708,1708,1274,1708,1708,1274,1708,1347,1708,1708,1708,1274,1708,1708,1708,1274,1708,1274,1274,1708,1708,897,2364,2389,2390,2390,2390,2390,2390,853,836,1681,1708,1708,1708,1274,1347,1274,1708,1274,1708,1708,1274,1274,1708,1327,1347,1274,1347,1274,1274,1634,1708,1327,1708,1708,1708,1274,1708,1708,1347,1708,1708,1733,1740,1471,1472,
1472,1473,1708,1681,1708,1634,1708,1708,1708,1708,1274,1708,1708,1352,1634,1708,1347,1708,1347,1710,1681,1708,1274,1347,1708,1708,1634,1328,1708,1584,1274,1609,1708,1706,821,849,850,2420,2367,2367,2395,2393,851,852,2365,2366,1710,1708,1274,1297,1274,1347,1708,1274,1708,1348,1708,1708,1708,1274,1708,1708,1708,1274,1708,1274,1708,1347,1708,1347,1347,1347,1609,1708,1708,1347,1733,1715,1471,1472,
1450,1473,1708,1708,1708,1708,1708,1708,1274,1708,1274,1584,1708,1609,1708,1347,1327,1708,1347,1708,1708,1634,1609,1274,1274,1274,1708,1708,1274,1708,1708,1708,1274,2364,849,850,2367,2367,2370,2351,2351,2367,2395,2388,2390,2391,2366,1708,1347,1708,1274,1274,1708,1347,1708,1708,1609,1708,1708,1708,1347,1708,1708,1274,1274,1347,1708,1274,1708,1274,1274,1708,1708,1708,1706,1708,1733,1740,1471,1472,
1450,1473,1708,1708,1708,1708,1609,1708,1274,1274,1708,1708,1708,1708,1274,1708,1708,1708,1708,1347,1347,1708,1274,1708,1609,1708,1609,1708,1274,1708,1274,1274,1708,2389,2387,2367,2395,2350,2349,2376,2376,2374,2367,2367,2420,2388,2391,1708,1708,1708,1634,1274,1708,1708,1708,1274,1708,1708,1347,1708,1274,1681,1708,1708,1708,1274,1708,1347,1708,1708,1708,1708,1708,1685,1681,1708,1733,1715,1471,1472,
1450,1473,1708,1735,1708,1708,1708,1274,1708,1274,1708,1347,1708,1274,1708,1710,1708,1609,1584,1708,1274,1274,1634,1708,1609,1274,1708,1274,1274,1708,1708,1274,1708,2367,2392,2367,2394,2375,2348,2401,2401,2398,2402,2367,2370,2367,2392,1681,1584,1708,1708,1708,1274,1328,1347,1274,1708,1274,1708,1347,1708,1708,1347,1347,1347,1274,1708,1584,1708,1634,1708,1708,1348,1348,1348,1708,1733,1740,1471,1472,
1450,1473,1708,1708,1708,1584,1708,1708,1708,1708,1609,1609,1274,1274,1347,1708,1274,1708,1708,1708,1708,1327,1708,1708,1708,1274,1274,1274,1708,1609,1708,1609,1708,1681,2367,2395,2367,2400,2401,2373,2401,2399,2367,2367,2395,2367,2367,1708,1708,1274,1708,1274,1297,1274,1274,1708,1708,1347,1708,1708,1274,1708,1297,1274,1347,1328,1708,1708,1708,1708,1708,1708,1708,1708,1708,1708,1733,1715,1471,1472,
1472,1498,1708,1708,1708,1710,1708,1609,1708,1708,1708,1347,1347,1297,1708,1708,1347,1708,1634,1274,1708,1347,1708,1274,1708,1708,1708,1274,1274,1708,1274,1274,1708,1708,2367,2367,2367,2425,2426,2426,2426,2367,2368,2392,2367,2367,1708,1708,1708,1274,1708,1708,1708,1708,1274,1708,1708,1708,1708,1708,1708,1584,1708,1708,1274,1708,1708,1708,1347,1708,1685,1708,1708,1708,1446,1447,1447,1447,1447,1447,
1450,1473,1708,1735,1708,1708,1708,1708,1274,1274,1708,1708,1274,1347,1609,1274,1708,1708,1347,1708,1328,1708,1274,1708,1584,1681,1708,1708,1274,1708,1708,1328,1274,1708,1708,1584,2367,2420,2367,2395,2370,2367,2367,2367,2367,1681,1708,1710,1708,1274,1274,1584,1708,1274,1708,1710,1708,1634,1708,1274,1274,1708,1274,1708,1708,1708,1347,1347,1348,1348,1348,1708,1708,1708,1471,1450,1450,1472,1450,1472,
1472,1473,1708,1685,1708,1347,1609,1708,1708,1274,1347,1710,1708,1708,1708,1708,1274,1708,1584,1708,1708,1708,1347,1708,1708,1274,1274,1708,1708,1327,1708,1274,1708,1584,1708,1708,1710,2367,2420,2367,2367,2367,1710,1708,1708,1708,1708,1710,1347,1708,1708,1708,1708,1347,1708,1708,1708,1708,1708,1274,1347,1708,1708,1609,1609,1347,1708,1347,1708,1708,1708,1708,1708,1708,1496,1497,1497,1497,1397,1398,
1472,1473,1708,1708,1708,1708,1708,1708,1685,1708,1708,1708,1708,1708,1584,1708,1347,1347,1708,1708,1609,1708,1274,1708,1347,1274,1609,1347,1274,1708,1708,1274,1274,1708,1708,1708,1274,1708,1681,1634,1708,1708,1708,1708,1274,1328,1274,1708,1274,1274,1708,1708,1347,1274,1708,1347,1274,1274,1708,1274,1347,1708,1708,1708,1708,1708,1708,1348,1708,1708,1446,1447,1448,1448,1708,1497,1497,1497,1497,1497,
1472,1473,1708,1685,1710,1708,1708,1708,1708,1708,1708,1708,1352,1708,1708,1708,1274,1708,1274,1708,1708,1584,1708,1708,1274,1274,1708,1708,1274,1274,1708,1274,1274,1274,1328,1274,1708,1708,1708,1710,1274,1708,1708,1274,1708,1708,1708,1681,1708,1708,1708,1685,1708,1708,1347,1708,1708,1708,1708,1708,1274,1708,1708,1708,1708,1685,1708,1348,1708,1708,1471,1472,1473,1708,1708,1708,1708,1708,1708,1708,
1472,1473,1708,1708,1710,1708,1708,1708,1708,1274,1347,1274,1708,1274,1708,1708,1708,1634,1708,1347,1708,1708,1708,1708,1708,1708,1708,1352,1708,1708,1708,1708,1708,1708,1708,1708,1708,1708,1708,1708,1708,1708,1708,1708,1708,1708,1708,1708,1708,1708,1708,1708,1708,1708,1708,1708,1708,1708,1708,1708,1708,1708,1708,1708,1708,1708,1708,1708,1708,1708,1471,1472,1473,1708,1708,1708,1708,1708,1708,1708,
1501,1477,1447,1447,1447,1447,1447,1447,1447,1447,1447,1447,1447,1447,1447,1447,1447,1447,1447,1447,1447,1447,1447,1447,1447,1447,1447,1447,1447,1447,1447,1447,1447,1447,1447,1296,1296,1296,1296,1708,1706,1708,1708,1446,1447,1447,1447,1447,1447,1447,1447,1447,1447,1447,1447,1447,1447,1447,1447,1447,1447,1447,1447,1447,1447,1447,1447,1447,1447,1447,1449,1472,1473,1708,1708,1708,1708,1708,1658,1743,
1501,1503,1477,1450,1450,1450,1450,1450,1450,1450,1450,1450,1472,1450,1476,1476,1476,1476,1476,1476,1472,1472,1472,1472,1472,1472,1472,1472,1472,1472,1472,1472,1472,1450,1296,1296,1296,1296,1296,1708,1708,1708,1708,1471,1472,1472,1472,1472,1472,1472,1472,1472,1472,1472,1472,1472,1472,1472,1472,1472,1472,1472,1472,1472,1472,1472,1472,1450,1450,1450,1472,1472,1473,1708,1708,2364,2365,2366,1734,1658,
1501,1501,1502,1472,1472,1450,1450,1450,1450,1450,1450,1450,1472,1472,1501,1501,1277,1501,1501,1501,1472,1472,1475,1476,1476,1476,1476,1476,1476,1476,1476,1476,1476,1476,1296,1296,1296,1296,1296,1708,1708,1708,1708,1471,1450,1476,1476,1476,1476,1476,1476,1476,1476,1476,1476,1476,1476,1476,1476,1476,1476,1476,1476,1476,1476,1476,1476,1476,1476,1450,1472,1425,1473,1708,2364,2389,2390,2391,2366,1708
</data>
 </layer>
 <objectgroup id="7" name="Back" visible="0">
  <object id="1" name="TileData" x="639.636" y="1.81818" width="16" height="16">
   <properties>
    <property name="NoSpawn" value="All"/>
   </properties>
  </object>
  <object id="2" name="TileData" x="655.636" y="1.81818" width="16" height="16">
   <properties>
    <property name="NoSpawn" value="All"/>
   </properties>
  </object>
  <object id="3" name="TileData" x="639.636" y="17.8182" width="16" height="16">
   <properties>
    <property name="NoSpawn" value="All"/>
   </properties>
  </object>
  <object id="4" name="TileData" x="655.636" y="17.8182" width="16" height="16">
   <properties>
    <property name="NoSpawn" value="All"/>
   </properties>
  </object>
  <object id="5" name="TileData" x="639.636" y="33.8182" width="16" height="16">
   <properties>
    <property name="NoSpawn" value="All"/>
   </properties>
  </object>
  <object id="6" name="TileData" x="655.636" y="33.8182" width="16" height="16">
   <properties>
    <property name="NoSpawn" value="All"/>
   </properties>
  </object>
  <object id="7" name="TileData" x="639.636" y="49.8182" width="16" height="16">
   <properties>
    <property name="NoSpawn" value="All"/>
   </properties>
  </object>
  <object id="8" name="TileData" x="655.636" y="49.8182" width="16" height="16">
   <properties>
    <property name="NoSpawn" value="All"/>
   </properties>
  </object>
  <object id="9" name="TileData" x="639.636" y="65.8182" width="16" height="16">
   <properties>
    <property name="NoSpawn" value="All"/>
   </properties>
  </object>
  <object id="10" name="TileData" x="655.636" y="65.8182" width="16" height="16">
   <properties>
    <property name="NoSpawn" value="All"/>
   </properties>
  </object>
  <object id="11" name="TileData" x="543.636" y="81.8182" width="16" height="16">
   <properties>
    <property name="NoFurniture" value="total"/>
    <property name="NoSpawn" value="All"/>
   </properties>
  </object>
  <object id="12" name="TileData" x="639.636" y="81.8182" width="16" height="16">
   <properties>
    <property name="NoSpawn" value="All"/>
   </properties>
  </object>
  <object id="13" name="TileData" x="655.636" y="81.8182" width="16" height="16">
   <properties>
    <property name="NoSpawn" value="All"/>
   </properties>
  </object>
  <object id="14" name="TileData" x="543.636" y="97.8182" width="16" height="16">
   <properties>
    <property name="NoFurniture" value="total"/>
    <property name="NoSpawn" value="All"/>
   </properties>
  </object>
  <object id="15" name="TileData" x="639.636" y="97.8182" width="16" height="16">
   <properties>
    <property name="NPCBarrier" value="T"/>
    <property name="NoSpawn" value="All"/>
   </properties>
  </object>
  <object id="16" name="TileData" x="655.636" y="97.8182" width="16" height="16">
   <properties>
    <property name="NPCBarrier" value="T"/>
    <property name="NoSpawn" value="All"/>
   </properties>
  </object>
  <object id="17" name="TileData" x="543.636" y="113.818" width="16" height="16">
   <properties>
    <property name="NPCBarrier" value="T"/>
    <property name="NoSpawn" value="All"/>
   </properties>
  </object>
  <object id="18" name="TileData" x="767.636" y="113.818" width="16" height="16">
   <properties>
    <property name="NoSpawn" value="All"/>
   </properties>
  </object>
  <object id="19" name="TileData" x="527.636" y="129.818" width="16" height="16">
   <properties>
    <property name="NoSpawn" value="All"/>
   </properties>
  </object>
  <object id="20" name="TileData" x="543.636" y="129.818" width="16" height="16">
   <properties>
    <property name="NoSpawn" value="All"/>
   </properties>
  </object>
  <object id="21" name="TileData" x="559.636" y="129.818" width="16" height="16">
   <properties>
    <property name="NoSpawn" value="All"/>
   </properties>
  </object>
  <object id="22" name="TileData" x="527.636" y="145.818" width="16" height="16">
   <properties>
    <property name="NoSpawn" value="Tree"/>
   </properties>
  </object>
  <object id="23" name="TileData" x="543.636" y="145.818" width="16" height="16">
   <properties>
    <property name="NoSpawn" value="Tree"/>
   </properties>
  </object>
  <object id="24" name="TileData" x="559.636" y="145.818" width="16" height="16">
   <properties>
    <property name="NoSpawn" value="Tree"/>
   </properties>
  </object>
  <object id="25" name="TileData" x="1103.64" y="145.818" width="16" height="16">
   <properties>
    <property name="NoSpawn" value="All"/>
   </properties>
  </object>
  <object id="26" name="TileData" x="1103.64" y="161.818" width="16" height="16">
   <properties>
    <property name="Buildable" value="f"/>
   </properties>
  </object>
  <object id="27" name="TileData" x="1119.64" y="161.818" width="16" height="16">
   <properties>
    <property name="Buildable" value="f"/>
   </properties>
  </object>
  <object id="28" name="TileData" x="1135.64" y="161.818" width="16" height="16">
   <properties>
    <property name="Buildable" value="f"/>
   </properties>
  </object>
  <object id="29" name="TileData" x="1151.64" y="161.818" width="16" height="16">
   <properties>
    <property name="Buildable" value="f"/>
   </properties>
  </object>
  <object id="30" name="TileData" x="1103.64" y="177.818" width="16" height="16">
   <properties>
    <property name="Buildable" value="f"/>
   </properties>
  </object>
  <object id="31" name="TileData" x="1119.64" y="177.818" width="16" height="16">
   <properties>
    <property name="Buildable" value="f"/>
   </properties>
  </object>
  <object id="32" name="TileData" x="1135.64" y="177.818" width="16" height="16">
   <properties>
    <property name="Buildable" value="f"/>
   </properties>
  </object>
  <object id="33" name="TileData" x="1151.64" y="177.818" width="16" height="16">
   <properties>
    <property name="Buildable" value="f"/>
   </properties>
  </object>
  <object id="34" name="TileData" x="1103.64" y="193.818" width="16" height="16">
   <properties>
    <property name="Buildable" value="f"/>
   </properties>
  </object>
  <object id="35" name="TileData" x="1119.64" y="193.818" width="16" height="16">
   <properties>
    <property name="Buildable" value="f"/>
   </properties>
  </object>
  <object id="36" name="TileData" x="1135.64" y="193.818" width="16" height="16">
   <properties>
    <property name="Buildable" value="f"/>
   </properties>
  </object>
  <object id="37" name="TileData" x="1151.64" y="193.818" width="16" height="16">
   <properties>
    <property name="Buildable" value="f"/>
   </properties>
  </object>
  <object id="38" name="TileData" x="1103.64" y="209.818" width="16" height="16">
   <properties>
    <property name="Buildable" value="f"/>
   </properties>
  </object>
  <object id="39" name="TileData" x="1119.64" y="209.818" width="16" height="16">
   <properties>
    <property name="Buildable" value="f"/>
   </properties>
  </object>
  <object id="40" name="TileData" x="1135.64" y="209.818" width="16" height="16">
   <properties>
    <property name="Buildable" value="f"/>
   </properties>
  </object>
  <object id="41" name="TileData" x="1151.64" y="209.818" width="16" height="16">
   <properties>
    <property name="Buildable" value="f"/>
   </properties>
  </object>
  <object id="48" name="TileData" x="1247.64" y="289.818" width="16" height="16">
   <properties>
    <property name="NPCBarrier" value="T"/>
   </properties>
  </object>
  <object id="49" name="TileData" x="1263.64" y="289.818" width="16" height="16">
   <properties>
    <property name="NoSpawn" value="All"/>
   </properties>
  </object>
  <object id="50" name="TileData" x="1103.64" y="961.818" width="16" height="16">
   <properties>
    <property name="NPCBarrier" value="T"/>
   </properties>
  </object>
  <object id="51" name="TileData" x="623.636" y="993.818" width="16" height="16">
   <properties>
    <property name="NPCBarrier" value="T"/>
   </properties>
  </object>
  <object id="52" name="TileData" x="639.636" y="993.818" width="16" height="16">
   <properties>
    <property name="NPCBarrier" value="T"/>
    <property name="NoSpawn" value="All"/>
   </properties>
  </object>
  <object id="53" name="TileData" x="655.636" y="993.818" width="16" height="16">
   <properties>
    <property name="NPCBarrier" value="T"/>
    <property name="NoSpawn" value="All"/>
   </properties>
  </object>
  <object id="54" name="TileData" x="671.636" y="993.818" width="16" height="16">
   <properties>
    <property name="NPCBarrier" value="T"/>
   </properties>
  </object>
  <object id="55" name="TileData" x="623.636" y="1009.82" width="16" height="16">
   <properties>
    <property name="NoSpawn" value="All"/>
   </properties>
  </object>
  <object id="56" name="TileData" x="639.636" y="1009.82" width="16" height="16">
   <properties>
    <property name="NoSpawn" value="All"/>
   </properties>
  </object>
  <object id="57" name="TileData" x="655.636" y="1009.82" width="16" height="16">
   <properties>
    <property name="NoSpawn" value="All"/>
   </properties>
  </object>
  <object id="58" name="TileData" x="671.636" y="1009.82" width="16" height="16">
   <properties>
    <property name="NPCBarrier" value="T"/>
    <property name="NoSpawn" value="All"/>
   </properties>
  </object>
  <object id="59" name="TileData" x="639.636" y="1025.82" width="16" height="16">
   <properties>
    <property name="NoSpawn" value="All"/>
   </properties>
  </object>
  <object id="60" name="TileData" x="655.636" y="1025.82" width="16" height="16">
   <properties>
    <property name="NoSpawn" value="All"/>
   </properties>
  </object>
 </objectgroup>
 <objectgroup id="16" name="FarmTile">
  <object id="303" x="848" y="192.364" width="15.6364" height="16.1818"/>
  <object id="304" x="848" y="208.818" width="15.6364" height="15.4545"/>
  <object id="305" x="848" y="224.636" width="15.6364" height="15.0909"/>
  <object id="306" x="848" y="240.455" width="15.6364" height="15.0909"/>
  <object id="307" x="848" y="256.091" width="15.6364" height="15.4545"/>
  <object id="308" x="848" y="273" width="15.6364" height="15.4545"/>
  <object id="315" x="831.848" y="192.621" width="15.6364" height="16.1818"/>
  <object id="316" x="831.848" y="209.075" width="15.6364" height="15.4545"/>
  <object id="317" x="831.848" y="224.893" width="15.6364" height="15.0909"/>
  <object id="318" x="831.848" y="240.712" width="15.6364" height="15.0909"/>
  <object id="319" x="831.848" y="256.348" width="15.6364" height="15.4545"/>
  <object id="320" x="831.848" y="273.257" width="15.6364" height="15.4545"/>
  <object id="321" x="815.591" y="192.826" width="15.6364" height="16.1818"/>
  <object id="322" x="815.591" y="209.28" width="15.6364" height="15.4545"/>
  <object id="323" x="815.591" y="225.098" width="15.6364" height="15.0909"/>
  <object id="324" x="815.591" y="240.917" width="15.6364" height="15.0909"/>
  <object id="325" x="815.591" y="256.553" width="15.6364" height="15.4545"/>
  <object id="326" x="815.591" y="273.462" width="15.6364" height="15.4545"/>
  <object id="327" x="799.439" y="193.083" width="15.6364" height="16.1818"/>
  <object id="328" x="799.439" y="209.537" width="15.6364" height="15.4545"/>
  <object id="329" x="799.439" y="225.355" width="15.6364" height="15.0909"/>
  <object id="330" x="799.439" y="241.174" width="15.6364" height="15.0909"/>
  <object id="331" x="799.439" y="256.81" width="15.6364" height="15.4545"/>
  <object id="332" x="799.439" y="273.719" width="15.6364" height="15.4545"/>
  <object id="333" x="783.796" y="192.762" width="15.6364" height="16.1818"/>
  <object id="334" x="783.796" y="209.216" width="15.6364" height="15.4545"/>
  <object id="335" x="783.796" y="225.034" width="15.6364" height="15.0909"/>
  <object id="336" x="783.796" y="240.853" width="15.6364" height="15.0909"/>
  <object id="337" x="783.796" y="256.489" width="15.6364" height="15.4545"/>
  <object id="338" x="783.796" y="273.398" width="15.6364" height="15.4545"/>
  <object id="339" x="767.644" y="193.019" width="15.6364" height="16.1818"/>
  <object id="340" x="767.644" y="209.473" width="15.6364" height="15.4545"/>
  <object id="341" x="767.644" y="225.291" width="15.6364" height="15.0909"/>
  <object id="342" x="767.644" y="241.11" width="15.6364" height="15.0909"/>
  <object id="343" x="767.644" y="256.746" width="15.6364" height="15.4545"/>
  <object id="344" x="767.644" y="273.655" width="15.6364" height="15.4545"/>
  <object id="345" x="751.387" y="192.891" width="15.6364" height="16.1818"/>
  <object id="346" x="751.387" y="209.345" width="15.6364" height="15.4545"/>
  <object id="347" x="751.387" y="225.163" width="15.6364" height="15.0909"/>
  <object id="348" x="751.387" y="240.982" width="15.6364" height="15.0909"/>
  <object id="349" x="751.387" y="256.618" width="15.6364" height="15.4545"/>
  <object id="350" x="751.387" y="273.527" width="15.6364" height="15.4545"/>
  <object id="351" x="735.235" y="193.148" width="15.6364" height="16.1818"/>
  <object id="352" x="735.235" y="209.602" width="15.6364" height="15.4545"/>
  <object id="353" x="735.235" y="225.42" width="15.6364" height="15.0909"/>
  <object id="354" x="735.235" y="241.239" width="15.6364" height="15.0909"/>
  <object id="355" x="735.235" y="256.875" width="15.6364" height="15.4545"/>
  <object id="356" x="735.235" y="273.784" width="15.6364" height="15.4545"/>
  <object id="375" x="718.72" y="192.954" width="15.6364" height="16.1818"/>
  <object id="376" x="718.72" y="209.408" width="15.6364" height="15.4545"/>
  <object id="377" x="718.72" y="225.226" width="15.6364" height="15.0909"/>
  <object id="378" x="718.72" y="241.045" width="15.6364" height="15.0909"/>
  <object id="379" x="718.72" y="256.681" width="15.6364" height="15.4545"/>
  <object id="380" x="718.72" y="273.59" width="15.6364" height="15.4545"/>
  <object id="381" x="702.463" y="192.826" width="15.6364" height="16.1818"/>
  <object id="382" x="702.463" y="209.28" width="15.6364" height="15.4545"/>
  <object id="383" x="702.463" y="225.098" width="15.6364" height="15.0909"/>
  <object id="384" x="702.463" y="240.917" width="15.6364" height="15.0909"/>
  <object id="385" x="702.463" y="256.553" width="15.6364" height="15.4545"/>
  <object id="386" x="702.463" y="273.462" width="15.6364" height="15.4545"/>
  <object id="387" x="686.311" y="193.083" width="15.6364" height="16.1818"/>
  <object id="388" x="686.311" y="209.537" width="15.6364" height="15.4545"/>
  <object id="389" x="686.311" y="225.355" width="15.6364" height="15.0909"/>
  <object id="390" x="686.311" y="241.174" width="15.6364" height="15.0909"/>
  <object id="391" x="686.311" y="256.81" width="15.6364" height="15.4545"/>
  <object id="392" x="686.311" y="273.719" width="15.6364" height="15.4545"/>
 </objectgroup>
 <layer id="2" name="Buildings" width="80" height="65">
  <data encoding="csv">
1160,1161,1159,1160,1161,1137,1137,1250,0,0,1247,1253,1254,1247,1159,1160,1161,1174,1175,1176,1228,1229,1248,1199,1200,1201,1247,1196,1197,1253,1254,1175,1176,1250,1247,1199,1159,1160,1161,1540,0,0,1537,1137,0,0,0,1278,1279,1137,1137,1149,1150,1151,1137,1150,1196,1197,1142,1142,1171,1172,1159,1160,1161,1137,1137,1137,1137,1174,1175,1159,1160,1161,1137,1250,1137,1137,1137,1137,
1185,1186,1184,1185,1186,1137,1137,1137,0,1137,1353,1278,1279,1526,1184,1185,1186,1199,1200,1201,1253,1254,1526,1137,1225,1137,1353,0,1222,1278,1279,1200,1201,1526,1526,1353,1184,1185,1186,1515,0,0,1512,1209,1210,1137,1137,1137,1137,1137,1137,1174,1175,1176,1137,1175,1176,1222,1142,1142,1196,1197,1184,1185,1186,1137,1137,1137,1137,1199,1200,1184,1185,1186,1137,1137,1137,1137,1137,1137,
1137,0,0,1137,1137,1137,1137,0,0,0,1137,0,0,0,0,0,0,1224,1225,1137,1278,1279,1497,1137,1250,1137,1137,1137,1247,1137,1137,1225,1137,1137,1137,1137,1250,1209,1210,1540,0,0,1537,1234,1235,1137,1137,1417,1567,1591,1137,1137,1199,1201,1137,1200,1201,1247,1159,1160,1161,1222,1137,1137,1428,1378,1137,1137,1137,1353,1526,1378,1428,1137,1137,1137,1137,1142,1526,1137,
1135,1136,1137,1137,1376,1137,1375,1137,1137,1137,1137,1137,1353,1137,1137,1137,1375,1137,1250,1137,1137,1137,1353,1137,1137,1137,1137,1137,1137,1137,1137,1250,1137,1137,1137,1137,1137,1234,1235,1565,0,0,1562,1353,1137,1137,1417,1442,1613,1616,1617,1137,1137,1353,1137,1225,1428,1378,1184,1185,1186,1247,1137,1353,1137,1142,1137,1137,1137,1137,1250,1137,1425,1137,1137,1137,1137,1378,1264,1265,
1160,1161,1377,1353,1417,1588,1589,1588,1589,1588,1589,1588,1589,1588,1589,1588,1589,1588,1589,1588,1589,1588,1589,1567,1589,1588,1589,1567,1589,1588,1589,1588,1589,2754,2755,2756,1589,1567,1589,1590,0,0,1587,1567,1589,1567,1442,1467,1638,1641,1642,1643,1137,1137,1137,1250,1378,1137,1353,0,0,1137,1137,1137,1137,1137,1289,1290,1142,1137,1142,1142,1142,1137,1137,1137,1378,1428,1289,1290,
1185,1186,1375,1417,1442,1613,1614,3027,3028,3029,1614,1613,1568,1613,1614,1613,1614,1613,1614,1613,1568,1613,1614,1613,1614,1613,1614,1613,1614,1613,1568,1613,1614,2779,0,2781,1568,1613,1614,1615,0,0,1612,1613,1614,1613,1467,1517,1663,1666,1667,1668,1669,1137,1137,1482,1137,1137,1137,1289,1290,1137,1137,1137,1137,1137,1137,1137,1137,1137,1137,1137,1137,1137,1137,1137,1137,1137,1482,1137,
1473,1137,1415,1442,1467,1569,1639,3052,3053,3054,1639,1638,1639,1638,1639,1569,1639,1638,1639,1569,1639,1638,1639,1638,1639,1638,1639,1638,1639,1638,1639,1638,1639,2804,0,2806,1639,1638,1639,1640,0,0,1637,1638,1639,1467,1492,0,1956,0,1504,1505,1504,1505,1506,1507,1137,1137,1137,1137,1137,1137,1137,1137,1137,1137,1137,1137,1482,1137,1137,1137,1137,1137,1137,1137,1137,1137,1507,1137,
1448,1515,1440,1467,1517,1663,1664,3077,3078,3079,1664,1663,1664,1663,1664,1663,1664,1663,1664,1663,1664,1663,1664,1663,1664,1663,1664,1663,1664,1663,1664,1663,1664,2829,0,2831,1664,1663,1664,1665,0,0,1662,1663,1664,1665,0,0,0,0,0,0,0,0,0,1532,1137,1137,1137,1137,1137,1137,1137,1137,1137,1137,1137,1137,1532,1504,1505,1505,1506,1532,1250,1137,1137,1137,1532,1137,
1473,1540,1465,1492,0,0,0,0,0,0,0,0,0,0,0,0,0,0,0,0,0,0,0,0,0,0,3660,3661,3662,3663,3664,3665,3666,3667,0,0,0,0,0,0,0,0,0,0,0,0,0,0,0,0,0,0,0,0,0,1557,1250,1137,1137,1137,1137,1137,1137,1137,1137,1137,1137,1247,1557,0,0,0,0,1557,1137,1137,1137,1137,1507,1225,
1473,1515,1490,0,0,0,0,0,0,0,0,0,0,0,0,0,0,0,0,0,0,0,0,0,0,0,3718,3719,3720,3721,3722,3723,3724,3725,0,0,0,0,0,0,0,0,0,0,0,0,0,0,0,0,0,0,0,0,0,1504,1505,1505,1505,1505,1505,1506,1505,1505,1505,1505,1506,1505,1506,0,0,0,0,1504,1504,1505,1505,1506,1507,1250,
1473,1540,1515,0,0,0,0,0,0,0,0,0,0,0,0,0,0,0,0,0,0,0,0,0,0,0,3776,3777,3778,3779,3780,3781,3782,3783,0,0,0,0,0,0,0,0,0,0,0,0,0,0,0,0,0,0,0,0,0,0,0,0,0,0,0,0,0,0,0,0,0,0,0,0,0,0,0,0,0,0,0,0,1507,1137,
1473,1515,1540,0,0,0,0,0,0,0,0,0,0,0,0,0,0,0,0,0,0,0,0,0,0,0,3834,3835,3836,3837,3838,3839,3840,3841,0,0,0,0,0,0,0,0,0,0,0,0,0,0,0,0,0,0,0,0,0,0,0,0,0,0,0,0,0,0,0,0,0,0,0,0,0,0,0,0,0,0,0,0,1507,1250,
1473,1540,1515,0,0,0,0,0,0,0,0,0,0,0,0,0,0,0,0,0,0,0,0,0,0,0,3892,3893,3894,3895,3896,3897,3898,3899,0,0,0,0,0,0,0,0,0,0,0,0,0,0,0,0,0,0,0,0,0,0,0,0,0,0,0,0,0,0,0,0,0,0,0,0,0,0,0,0,0,0,0,0,1507,1378,
1378,1515,1540,0,0,0,0,0,0,0,0,0,0,0,0,0,0,0,0,0,0,0,0,0,0,0,3950,3951,3952,3953,3954,3955,3956,3957,0,0,0,0,0,0,0,0,0,0,0,0,0,0,0,0,0,0,0,0,0,0,0,0,0,4500,4501,4502,4503,4504,4505,4506,4507,4508,0,0,0,0,0,0,0,0,0,0,1532,1428,
1137,1540,1515,0,0,0,0,0,0,0,0,0,0,0,0,0,0,0,0,0,0,0,0,0,0,0,4008,4009,4010,4011,4012,4013,4014,4015,0,0,0,0,0,0,0,0,0,0,0,0,0,0,0,0,0,0,0,0,0,0,0,0,0,4558,4559,4560,4561,4562,4563,4564,4565,4566,0,0,0,0,0,0,0,0,0,0,1557,1504,
1498,1565,1515,0,0,0,0,0,0,0,0,0,0,0,0,0,0,0,0,0,0,0,0,0,0,0,4066,4067,4068,4069,4070,4071,4072,4073,0,0,0,0,0,0,0,0,0,0,0,0,0,0,0,0,0,0,0,0,0,0,0,0,0,4616,4617,4618,4619,4620,4621,4622,4623,4624,0,0,0,0,0,0,0,0,0,0,0,0,
1589,1590,1540,0,0,0,0,0,0,0,0,0,0,0,0,0,0,0,0,0,0,0,0,0,0,0,0,0,0,0,0,0,0,0,0,0,0,0,0,0,0,0,0,0,0,0,0,0,0,0,0,0,0,0,0,0,0,0,0,4674,4675,4676,4677,4678,4679,4680,4681,4682,0,0,0,0,0,0,0,0,0,0,0,0,
1614,1615,1515,0,0,0,0,0,0,0,0,0,0,0,0,0,0,0,0,0,0,0,0,0,0,0,0,0,0,0,0,0,0,0,0,0,0,0,0,0,0,0,0,0,0,0,0,0,0,0,0,0,0,0,0,0,0,0,0,0,0,0,0,0,0,0,0,0,0,0,0,0,0,0,0,0,0,0,0,0,
1639,1640,1540,0,0,0,0,0,0,0,0,0,0,0,0,0,0,0,0,0,0,0,0,0,0,0,0,0,0,0,0,0,0,0,0,0,0,0,0,0,0,0,1504,1504,1505,1505,1505,1504,1505,1505,1505,1504,1505,1505,1506,0,0,0,0,0,0,0,0,0,0,0,0,0,0,0,0,0,0,0,0,0,0,0,0,0,
1664,1665,1515,0,0,0,0,0,0,0,0,0,0,0,0,0,0,0,0,0,0,0,0,0,0,0,0,0,0,0,0,0,0,0,0,0,0,0,0,0,0,0,0,0,0,0,0,0,0,0,0,0,0,0,0,0,0,0,0,0,0,0,0,0,0,0,0,0,0,0,0,0,0,0,0,0,0,1507,1504,1505,
1137,1137,1540,0,0,0,0,0,0,0,0,0,0,0,0,0,0,0,0,0,0,0,0,0,0,0,0,0,0,0,0,0,0,0,0,0,0,0,0,0,0,0,0,0,0,0,0,0,0,0,0,0,0,0,0,0,0,0,0,0,0,0,0,0,0,0,0,0,0,0,0,0,0,0,0,0,0,1507,1137,1137,
1137,1137,1515,0,0,0,0,0,0,0,0,0,0,0,0,0,0,0,0,0,0,0,0,0,0,0,0,0,0,0,0,0,0,0,0,0,0,0,0,0,0,0,0,0,0,0,0,0,0,0,0,0,0,0,0,0,0,0,0,0,0,0,0,0,0,0,0,0,0,0,0,0,0,0,0,0,0,1507,1137,1137,
1137,1137,1533,0,0,0,0,0,0,0,0,0,0,0,0,0,0,0,0,0,0,0,0,0,0,0,0,0,0,0,0,0,0,0,0,0,0,0,0,0,0,0,0,0,0,0,0,0,0,0,0,0,0,0,0,0,0,0,0,0,0,0,0,0,0,0,0,0,0,0,0,0,0,0,0,0,0,1507,1137,1137,
1137,1428,1375,1296,1378,1375,1515,0,0,0,0,0,0,0,0,0,0,0,0,0,0,0,0,0,0,0,0,0,0,0,0,0,0,0,0,0,0,0,0,0,0,0,0,0,0,0,0,0,0,0,0,0,0,0,0,0,0,0,0,0,0,0,0,0,0,0,0,0,0,0,0,0,0,0,0,0,0,1507,1353,1137,
1137,1137,1137,1137,1137,1137,1540,0,0,0,0,0,0,0,0,0,0,0,0,0,0,0,0,0,0,0,0,0,0,0,0,0,0,0,0,0,0,0,0,0,0,0,0,0,0,0,0,0,0,0,0,0,0,0,0,0,0,0,0,0,0,0,0,0,0,0,0,0,0,0,0,0,0,0,0,0,0,1507,1428,1289,
1289,1290,1137,1137,1137,1137,1515,0,0,0,0,0,0,0,0,0,0,0,0,0,0,0,0,0,0,0,0,0,0,0,0,0,0,0,0,0,0,0,0,0,0,0,0,0,0,0,0,0,0,0,0,0,0,0,0,0,0,0,0,0,0,0,0,0,0,0,0,0,0,0,0,0,0,0,0,0,0,1507,1137,1378,
1428,1137,1137,1137,1137,1137,1540,0,0,0,0,0,0,0,0,0,0,0,0,0,0,0,0,0,0,0,0,0,0,0,0,0,0,0,0,0,0,0,0,0,0,0,0,0,0,0,0,0,0,0,0,0,0,0,0,0,0,0,0,0,0,0,0,0,0,0,0,0,0,0,0,0,0,0,0,0,0,1507,1137,1137,
1137,1137,1137,1428,0,1353,1515,0,0,0,0,0,0,0,0,0,0,0,0,0,0,0,0,0,0,0,0,0,0,0,0,0,0,0,0,0,0,0,0,0,0,0,0,0,0,0,0,0,0,0,0,0,0,0,0,0,0,0,0,0,0,0,0,0,0,0,0,0,0,0,0,0,0,0,0,0,0,1507,1137,1137,
1137,1137,1353,0,0,1378,1540,0,0,0,0,0,0,0,0,0,0,0,0,0,0,0,0,0,0,0,0,0,0,0,0,0,0,0,0,0,0,0,0,0,0,0,0,0,0,0,0,0,0,0,0,0,0,0,0,0,0,0,0,0,0,0,0,0,0,0,0,0,0,0,1304,1305,1332,1305,1306,0,0,1507,1137,1137,
1137,1137,1137,1289,1290,1137,1565,0,0,0,0,0,0,0,0,0,0,0,0,0,0,0,0,0,0,0,0,0,0,0,0,0,0,0,0,0,0,0,0,0,0,0,0,0,0,0,0,0,0,0,0,0,0,0,0,0,0,0,0,0,0,0,0,0,0,0,0,0,0,0,1329,2414,1330,1330,1405,1306,0,1507,1137,1353,
1428,1137,1137,1378,1137,1417,1590,0,0,0,0,0,0,0,0,0,0,0,0,0,0,0,0,0,0,0,0,0,0,0,0,0,0,0,0,0,0,0,0,0,0,0,0,0,0,0,0,0,0,0,0,0,0,0,0,0,0,0,0,0,0,0,0,0,0,0,0,0,0,0,899,0,0,0,0,1331,0,1507,1250,1137,
1137,1250,1137,1137,1417,1442,1615,0,0,0,0,0,0,0,0,0,0,0,0,0,0,0,0,0,0,0,0,0,0,0,0,0,0,0,0,0,0,0,0,0,0,0,0,0,0,0,0,0,0,0,0,0,0,0,0,0,0,0,0,0,0,0,0,0,0,0,0,0,0,0,931,0,0,0,0,1356,0,1507,1137,1137,
1555,1137,1375,1417,1442,1467,1640,0,0,0,0,0,0,0,0,0,0,0,0,0,0,0,0,0,0,0,0,0,0,0,0,0,0,0,0,0,0,0,0,0,0,0,0,0,0,0,0,0,0,0,0,0,0,0,0,0,0,0,0,0,0,0,0,0,0,0,0,0,0,0,1379,1429,0,2414,1430,1381,0,1507,1137,1137,
1137,1137,1415,1442,1467,1517,1665,0,0,0,0,0,0,0,0,0,0,0,0,0,0,0,0,0,0,0,0,0,0,0,0,0,0,0,0,0,0,0,0,0,0,0,0,0,0,0,0,0,0,0,0,0,0,0,0,0,0,0,0,0,0,0,0,0,0,0,0,0,0,0,0,1379,1380,1380,1381,0,0,1507,1137,1137,
1378,1565,1440,1467,1492,0,0,0,0,0,0,0,0,0,0,0,0,0,0,0,0,0,0,0,0,0,0,0,0,0,0,0,0,0,0,0,0,0,0,0,0,0,0,0,0,0,0,0,0,0,0,0,0,0,0,0,0,0,0,0,0,0,0,0,0,0,0,0,0,0,0,0,0,0,0,0,0,1507,1378,1222,
1589,1590,1465,1492,0,0,0,0,0,0,0,0,0,0,0,0,0,0,0,0,0,0,0,0,0,0,0,0,0,0,0,0,0,0,0,0,0,0,0,0,0,0,0,0,0,0,0,0,0,0,0,0,0,0,0,0,0,0,0,0,0,0,0,0,0,0,0,0,0,0,0,0,0,0,0,0,0,1507,1378,1247,
1614,1615,1490,0,0,0,0,0,0,0,0,0,0,0,0,0,0,0,0,0,0,0,0,0,0,0,0,0,0,0,0,0,0,0,0,0,0,0,0,0,0,0,0,0,0,0,0,0,0,0,0,0,0,0,0,0,0,0,0,0,0,0,0,0,0,0,0,0,0,0,0,0,0,0,0,0,0,1507,1428,1378,
1639,1640,1515,0,0,0,0,0,0,0,0,0,0,0,0,0,0,0,0,0,0,0,0,0,0,0,0,0,0,0,0,0,0,0,0,0,0,0,0,0,0,0,0,0,0,0,0,0,0,0,0,0,0,0,0,0,0,0,0,0,0,0,0,0,0,0,0,0,0,0,0,0,0,0,0,0,0,1507,1137,1353,
1664,1665,1540,0,0,0,0,0,0,0,0,0,0,0,0,0,0,0,0,0,0,0,0,0,0,0,0,0,0,0,0,0,0,0,0,0,0,0,0,0,0,0,0,0,0,0,0,0,0,0,0,0,0,0,0,0,0,0,0,0,0,0,0,0,0,0,0,0,0,0,0,0,0,0,0,0,0,1507,1353,1137,
1472,1448,1515,0,0,0,0,0,0,0,0,0,0,0,0,0,0,0,0,0,0,0,0,0,0,0,0,0,0,0,0,0,0,0,0,0,0,0,0,0,0,0,0,0,0,0,0,0,0,0,0,0,0,0,0,0,0,0,0,0,0,0,0,0,0,0,0,0,0,0,0,0,0,0,0,0,0,1507,1137,1137,
1477,1137,1540,0,0,0,0,0,0,0,0,0,0,0,0,0,0,0,0,0,0,0,0,0,0,0,0,0,0,0,0,0,0,0,0,0,0,0,0,0,0,0,0,0,0,0,0,0,0,0,0,0,0,0,0,0,0,0,0,0,0,0,0,0,0,0,0,0,0,0,0,0,0,0,0,0,0,1507,1137,1137,
1502,1137,1515,0,0,0,0,0,0,0,0,0,0,0,0,0,0,0,0,0,0,0,0,0,0,0,0,0,0,0,0,0,0,0,0,0,0,0,0,0,0,0,0,0,0,0,0,0,0,0,0,0,0,0,0,0,0,0,0,0,0,0,0,0,0,0,0,0,0,0,0,0,0,0,0,0,0,1507,1137,1137,
1353,1137,1540,0,0,0,0,0,0,0,0,0,0,0,0,0,0,0,0,0,0,0,0,0,0,0,0,0,0,0,0,0,0,0,0,0,0,0,0,0,0,0,0,0,0,0,0,0,0,0,0,0,0,0,0,0,0,0,0,0,0,0,0,0,0,0,0,0,0,0,0,0,0,0,0,0,0,1507,1137,1137,
1137,1137,1515,0,0,0,0,0,0,0,0,0,0,0,0,0,0,0,0,0,0,0,0,0,0,0,0,0,0,0,0,0,0,0,0,0,0,0,0,0,0,0,0,0,0,0,0,0,0,0,0,0,0,0,0,0,0,0,0,0,0,0,0,0,0,0,0,0,0,0,0,0,0,0,0,0,0,1507,1353,1137,
1137,1137,1540,0,0,0,0,0,0,0,0,0,0,0,0,0,0,0,0,0,0,0,0,0,0,0,0,0,0,0,0,0,0,0,0,0,0,0,0,0,0,0,0,0,0,0,0,0,0,0,0,0,0,0,0,0,0,0,0,0,0,0,0,0,0,0,0,0,0,0,0,0,0,0,0,0,0,1507,1428,1135,
1137,1137,1515,0,0,0,0,0,0,0,0,0,0,0,0,0,0,0,0,0,0,0,0,0,0,0,0,0,0,0,0,0,0,0,0,0,0,0,0,0,0,0,0,0,0,0,0,0,0,0,0,0,0,0,0,0,0,0,0,0,0,0,0,0,0,0,0,0,0,0,0,0,0,0,0,0,0,1507,1159,1160,
1136,1137,1540,0,0,0,0,0,0,0,0,0,0,0,0,0,0,0,0,0,0,0,0,0,0,0,0,0,0,0,0,0,0,0,0,0,0,0,0,0,0,0,0,0,0,0,0,0,0,0,0,0,0,0,0,0,0,0,0,0,0,0,0,0,0,0,0,0,0,0,0,0,0,0,0,0,0,1507,1184,1185,
1161,1137,1515,0,0,0,0,0,0,0,0,0,0,0,0,0,0,0,0,0,0,0,0,0,0,0,0,0,0,0,0,0,0,0,0,0,0,0,0,0,0,0,0,0,0,0,0,0,0,0,0,0,0,0,0,0,0,0,0,0,0,0,0,0,0,0,0,0,0,0,0,0,0,0,0,0,0,1507,1137,1137,
1186,1137,1540,0,0,0,0,0,0,0,0,0,0,0,0,0,0,0,0,0,0,0,0,0,0,0,0,0,0,0,0,0,0,0,0,0,0,0,0,0,0,0,0,0,0,0,0,0,0,0,0,0,0,0,0,0,0,0,0,0,0,0,0,0,0,0,0,0,0,0,0,0,0,0,0,0,0,1507,1137,1137,
1296,1296,1515,0,0,0,0,0,0,0,0,0,0,0,0,0,0,0,0,0,0,0,0,0,0,0,0,0,0,0,0,0,0,0,0,0,1304,1305,1332,1305,1332,1305,961,0,0,0,0,0,0,0,0,0,0,0,0,0,0,0,0,0,0,0,0,0,0,0,0,0,0,0,0,0,0,0,0,0,0,1507,1428,1378,
1296,1296,1540,0,0,0,0,0,0,0,0,0,0,0,0,0,0,0,0,0,0,0,0,0,0,0,0,0,0,0,0,0,0,0,0,898,1404,2414,1330,1330,1330,1330,977,978,0,0,0,0,0,0,0,0,0,0,0,0,0,0,0,0,0,0,0,0,0,0,0,0,0,0,0,0,0,0,0,0,0,1507,1137,1353,
1296,1296,1515,0,0,0,0,0,0,0,0,0,0,0,0,0,0,0,0,0,0,0,0,0,0,0,0,0,0,0,0,0,0,0,913,914,0,0,0,0,0,0,0,1405,1305,1306,0,0,0,0,0,0,0,0,0,0,0,0,0,0,0,0,0,0,0,0,0,0,0,0,0,0,0,0,0,0,0,1507,1137,1137,
1472,1137,1540,0,0,0,0,0,0,0,0,0,0,0,0,0,0,0,0,0,0,0,0,0,0,0,0,0,0,0,0,0,0,1304,1404,0,0,0,0,0,0,0,0,0,2414,1405,1306,0,0,0,0,0,0,0,0,0,0,0,0,0,0,0,0,0,0,0,0,0,0,0,0,0,0,0,0,0,0,1507,1137,1378,
1137,1428,1515,0,0,0,0,0,0,0,0,0,0,0,0,0,0,0,0,0,0,0,0,0,0,0,0,0,0,0,0,0,0,1329,0,0,0,0,0,0,0,0,0,0,0,0,1331,0,0,0,0,0,0,0,0,0,0,0,0,0,0,0,0,0,0,0,0,0,0,0,0,0,0,0,0,0,0,1507,1137,1137,
1137,1378,1540,0,0,0,0,0,0,0,0,0,0,0,0,0,0,0,0,0,0,0,0,0,0,0,0,0,0,0,0,0,0,1379,1429,0,0,0,0,0,0,0,0,0,0,0,1356,0,0,0,0,0,0,0,0,0,0,0,0,0,0,0,0,0,0,0,0,0,0,0,0,0,0,0,0,0,0,1532,1137,1428,
1378,1402,1515,0,0,0,0,0,0,0,0,0,0,0,0,0,0,0,0,0,0,0,0,0,0,0,0,0,0,0,0,0,0,0,1354,0,0,0,0,0,0,0,0,0,0,1430,1381,0,0,0,0,0,0,0,0,0,0,0,0,0,0,0,0,0,0,0,0,0,0,0,0,0,0,0,0,0,0,1557,1535,1535,
1137,1427,1540,0,0,0,0,0,0,0,0,0,0,0,0,0,0,0,0,0,0,0,0,0,0,0,0,0,0,0,0,0,0,0,1379,1380,1429,2439,0,0,0,0,0,0,1430,1381,0,0,0,0,0,0,0,0,0,0,0,0,0,0,0,0,0,0,0,0,0,0,0,0,0,0,0,1512,1446,1353,1428,1137,1247,1137,
1135,1452,1515,0,0,0,0,0,0,0,0,0,0,0,0,0,0,0,0,0,0,0,0,0,0,0,0,0,0,0,0,0,0,0,0,0,1379,1429,2414,0,0,1430,1025,1027,1381,0,0,0,0,0,0,0,0,0,0,0,0,0,0,0,0,0,0,0,0,0,0,0,0,0,0,0,0,1537,1378,1428,1378,1137,1353,1378,
1160,1161,1540,0,0,0,0,0,0,0,0,0,0,0,0,0,0,0,0,0,0,0,0,0,0,0,0,0,0,0,0,0,0,0,0,0,0,1379,1025,1026,1027,1381,0,0,0,0,0,0,0,0,0,0,0,0,0,0,0,0,0,0,0,0,0,0,0,0,0,0,0,0,0,0,0,1536,1137,1137,1137,1378,1137,1137,
1185,1186,1515,0,0,0,0,0,0,0,0,0,0,0,0,0,0,0,0,0,0,0,0,0,0,0,0,0,0,0,0,0,0,0,0,0,0,0,0,0,0,0,0,0,0,0,0,0,0,0,0,0,0,0,0,0,0,0,0,0,0,0,0,0,0,0,0,0,0,1512,1296,1296,1448,1415,1416,1588,1589,1588,1411,1412,
1296,1296,1540,0,0,0,0,0,0,0,0,0,0,0,0,0,0,0,0,0,0,0,0,0,0,0,0,0,0,0,0,0,0,0,0,0,0,0,0,0,0,0,0,0,0,0,0,0,0,0,0,0,0,0,0,0,0,0,0,0,0,0,0,0,0,0,0,0,0,1512,1137,1137,1250,1440,1614,1613,1614,1613,1614,1437,
1501,1296,1533,0,0,0,0,0,0,0,0,0,0,0,0,0,0,0,0,0,0,0,0,0,0,0,0,0,0,0,0,0,0,0,0,0,0,0,0,0,0,0,0,0,0,0,0,0,0,0,0,0,0,0,0,0,0,0,0,0,0,0,0,0,0,0,0,0,0,1536,1296,1137,1296,1465,1639,1638,1639,1638,1639,1437,
1501,1499,0,1296,1296,1296,1296,1296,1296,1296,1296,1482,1296,1296,1296,1296,1378,1296,1296,1296,1296,1353,1296,1296,1428,1378,1296,1353,1296,1296,1296,1296,1296,1353,1296,1296,1296,1296,1296,1515,0,0,1512,1446,1447,1447,1447,1447,1447,1447,1447,1353,1378,1296,1296,1296,1296,1296,1296,1378,1353,1296,1296,1296,1296,1447,1378,1296,1447,1137,1353,1137,1296,1490,1664,1663,1664,1663,1664,1462,
1137,1137,1507,1504,1505,1505,1505,1505,1506,1505,1506,1507,1475,1353,1476,1476,1476,1476,1476,1476,1476,1476,1476,1476,1476,1476,1476,1476,1476,1476,1476,1476,1476,1476,1476,1476,1476,1296,1296,1540,0,0,1537,1137,1137,1137,1137,1378,1137,1137,1137,1428,1137,1137,1137,1137,1137,1137,1137,1134,1135,1136,1137,1137,1137,1353,1137,1137,1137,1137,1296,1137,1137,1137,1137,1304,1305,1306,1137,1512,
1137,1137,1532,1137,1137,1137,1137,1137,1137,1137,1137,1532,1501,1501,1501,1501,1501,1501,1501,1501,1501,1501,1501,1501,1501,1501,1501,1501,1501,1501,1501,1501,1501,1501,1501,1501,1501,1137,1137,1540,0,0,1512,1137,1137,1137,1137,1137,1137,1378,1137,1137,1137,1428,1137,1137,1137,1137,1428,1159,1160,1161,1137,1137,1137,1428,1137,1137,1137,1137,1296,1425,1296,1540,1304,1404,1330,1405,1306,1537
</data>
 </layer>
 <objectgroup id="9" name="Buildings">
  <object id="76" name="TileData" x="130" y="125" width="16" height="16">
   <properties>
    <property name="Action" value="Message &quot;Farm.1&quot;"/>
   </properties>
  </object>
 </objectgroup>
 <layer id="3" name="Paths" width="80" height="65">
  <data encoding="csv">
0,0,0,0,0,0,0,0,0,0,0,0,0,0,0,0,0,0,0,0,0,0,0,0,0,0,0,0,0,0,0,0,0,0,0,0,0,0,0,0,0,0,0,0,0,0,0,0,0,0,0,0,0,0,0,0,0,0,0,0,0,0,0,0,0,0,0,0,0,0,0,0,0,0,0,0,0,0,0,0,
0,0,0,0,0,0,0,0,0,0,0,0,0,0,0,0,0,0,0,0,0,0,0,0,0,0,0,0,0,0,0,0,0,0,0,0,0,0,0,0,0,0,0,0,0,0,0,0,0,0,0,0,0,0,0,0,0,0,0,0,0,0,0,0,0,0,0,0,0,0,0,0,0,0,0,0,0,0,0,0,
0,0,0,0,0,0,0,0,0,0,0,0,0,0,0,0,0,0,0,0,0,0,0,0,0,0,0,0,0,0,0,0,0,0,0,0,0,0,0,0,0,0,0,0,0,0,0,0,0,0,0,0,0,0,0,0,0,0,0,0,0,0,0,0,0,0,0,0,0,0,0,0,0,0,0,0,0,0,0,0,
0,0,0,0,0,0,0,0,0,0,0,0,0,0,0,0,0,0,0,0,0,0,0,0,0,0,0,0,0,0,0,0,0,0,0,0,0,0,0,0,0,0,0,0,0,0,0,0,0,0,0,0,0,0,0,0,0,0,0,0,0,0,0,0,0,0,0,0,0,0,0,0,0,0,0,0,0,0,0,0,
0,0,0,0,0,0,0,0,0,0,0,0,0,0,0,0,0,0,0,0,0,0,0,0,0,0,0,0,0,0,0,0,0,0,0,0,0,0,0,0,0,0,0,0,0,0,0,0,0,0,0,0,0,0,0,0,0,0,0,0,0,0,0,0,0,0,0,0,0,0,0,0,0,0,0,0,0,0,0,0,
0,0,0,0,0,0,0,0,0,0,0,0,0,0,0,0,0,0,0,0,0,0,0,0,0,0,0,0,0,0,0,0,0,0,0,0,0,0,0,0,0,0,0,0,0,0,0,0,0,0,0,0,0,0,0,0,0,0,0,0,0,0,0,0,0,0,0,0,0,0,0,0,0,0,0,0,0,0,0,0,
0,0,0,0,0,0,0,0,0,0,0,0,0,0,0,0,0,0,0,0,0,0,0,0,0,0,0,0,0,0,0,0,0,0,0,0,0,0,0,0,0,0,0,0,0,0,0,1348,1348,3186,0,0,0,0,0,0,0,0,0,0,0,0,0,0,0,0,0,0,0,0,0,0,0,0,0,0,0,0,0,0,
0,0,0,0,0,0,0,0,0,0,0,0,0,0,0,0,0,0,0,0,0,0,0,0,0,0,0,0,0,0,0,0,0,0,0,0,0,0,0,0,0,0,0,0,0,0,1348,0,0,1348,1348,0,0,0,0,0,0,0,0,0,0,0,0,0,0,0,0,0,0,0,0,0,0,0,0,0,0,0,0,0,
0,0,0,0,0,0,0,0,0,0,3178,3177,0,3174,0,3177,0,0,0,3174,0,3178,0,0,3174,0,1348,1348,1348,1348,1348,1348,1348,1348,0,0,3174,0,3177,3178,3174,0,3178,3177,0,3174,1348,0,3170,0,0,1348,1348,0,0,0,1250,0,0,0,0,0,0,0,0,0,0,0,0,0,0,0,0,0,0,0,0,0,0,0,
0,0,0,0,3178,0,3174,0,0,0,0,0,0,3178,3177,0,0,0,0,0,0,0,0,0,1348,1348,1348,1348,1348,1348,1348,1348,1348,1348,1348,1348,0,0,3177,0,3175,0,3176,0,0,0,1348,0,0,0,3177,0,0,1348,0,0,0,0,0,0,0,0,0,0,0,0,0,0,0,0,0,0,0,0,0,0,0,0,0,0,
0,0,0,0,3173,0,3177,0,3169,0,0,0,0,0,0,1348,1348,1348,1348,3177,3178,1348,1348,0,0,0,0,0,0,0,0,0,0,0,0,1348,1348,0,0,3173,0,3183,0,3177,0,3170,1348,3176,0,3178,0,0,3173,0,1348,0,0,0,0,0,0,0,0,0,0,0,0,0,0,0,0,0,0,0,0,0,0,0,0,0,
0,0,0,3174,0,0,0,0,0,0,0,0,0,0,0,0,3178,0,0,1348,1348,0,0,0,0,0,0,0,0,0,0,0,0,0,0,1348,1348,3173,0,0,0,0,0,0,0,0,0,0,0,0,0,0,0,0,0,1298,0,0,0,0,0,0,0,0,0,0,0,0,0,0,0,0,0,0,0,0,0,0,0,0,
0,0,0,0,0,0,3178,0,3173,0,0,3177,0,1348,0,0,0,0,0,0,0,0,0,0,0,0,0,0,0,0,0,0,0,0,0,1348,1348,0,0,0,0,0,0,0,0,0,0,0,0,0,0,0,0,0,0,0,1298,0,0,0,0,0,0,0,0,0,0,0,0,0,0,0,0,0,0,0,0,0,0,0,
0,0,0,0,0,3177,0,0,3177,0,3178,0,1348,0,0,1348,1348,3177,0,0,1348,1348,0,0,0,0,0,0,0,0,0,0,0,0,0,1348,3173,0,3175,0,0,0,0,0,0,0,0,0,0,0,0,0,0,0,0,3174,0,1298,0,0,0,0,0,0,0,0,0,0,0,0,0,0,0,0,0,0,0,0,0,0,
0,0,0,0,3178,3177,0,0,0,0,0,3173,1348,0,1348,0,0,0,3178,0,0,1348,3177,0,0,0,0,0,0,0,0,0,0,0,1348,1348,0,0,0,3173,0,3175,0,0,0,0,0,0,0,0,0,0,0,0,0,0,0,1348,0,0,0,0,0,0,0,0,0,0,0,0,0,0,0,0,0,0,0,0,0,0,
0,0,0,0,0,0,0,0,0,3178,0,1348,0,1348,3178,3177,0,0,0,0,0,0,1348,0,0,0,0,0,0,0,0,0,1348,1348,0,1348,3175,3178,0,0,3173,0,0,0,0,0,0,0,0,0,0,0,0,0,0,1348,1348,1348,0,0,0,0,0,0,0,0,0,0,0,0,0,0,0,0,0,0,0,0,0,0,
0,0,0,0,3173,3177,0,0,0,3170,1348,0,1348,3173,0,0,0,3178,1348,0,0,0,1348,0,0,0,0,0,0,0,1348,1348,0,0,1348,3174,0,0,3176,0,0,0,0,0,0,0,0,0,0,0,0,0,0,0,0,0,1348,1348,1349,0,0,0,0,0,0,0,0,0,0,0,0,0,0,0,0,0,0,0,0,0,
0,0,0,3174,0,0,0,0,0,0,0,0,1348,0,0,0,0,3177,1348,1348,0,0,0,0,3178,0,0,0,1348,1348,0,0,0,0,1348,0,0,3173,0,3173,3174,0,0,0,0,0,0,0,0,0,0,0,0,0,0,1348,0,0,0,1322,1322,0,0,0,0,0,0,0,0,0,0,0,0,0,0,0,0,0,0,0,
0,0,0,0,0,0,0,0,3177,3173,0,0,0,0,0,0,0,0,0,0,0,1348,1348,0,0,0,1348,1348,0,0,0,3175,0,1348,0,0,0,0,0,0,0,0,0,0,0,0,0,0,0,0,0,0,0,0,0,0,3183,0,3173,0,0,1348,0,0,0,0,0,0,0,0,0,0,0,0,0,0,0,0,0,0,
0,0,0,0,3173,0,3169,0,0,0,0,0,0,0,0,0,0,0,1348,0,0,0,0,0,0,0,0,0,0,3177,0,0,3178,1348,0,0,0,0,0,0,3177,3173,0,3174,0,0,0,0,0,0,1328,0,3174,1348,1348,1348,1348,1348,1348,1348,1348,1348,1348,1348,1348,1348,1348,1348,1348,1348,1348,0,0,0,3177,0,0,0,0,0,
0,0,0,0,0,0,0,0,3177,0,0,0,0,1327,0,0,0,1348,0,0,0,1348,1348,1348,0,0,0,0,0,0,3173,0,3173,1348,1348,0,3178,0,0,3173,0,0,0,3177,1348,1348,0,0,0,0,0,0,0,0,1348,1348,1348,1348,1348,1348,1348,1348,1348,1348,1348,1348,1348,1348,1348,1348,1348,0,3183,0,0,0,0,0,0,0,
0,0,0,0,0,3177,0,0,0,0,0,0,0,1327,0,0,1348,0,0,1348,1348,1348,1327,0,0,3173,0,3177,3178,0,0,0,0,0,0,0,1348,1348,1348,1348,1348,1348,1348,1348,3173,0,0,3175,0,0,1348,3174,3173,0,0,0,0,0,0,3177,0,0,3173,0,0,0,0,1348,1348,0,0,3174,0,3175,3173,0,0,0,0,0,
0,0,0,0,0,0,0,0,0,0,0,1348,0,0,0,0,0,0,0,0,0,0,1348,0,0,3178,0,0,0,0,0,0,0,0,0,0,0,3174,0,0,3177,0,0,0,0,3178,0,1348,0,0,0,0,3175,0,3175,0,0,0,0,0,3183,3177,0,0,0,0,0,0,0,1348,1348,0,3173,0,3177,0,3173,0,0,0,
0,0,0,0,0,0,0,0,3178,0,0,0,0,0,0,0,0,0,1348,0,1348,0,0,0,3177,0,0,0,0,0,3178,0,0,3177,0,0,0,0,0,3173,0,0,0,1348,1348,1348,1348,1348,0,0,1348,1348,1348,1348,1348,1348,1348,1348,0,0,0,1348,1348,0,0,0,0,0,3174,0,3170,1348,1348,0,0,3178,0,0,0,0,
0,0,0,0,0,0,0,0,0,0,0,0,0,0,0,0,1348,0,0,0,0,0,0,0,3177,0,0,1327,0,0,0,1327,0,0,0,0,0,0,0,0,3173,1348,1348,1348,1348,1348,0,0,3173,0,3178,0,3178,0,0,0,0,0,1348,0,3173,3177,0,1348,1348,0,0,0,0,0,0,1348,1348,1348,0,0,0,0,0,0,
0,0,0,0,0,0,0,3173,0,0,0,0,0,0,1327,0,0,1348,0,0,1348,0,0,0,0,0,0,0,0,0,0,0,0,0,0,0,0,1348,1348,1348,1348,1348,1348,0,0,0,0,0,0,0,0,0,0,3173,0,0,0,1348,0,0,0,0,0,0,0,0,0,0,1348,1348,1348,0,3177,0,0,3173,0,0,0,0,
0,0,0,0,0,0,0,0,3173,0,3177,0,0,0,0,1348,1348,3178,0,0,0,0,1348,1348,1348,1348,1348,0,0,0,0,0,0,0,0,0,1348,1348,3173,0,1348,0,3176,0,3173,0,0,0,0,0,0,0,0,0,0,3173,0,1348,0,0,0,0,0,0,3177,0,3173,0,0,0,3177,0,0,0,0,0,3173,0,0,0,
0,0,0,0,0,0,0,0,3177,3173,0,0,0,0,0,0,3173,3177,0,0,0,0,0,3173,0,0,0,0,0,0,0,0,0,0,0,0,0,1348,1348,1348,1348,1348,1348,3169,3177,0,0,3174,0,0,3173,0,0,0,0,0,1348,0,3174,0,0,0,0,0,0,0,0,3175,0,0,0,3173,0,1348,1348,1348,1348,0,0,0,
0,0,0,0,0,0,0,0,0,3178,0,0,0,0,0,0,0,0,0,0,0,0,0,0,0,3173,0,3178,0,0,0,0,0,0,0,0,0,3173,0,1348,0,1348,0,0,0,3177,0,0,0,0,0,0,0,0,0,0,0,0,0,0,3173,0,0,0,0,3178,3177,0,1348,1348,1348,1348,1348,1348,1554,0,3177,0,0,0,
0,0,0,0,0,0,0,0,3177,0,0,0,0,0,0,3177,0,0,3177,0,0,0,0,3171,0,0,3173,0,0,0,0,0,0,0,0,0,0,0,1348,0,0,1348,0,3177,3173,0,0,0,0,0,3174,3178,0,0,0,0,0,3178,0,3173,0,0,0,1348,1348,1348,1348,1348,1348,3173,1304,0,0,0,0,0,0,0,0,0,
0,0,0,0,0,0,0,0,0,0,0,0,3173,0,0,0,0,0,0,3173,0,0,0,0,0,0,0,0,3173,3177,0,3174,0,0,0,0,1348,1348,0,3175,0,1348,0,0,0,3169,3177,0,3175,0,0,0,0,1348,0,0,0,1348,1348,1348,1348,0,0,1348,1348,1348,1348,0,0,0,0,0,0,0,0,0,0,0,0,0,
0,0,0,0,0,0,0,3178,0,3169,0,0,0,0,0,0,0,0,0,1352,0,0,3173,0,0,0,0,0,0,3173,0,3178,0,3173,3171,1348,0,0,0,0,3174,1348,0,3174,0,0,0,0,0,0,0,0,1348,0,0,1348,1348,1348,1348,1348,1348,0,0,3173,0,3174,0,0,0,3178,0,0,0,0,0,0,3173,0,0,0,
0,0,0,0,0,0,0,3177,0,0,0,0,0,0,0,0,0,0,0,0,0,0,0,0,0,0,0,3177,0,0,0,0,0,0,1348,0,1352,0,0,0,0,1348,0,0,0,0,3173,3178,0,0,0,1348,0,0,1348,1348,1348,1348,1348,1348,1348,0,1348,1348,1348,1348,1348,1348,1348,1348,1380,2351,2350,0,0,0,0,0,0,0,
0,0,0,0,0,0,0,0,3177,0,0,1328,0,0,0,0,0,0,0,0,0,0,3177,0,3178,0,0,0,0,3183,3178,3173,0,1348,1348,0,0,0,0,3174,0,1348,0,0,0,0,3174,0,0,0,0,0,0,3177,3173,3178,0,0,3173,0,0,3175,0,0,0,0,3173,3177,0,3183,3174,0,0,1380,1380,1348,1348,1507,0,0,
0,0,0,0,0,0,1328,3176,0,0,0,0,0,0,0,0,0,0,0,0,0,0,0,0,0,0,0,0,3177,0,0,0,3177,0,1348,1348,1348,1348,0,0,0,1348,0,0,0,3177,0,3173,0,0,0,3177,3178,0,0,0,0,3173,0,0,0,3177,0,3174,0,0,0,0,3173,0,0,3173,0,0,3174,0,0,0,1296,1222,
0,0,0,0,0,0,0,0,0,0,0,0,0,0,3174,3177,0,0,0,0,0,0,3177,0,3174,0,0,0,0,3177,0,3183,0,0,1348,1348,1348,0,0,0,0,1348,0,3177,0,3173,0,0,0,0,0,0,0,0,0,0,0,0,0,0,3178,3183,0,0,0,0,3177,0,0,3183,0,0,0,0,0,3174,0,0,1296,1247,
0,0,0,3173,0,0,3176,0,0,0,0,0,0,0,0,0,0,3171,0,1352,0,0,0,3174,0,3174,0,0,0,0,0,0,0,0,1348,1348,1348,1352,0,0,3178,1348,0,0,0,0,0,0,3177,3173,0,3173,1348,1348,1348,0,0,0,0,1348,1348,0,3173,0,0,3177,0,1708,0,3178,3177,3173,0,0,3183,1348,1348,1507,0,0,
0,0,0,0,3174,0,0,0,0,0,0,0,0,0,0,0,0,0,0,0,3176,0,3174,0,0,0,3174,3174,0,0,0,0,0,4733,4732,4733,4733,1352,0,0,1348,1348,3171,0,0,1348,1348,0,3173,1348,1348,1348,1276,4732,1276,4733,4733,1276,4733,4733,1276,1348,1348,3178,3173,0,0,0,0,0,0,0,1348,1348,1348,3174,0,0,0,0,
0,0,0,3173,0,0,0,0,0,0,0,0,0,0,0,1328,0,0,0,0,0,0,0,0,0,0,3177,0,0,0,0,0,4733,4733,4733,4733,4732,4733,4733,0,1348,1348,1348,1348,1348,1348,1348,1348,1348,1276,1276,4732,1276,1276,1276,4733,4733,4733,4733,4733,1276,1276,1276,0,0,3173,0,3173,3178,1348,1348,1348,0,1348,1348,1348,1348,1507,0,0,
0,0,0,0,0,0,0,0,0,0,0,0,0,0,0,0,0,0,0,0,0,0,0,0,0,3177,0,0,0,0,4733,4733,4736,4732,4732,4733,4732,4732,4733,4733,0,1327,0,0,0,0,1348,1348,1276,1276,1276,4732,4732,4734,4732,4732,4733,4736,4736,4733,1276,1276,1276,1276,1276,0,1348,1348,1348,1348,1348,1348,1348,0,1348,1348,1348,0,0,0,
0,0,0,3176,0,0,0,3174,0,0,0,0,3176,0,3177,3177,1328,0,0,0,0,0,0,0,0,0,3174,0,0,0,4732,4732,4733,4736,4736,4733,4733,4736,4733,4736,1348,1348,1348,1348,1348,1327,0,0,0,1276,4732,4736,4736,4733,4734,4734,4736,4732,1276,4736,4736,4732,4732,1276,1276,1276,1276,1348,1348,1348,1348,1348,1348,1348,1348,1348,1348,0,0,0,
0,0,0,0,0,0,0,0,0,0,0,0,0,0,0,3174,0,3174,0,0,0,0,3174,0,0,0,0,0,0,0,4732,4732,4736,4732,4733,4733,4736,4732,4733,4733,1348,1348,1348,1348,1348,1348,1348,1348,1276,1276,4732,4733,4732,4733,4732,4734,4732,4732,4732,4736,4733,4733,4736,4732,1276,1276,1348,1348,1348,0,0,3177,1348,1348,1348,1348,0,0,0,0,
0,0,0,0,0,3174,0,0,0,0,0,0,0,0,0,0,0,0,0,0,0,0,0,3177,0,0,0,0,0,0,0,4733,4736,4736,4736,4732,4732,4732,4736,4733,1348,1348,1348,1348,1348,1348,1348,1348,1276,1276,4732,4732,4736,4732,4732,4733,4732,4734,4736,4732,4732,4736,4732,4732,1276,1276,1276,1276,3173,0,0,1348,1348,1348,1348,0,3173,0,0,0,
0,0,0,0,0,0,0,0,0,0,3174,3177,0,0,0,0,0,0,0,0,3174,0,0,0,0,3177,3174,0,0,0,0,4733,4732,4732,4736,4732,4736,4736,4733,0,1348,1348,3173,3182,1348,1348,1276,1276,4732,4734,4736,4732,4736,4733,4736,4732,1276,4732,4732,4733,4733,4732,4732,4736,1276,1276,1276,1276,0,3173,0,0,1348,1348,3176,0,0,0,0,0,
0,0,0,3173,0,0,0,3171,0,0,0,0,0,0,0,0,0,0,0,0,0,0,0,0,0,0,3174,3177,0,0,0,0,0,4732,4736,4736,4736,4733,4733,1327,1348,1348,0,0,0,1348,1276,1276,4732,4734,4736,4733,4736,4733,4732,4732,4732,4732,4732,4733,4734,4734,4734,4732,4733,1276,1276,1276,3173,1348,1348,1348,1348,1348,1348,1348,3173,0,0,0,
0,0,0,3178,3173,3174,3176,0,0,0,0,0,0,0,0,0,0,0,0,0,0,0,0,0,0,0,0,0,0,0,0,0,0,0,0,0,0,0,0,0,1348,1348,3173,3173,0,0,1276,1276,4732,4734,4736,4736,4732,1276,4732,4732,4732,4736,4733,4733,4733,4736,4736,4734,4733,1276,1276,1348,1348,1348,0,1348,1348,0,1348,0,0,0,0,0,
0,0,0,0,0,3176,3174,3176,0,0,3178,0,3171,0,0,0,0,0,0,0,0,0,0,0,0,3177,0,3174,0,3177,3177,0,0,0,1348,1348,0,0,3177,1348,1348,1348,0,0,0,0,1348,1276,4732,4732,4732,4732,4736,4732,4733,4733,4732,4732,4733,4733,4733,4732,4732,4732,1276,1276,1276,1348,1348,0,1348,1348,3173,1348,1348,0,3173,0,0,0,
0,0,0,0,0,3176,0,3174,0,0,0,0,0,3177,0,0,0,0,0,0,0,0,0,0,3178,0,0,0,0,0,0,0,0,0,3183,0,0,3178,0,1348,0,0,0,3171,0,1276,1276,1276,1276,1276,1276,1276,1276,1276,1276,1276,4732,4732,4732,4732,4736,1276,4732,4734,1276,1276,1276,1276,1276,1276,1276,3173,1348,0,0,3176,3177,0,0,0,
0,0,0,0,3178,3174,0,0,0,0,0,0,0,0,0,0,0,0,0,0,0,0,0,0,0,0,0,0,0,0,0,0,0,3177,0,0,0,0,0,1348,0,0,0,0,3178,0,1276,1276,1276,1276,1276,1276,1276,1276,1276,1276,1658,1276,1276,4732,4732,4732,4732,1276,1276,1276,1276,1276,1276,1276,1276,1276,0,0,0,0,3173,0,0,0,
0,0,0,3173,0,0,0,3173,0,0,0,0,0,0,0,0,0,0,0,0,0,0,0,0,0,0,3177,0,3174,0,3173,3177,0,0,3178,0,0,0,0,1305,0,0,0,0,0,3177,0,0,0,3177,1276,1276,1276,1276,1276,1276,1276,1276,1276,1276,1276,1276,1276,1276,1276,1276,1276,1276,0,1348,1348,3173,3183,0,0,0,0,0,0,0,
0,0,0,0,0,3174,3176,3178,0,0,0,0,0,0,0,0,0,0,0,0,0,0,0,0,0,3173,0,0,1274,0,0,3178,0,3174,0,0,0,0,0,1305,0,0,0,0,0,0,3183,3177,0,0,0,1276,1276,1276,1276,1276,1276,1276,1276,1276,1276,1276,1276,1276,1276,1276,1276,1276,1276,1276,1276,1276,0,0,0,3176,0,0,0,0,
0,0,0,0,0,0,3178,3173,0,0,0,0,0,0,0,0,0,0,0,0,0,0,0,0,0,0,0,0,3174,0,0,0,0,0,0,0,0,0,0,2350,0,0,0,0,0,0,0,0,0,0,3173,0,3177,1348,0,1348,1348,1327,1348,1348,1327,1348,0,0,1348,1348,1348,1276,1276,0,0,0,0,3173,0,3174,0,0,0,0,
0,0,0,0,3173,0,0,0,0,0,0,0,0,0,0,0,0,0,0,0,0,0,0,0,0,0,3171,0,0,3178,0,0,0,0,0,0,0,0,0,2350,0,0,0,0,0,0,0,0,3177,3173,0,0,0,1348,1348,1348,1348,1348,1348,1348,1348,1348,0,0,1348,1348,0,1327,1348,0,0,0,0,3173,3176,0,3173,0,0,0,
0,0,0,3173,0,0,0,3176,0,0,0,0,0,0,0,0,0,0,0,0,3174,0,3178,3177,0,0,0,0,3174,0,3173,0,3177,0,0,0,0,0,0,2376,0,0,0,0,0,0,0,0,0,3173,0,0,1348,0,0,1348,1348,1348,1348,1348,1348,0,0,1348,1348,0,0,0,0,0,0,3178,3173,0,0,0,0,0,0,0,
0,0,0,0,3174,3174,0,0,0,0,0,0,0,0,0,0,0,3173,0,0,0,0,0,0,0,0,3177,0,0,0,0,0,0,0,0,0,0,0,0,2376,0,0,0,0,0,0,0,0,3173,0,3177,3173,1348,1348,0,0,0,0,0,0,0,0,3177,3173,0,0,0,0,0,0,3173,0,0,0,0,0,0,0,0,0,
0,0,0,0,3178,0,3174,3174,0,3176,3174,0,3173,0,0,0,0,0,0,0,0,0,0,3174,0,0,0,3178,0,0,0,0,3173,0,0,0,0,0,0,0,2376,0,0,0,0,0,0,1348,0,3177,0,3177,1348,1348,1348,1348,1348,1348,1348,1348,1348,1348,1348,1348,1348,1348,1348,0,0,3173,0,0,0,0,0,0,0,0,0,0,
0,0,0,0,0,0,0,0,0,3174,0,0,0,0,0,0,0,0,0,0,0,0,0,0,3178,3173,0,0,3177,0,3178,0,0,0,0,0,0,0,0,0,0,2350,0,0,0,0,0,1348,0,3177,0,3173,1348,1348,0,0,1348,1348,0,1348,1348,1348,1348,1348,0,0,3173,3173,3173,0,0,0,0,0,0,0,0,0,0,0,
0,0,0,0,0,0,3176,0,0,0,0,0,0,0,0,0,0,0,0,3171,0,0,0,0,0,0,0,0,0,3174,0,0,3174,0,3178,0,0,0,0,0,0,2400,0,0,0,0,1348,1348,0,0,1348,1348,1348,3173,1348,1348,1348,1348,1348,1348,0,0,1348,1348,3173,3177,0,3177,0,3173,0,0,0,0,0,0,0,0,0,0,
0,0,0,0,3174,0,0,0,0,0,0,0,0,0,0,0,0,0,0,0,0,3177,0,3174,0,3178,3173,0,0,0,3174,3171,0,0,0,0,0,0,0,0,0,1348,1348,0,3173,3177,1348,1348,1348,1348,1348,1348,1348,1348,1348,1348,1348,1348,1348,1348,1348,1348,1348,1348,1348,0,3173,0,3177,0,0,0,0,0,0,0,0,0,0,0,
0,0,0,3173,0,0,3178,0,0,3173,0,0,0,0,3176,0,0,0,0,3178,0,0,0,0,0,3173,0,0,3174,0,1348,1348,1348,1348,1348,1348,1348,1348,1348,1348,1348,1348,1348,1348,1348,1348,1348,1348,1348,0,1348,0,1348,1348,1348,1348,1348,1348,1348,1348,1348,1348,1348,1348,3173,3178,0,0,0,0,0,0,0,0,0,0,0,0,0,0,
0,0,0,0,0,3176,3174,0,0,0,0,3173,0,3174,0,0,0,0,3174,0,0,3173,0,3171,0,0,0,3177,0,0,1348,1348,1348,1348,1348,1348,1348,1348,1348,1348,1348,1348,1348,1348,1348,1348,1348,1348,1348,1348,1348,0,1348,1348,1348,1348,1348,1348,1348,1348,1348,1348,1348,1348,0,0,0,0,0,0,0,0,0,0,0,0,0,0,0,0,
0,0,0,0,0,0,0,0,0,0,0,0,0,0,0,0,0,0,0,0,0,0,0,0,0,0,0,0,0,0,0,0,3174,0,0,0,0,0,0,0,0,0,0,0,0,1348,0,0,1348,1348,0,0,0,0,0,0,0,3173,0,0,0,0,0,0,0,0,0,0,0,0,0,0,0,0,0,0,0,0,0,0,
0,0,0,0,0,0,0,0,0,0,0,0,0,0,0,0,0,0,0,0,0,0,0,0,0,0,0,0,0,0,0,0,0,0,0,0,0,0,0,0,0,0,0,0,0,1348,1348,1348,1348,0,0,0,0,0,0,0,0,0,0,0,0,0,0,0,0,0,0,0,0,0,0,0,0,0,0,0,0,0,0,0,
0,0,0,0,0,0,0,0,0,0,0,0,0,0,0,0,0,0,0,0,0,0,0,0,0,0,0,0,0,0,0,0,0,0,0,0,0,0,0,0,0,0,0,0,0,0,1348,0,0,0,0,0,0,0,0,0,0,0,0,0,0,0,0,0,0,0,0,0,0,0,0,0,0,0,0,0,0,0,0,0,
0,0,0,0,0,0,0,0,0,0,0,0,0,0,0,0,0,0,0,0,0,0,0,0,0,0,0,0,0,0,0,0,0,0,0,0,0,0,0,0,0,0,0,0,0,0,0,0,0,0,0,0,0,0,0,0,0,0,0,0,0,0,0,0,0,0,0,0,0,0,0,0,0,0,0,0,0,0,0,0
</data>
 </layer>
 <objectgroup id="12" name="Collisions">
  <object id="82" x="920.25" y="127.25" height="0.25"/>
  <object id="96" x="1246.91" y="130.364" width="32.7273" height="105.273"/>
  <object id="97" x="1236.33" y="295" width="42.3333" height="744.333"/>
  <object id="99" x="48" y="982" width="1228" height="54"/>
  <object id="100" x="0" y="0" width="52" height="1036"/>
  <object id="102" x="53" y="360.5" width="56" height="169.5"/>
  <object id="103" x="53.5" y="530" width="20" height="23.5"/>
  <object id="104" x="74" y="530.5" width="12.5" height="10.5"/>
  <object id="105" x="52.5" y="553.5" width="10" height="12"/>
  <object id="107" x="53.3333" y="60" width="677.333" height="52"/>
  <object id="109" x="884" y="95.3333" width="9" height="37.3333"/>
  <object id="116" x="720" y="152.667" width="15" height="23.3333"/>
  <object id="117" x="768.333" y="122.333" width="15.6667" height="21.6667"/>
  <object id="118" x="1121.33" y="363.333" width="15" height="20.6667"/>
  <object id="120" x="1194.5" y="470.75" width="14.5" height="45"/>
  <object id="121" x="1195.75" y="515.75" width="8.5" height="6"/>
  <object id="122" x="1204.5" y="516.25" width="2.75" height="2.75"/>
  <object id="123" x="1143.25" y="522.75" width="49" height="10.5"/>
  <object id="124" x="1192.75" y="523.5" width="2.5" height="7.25"/>
  <object id="125" x="1195.25" y="522" width="5.75" height="3.75"/>
  <object id="126" x="1147" y="534.5" width="8.25" height="4.25"/>
  <object id="127" x="1160" y="534.5" width="16.5" height="3.5"/>
  <object id="128" x="1179" y="533.25" width="8.75" height="4.25"/>
  <object id="129" x="1180.25" y="538" width="5.5" height="2.5"/>
  <object id="130" x="1165" y="538.5" width="7" height="1.25"/>
  <object id="131" x="1150.25" y="539.25" width="3" height="1.5"/>
  <object id="133" x="1129.5" y="505.5" width="3" height="15"/>
  <object id="134" x="1127.5" y="508.5" width="0.75" height="7.25"/>
  <object id="135" x="1126.5" y="464.5" width="7.5" height="18.5"/>
  <object id="136" x="1128.25" y="483" width="5.75" height="7.25"/>
  <object id="137" x="1134.33" y="452.667" width="52.6667" height="12.3333"/>
  <object id="147" x="1131.38" y="491.375" width="9.375" height="14.125"/>
  <object id="148" x="1132" y="520.875" width="7" height="2.25"/>
  <object id="149" x="1134.25" y="523.375" width="8.125" height="2.625"/>
  <object id="150" x="1142.38" y="526"/>
  <object id="151" x="1187.64" y="454" width="5.09091" height="17.6364"/>
  <object id="152" x="1192.91" y="458.727" width="4" height="9.81818"/>
  <object id="153" x="1128.91" y="454" width="5.63636" height="10.7273"/>
  <object id="154" x="588" y="790.5" width="89.25" height="30"/>
  <object id="155" x="677.75" y="795.25" width="9" height="35.5"/>
  <object id="156" x="687.25" y="803.25" width="7" height="40.5"/>
  <object id="157" x="694.75" y="810.25" width="4.5" height="36.75"/>
  <object id="158" x="700.25" y="820" width="25" height="25"/>
  <object id="159" x="725.25" y="824.5" width="6.25" height="26"/>
  <object id="160" x="732" y="836.25" width="12" height="45"/>
  <object id="161" x="580.545" y="793.636" width="6.36364" height="32.3636"/>
  <object id="162" x="567.636" y="803.818" width="10.5455" height="34.3636"/>
  <object id="163" x="533.818" y="836.727" width="16.5455" height="31.6364"/>
  <object id="164" x="557.636" y="813.273" width="8.72727" height="35.0909"/>
  <object id="165" x="550.364" y="821.091" width="6.54545" height="30"/>
  <object id="166" x="536.727" y="868.909" width="29.6364" height="9.09091"/>
  <object id="167" x="549.455" y="878.545" width="14.9091" height="18.3636"/>
  <object id="168" x="550.909" y="896.909" width="63.2727" height="14"/>
  <object id="169" x="582.182" y="911.818" width="82.3636" height="13.8182"/>
  <object id="170" x="597.636" y="925.273" width="66.1818" height="16.3636"/>
  <object id="171" x="718.727" y="881.273" width="24.9091" height="11.4545"/>
  <object id="172" x="689.273" y="892.364" width="40.7273" height="13.8182"/>
  <object id="175" x="665.636" y="905.091" width="58.3636" height="19.4545"/>
  <object id="176" x="1159.67" y="886.667" width="74.3333" height="76"/>
  <object id="177" x="1104" y="934.667" width="55.3333" height="68"/>
  <object id="178" x="892.333" y="111.333" width="170.333" height="24.6667"/>
  <object id="179" x="1063" y="111.667" width="40.3333" height="24.3333"/>
  <object id="180" x="1090" y="93.3333" width="92" height="19.3333"/>
  <object id="181" x="1059" y="84.3333" width="33.6667" height="25"/>
  <object id="182" x="1168.33" y="100.667" width="77" height="34.3333"/>
  <object id="183" x="945.75" y="208.25" width="4.25" height="44.75"/>
  <object id="184" x="965.417" y="178.25" width="57.5" height="29.5"/>
  <object id="185" x="1041.92" y="179.167" width="30.5" height="28.75"/>
  <object id="186" x="1074.25" y="175.5" width="12.75" height="77.5"/>
  <object id="187" x="945.5" y="253.5" width="62" height="9.5"/>
  <object id="188" x="1057" y="253.5" width="30.75" height="8.75"/>
  <object id="189" x="1080" y="252.5" width="8" height="16.5"/>
  <object id="190" x="422.667" y="159.333" width="5.33333" height="93.6667"/>
  <object id="191" x="428.333" y="158" width="105.333" height="95"/>
  <object id="192" x="518.364" y="160.879" width="17.6364" height="58.5758"/>
  <object id="193" x="1147.5" y="886" width="87.5" height="81.5"/>
  <object id="194" x="1106.25" y="934" width="40.75" height="48.5"/>
  <object id="195" x="800.75" y="69.25" width="79" height="19.25"/>
  <object id="199" x="945.833" y="175.667" width="140.697" height="32.6667"/>
  <object id="241" x="584" y="169"/>
  <object id="242" x="984" y="487" width="1"/>
  <object id="243" x="985" y="487"/>
  <object id="244" x="936" y="519"/>
  <object id="245" x="1112" y="649"/>
  <object id="246" x="997" y="744"/>
  <object id="247" x="953" y="650" height="1"/>
  <object id="248" x="951" y="650"/>
  <object id="249" x="907" y="728"/>
  <object id="250" x="839" y="693"/>
  <object id="251" x="795" y="732"/>
  <object id="252" x="855.5" y="505" width="0.5"/>
  <object id="253" x="859" y="505.5"/>
  <object id="254" x="783" y="526.5" width="15" height="16"/>
  <object id="255" x="826.5" y="424"/>
  <object id="256" x="727.5" y="490" width="0.5"/>
  <object id="257" x="692.5" y="439.5"/>
  <object id="258" x="729" y="491"/>
  <object id="260" x="681" y="599"/>
  <object id="263" x="568" y="295.5"/>
  <object id="264" x="632.5" y="402.5" height="2.5"/>
  <object id="265" x="632" y="406"/>
  <object id="266" x="551" y="504"/>
  <object id="267" x="600.5" y="696"/>
  <object id="268" x="521" y="634"/>
  <object id="269" x="504" y="936"/>
  <object id="270" x="423.333" y="840"/>
  <object id="271" x="376" y="968"/>
  <object id="272" x="311.333" y="920"/>
  <object id="273" x="407.333" y="727.333"/>
  <object id="274" x="375" y="792.333"/>
  <object id="275" x="167.333" y="951.333"/>
  <object id="276" x="120" y="936"/>
  <object id="277" x="182.667" y="792" width="0.666667"/>
  <object id="278" x="182" y="792.667"/>
  <object id="279" x="119.333" y="709.333"/>
  <object id="280" x="152.667" y="662.667"/>
  <object id="281" x="184" y="614.667"/>
  <object id="282" x="279.333" y="582.667"/>
  <object id="283" x="280" y="493.333"/>
  <object id="284" x="152.667" y="502"/>
  <object id="285" x="200" y="422"/>
  <object id="286" x="277.333" y="376"/>
  <object id="287" x="343.333" y="327.333"/>
  <object id="288" x="390.667" y="313.333"/>
  <object id="289" x="332" y="236"/>
  <object id="290" x="248" y="296"/>
  <object id="291" x="150.667" y="264"/>
  <object id="292" x="106" y="312.667"/>
  <object id="293" x="135.333" y="167.333"/>
  <object id="294" x="217.333" y="182.667"/>
  <object id="295" x="262" y="152"/>
  <object id="296" x="360" y="150"/>
  <object id="299" x="697.333" y="760"/>
  <object id="393" x="675.5" y="165" width="7.5" height="123.5"/>
  <object id="394" x="683" y="278.5" width="196" height="11.5"/>
 </objectgroup>
 <objectgroup id="8" name="Paths">
  <object id="62" name="TileData" x="271" y="162" width="16" height="16">
   <properties>
    <property name="Order" type="int" value="3"/>
   </properties>
  </object>
  <object id="64" name="TileData" x="559" y="226" width="16" height="16">
   <properties>
    <property name="Order" type="int" value="3"/>
   </properties>
  </object>
  <object id="67" name="TileData" x="559" y="354" width="16" height="16">
   <properties>
    <property name="Order" type="int" value="4"/>
   </properties>
  </object>
  <object id="68" name="TileData" x="111" y="386" width="16" height="16">
   <properties>
    <property name="Order" type="int" value="7"/>
   </properties>
  </object>
  <object id="69" name="TileData" x="367" y="498" width="16" height="16">
   <properties>
    <property name="Order" type="int" value="1"/>
   </properties>
  </object>
  <object id="70" name="TileData" x="607" y="514" width="16" height="16">
   <properties>
    <property name="Order" type="int" value="5"/>
   </properties>
  </object>
  <object id="71" name="TileData" x="623" y="514" width="16" height="16">
   <properties>
    <property name="Order" type="int" value="6"/>
   </properties>
  </object>
  <object id="72" name="TileData" x="719" y="514" width="16" height="16">
   <properties>
    <property name="Order" type="int" value="6"/>
   </properties>
  </object>
  <object id="73" name="TileData" x="1039" y="514" width="16" height="16">
   <properties>
    <property name="Order" type="int" value="7"/>
   </properties>
  </object>
  <object id="74" name="TileData" x="1055" y="594" width="16" height="16">
   <properties>
    <property name="Order" type="int" value="2"/>
   </properties>
  </object>
  <object id="75" name="TileData" x="271" y="770" width="16" height="16">
   <properties>
    <property name="Order" type="int" value="4"/>
   </properties>
  </object>
  <object id="218" x="1032.33" y="308.667" height="0.666667"/>
 </objectgroup>
 <layer id="4" name="Front" width="80" height="65">
  <data encoding="csv">
0,1121,1122,1123,1174,1175,1176,1199,1200,1201,0,0,0,0,0,0,0,0,0,0,0,0,0,0,0,0,0,0,0,1198,1174,0,0,0,0,0,1200,1201,0,0,0,0,0,0,1199,1200,1201,0,0,1222,0,1146,1147,1148,1149,1150,1151,1162,1163,1164,1165,1166,1198,0,1187,1188,1189,1190,1191,1192,1175,1176,0,0,0,0,1187,1188,1189,1190,
0,1146,1147,1148,1199,1200,1201,1224,1225,1226,0,0,0,0,0,0,0,0,0,0,0,0,0,0,0,0,0,0,0,0,1199,0,0,0,0,0,1225,1226,0,0,0,0,0,0,1224,1225,1226,0,0,1247,0,1171,1172,1173,1174,1175,1176,1187,1188,1189,1190,1191,1192,0,1212,1213,1214,1215,1216,1217,1200,1201,0,0,0,0,1212,1213,1214,1215,
0,1171,1172,1173,1224,1225,1226,1249,1250,1251,0,0,0,0,0,0,0,0,0,0,0,0,0,0,0,0,0,0,0,0,0,0,0,0,0,0,0,0,0,0,0,0,0,0,1249,1250,1251,0,0,0,0,1196,1197,1198,1199,1200,1201,1212,1213,1214,1215,1216,1217,0,1237,0,1239,1240,0,0,1225,1226,0,1124,1125,1126,1237,0,1239,1240,
0,1196,1197,1198,1249,1250,1251,0,0,0,0,0,0,0,0,0,0,0,0,0,0,0,0,0,0,0,0,0,0,0,0,0,0,0,0,0,0,0,0,0,0,0,0,0,0,0,0,0,1237,0,0,1224,1222,1226,0,1124,1125,1126,0,1239,1240,0,0,0,0,0,1264,1265,0,0,0,0,0,1149,1150,1151,0,0,0,0,
0,0,1222,0,0,0,0,0,0,0,0,0,0,0,0,0,0,0,0,0,0,0,0,0,0,0,0,0,0,0,0,0,0,0,0,0,0,0,0,0,0,0,0,0,0,0,0,0,0,0,0,1249,1247,1251,0,1149,1150,1151,0,1264,1265,0,0,0,0,0,1146,1147,1148,0,0,0,0,1174,1175,1176,0,0,1124,1125,
0,0,1247,0,0,0,0,0,0,0,0,0,0,0,0,0,0,0,0,0,0,0,0,0,0,0,0,0,0,0,0,0,0,2779,0,2781,0,0,0,0,0,0,0,0,0,0,0,0,1931,0,1479,1480,1479,1480,1481,1174,1175,1176,0,0,0,0,0,0,0,0,1171,1172,1173,0,0,0,0,1199,1200,1201,0,0,1149,1150,
1535,1559,0,0,0,0,0,0,0,0,0,0,0,0,0,0,0,0,0,0,0,0,0,0,0,0,0,0,0,0,0,0,0,0,0,0,0,0,0,0,0,0,0,0,0,0,0,0,0,0,0,0,0,0,0,1199,1200,1201,0,0,0,0,0,0,0,0,1196,1197,1198,1479,1480,1480,1481,1482,1225,1226,0,0,1174,1175,
0,0,0,0,0,0,0,0,0,0,0,0,0,0,0,0,0,0,0,0,0,0,0,0,0,0,0,0,0,0,0,0,0,0,0,0,0,0,0,0,0,0,0,0,0,0,0,0,0,0,0,0,0,0,0,1224,1225,1226,0,0,0,0,0,0,0,0,0,1222,0,0,0,0,0,0,0,0,0,0,1199,1200,
0,0,0,0,0,0,0,0,0,0,0,0,0,0,0,0,0,0,0,0,0,0,0,0,0,0,0,0,0,0,0,0,0,0,0,0,0,0,0,0,0,0,0,0,0,0,0,0,0,0,0,0,0,0,0,1479,1480,1480,1480,1480,1480,1481,1480,1480,1530,1480,1481,1480,1481,0,0,0,0,1479,1479,1480,1480,1481,0,0,
0,0,0,0,0,0,0,0,0,0,0,0,0,0,0,0,0,0,0,0,0,0,0,0,0,0,0,0,0,0,0,0,0,0,0,0,0,0,0,0,0,0,0,0,0,0,0,0,0,0,0,0,0,0,0,0,0,0,0,0,0,0,0,0,0,0,0,0,0,0,0,0,0,0,0,0,0,0,0,0,
0,0,0,0,0,0,0,0,0,0,0,0,0,0,0,0,0,0,0,0,0,0,0,0,0,0,0,0,0,0,0,0,0,0,0,0,0,0,0,0,0,0,0,0,0,0,0,0,0,0,0,0,0,0,0,0,0,0,0,0,0,0,0,0,0,0,0,0,0,0,0,0,0,0,0,0,0,0,0,1221,
0,0,0,0,0,0,0,0,0,0,0,0,0,0,0,0,0,0,0,0,0,0,0,0,0,0,0,0,0,0,0,0,0,0,0,0,0,0,0,0,0,0,0,0,0,0,0,0,0,0,0,0,0,0,0,0,0,0,0,0,0,0,0,0,0,0,0,0,0,0,0,0,0,0,0,0,0,0,0,0,
0,0,0,0,0,0,0,0,0,0,0,0,0,0,0,0,0,0,0,0,0,0,0,0,0,0,0,0,0,0,0,0,0,0,0,0,0,0,0,0,0,0,0,0,0,0,0,0,0,0,0,0,0,0,0,0,0,0,0,0,0,0,0,0,0,0,0,0,0,0,0,0,0,0,0,0,0,0,0,0,
0,0,0,0,0,0,0,0,0,0,0,0,0,0,0,0,0,0,0,0,0,0,0,0,0,0,0,0,0,0,0,0,0,0,0,0,0,0,0,0,0,0,0,0,0,0,0,0,0,0,0,0,0,0,0,0,0,0,0,0,0,0,0,0,0,0,0,0,0,0,0,0,0,0,0,0,0,0,0,1479,
0,0,0,0,0,0,0,0,0,0,0,0,0,0,0,0,0,0,0,0,0,0,0,0,0,0,0,0,0,0,0,0,0,0,0,0,0,0,0,0,0,0,0,0,0,0,0,0,0,0,0,0,0,0,0,0,0,0,0,0,0,0,0,0,0,0,0,0,0,0,0,0,0,0,0,0,0,0,0,0,
0,0,0,0,0,0,0,0,0,0,0,0,0,0,0,0,0,0,0,0,0,0,0,0,0,0,0,0,0,0,0,0,0,0,0,0,0,0,0,0,0,0,0,0,0,0,0,0,0,0,0,0,0,0,0,0,0,0,0,0,0,0,0,0,0,0,0,0,0,0,0,0,0,0,0,0,0,0,0,0,
0,0,0,0,0,0,0,0,0,0,0,0,0,0,0,0,0,0,0,0,0,0,0,0,0,0,0,0,0,0,0,0,0,0,0,0,0,0,0,0,0,0,0,0,0,0,0,0,0,0,0,0,0,0,0,0,0,0,0,0,0,0,0,0,0,0,0,0,0,0,0,0,0,0,0,0,0,0,0,0,
0,0,0,0,0,0,0,0,0,0,0,0,0,0,0,0,0,0,0,0,0,0,0,0,0,0,0,0,0,0,0,0,0,0,0,0,0,0,0,0,0,0,1557,1479,1480,1480,1480,1479,1480,1480,1480,1479,1480,1480,1481,0,0,0,0,0,0,0,0,0,0,0,0,0,0,0,0,0,0,0,0,0,0,0,0,0,
0,0,0,0,0,0,0,0,0,0,0,0,0,0,0,0,0,0,0,0,0,0,0,0,0,0,0,0,0,0,0,0,0,0,0,0,0,0,0,0,0,0,0,0,0,0,0,0,0,0,0,0,0,0,0,0,0,0,0,0,0,0,0,0,0,0,0,0,0,0,0,0,0,0,0,0,0,1482,1479,1480,
0,0,0,0,0,0,0,0,0,0,0,0,0,0,0,0,0,0,0,0,0,0,0,0,0,0,0,0,0,0,0,0,0,0,0,0,0,0,0,0,0,0,0,0,0,0,0,0,0,0,0,0,0,0,0,0,0,0,0,0,0,0,0,0,0,0,0,0,0,0,0,0,0,0,0,0,0,1162,1163,1164,
0,0,0,0,0,0,0,0,0,0,0,0,0,0,0,0,0,0,0,0,0,0,0,0,0,0,0,0,0,0,0,0,0,0,0,0,0,0,0,0,0,0,0,0,0,0,0,0,0,0,0,0,0,0,0,0,0,0,0,0,0,0,0,0,0,0,0,0,0,0,0,0,0,0,0,0,0,1187,1188,1189,
0,0,0,0,0,0,0,0,0,0,0,0,0,0,0,0,0,0,0,0,0,0,0,0,0,0,0,0,0,0,0,0,0,0,0,0,0,0,0,0,0,0,0,0,0,0,0,0,0,0,0,0,0,0,0,0,0,0,0,0,0,0,0,0,4733,4733,0,0,0,0,0,0,0,0,0,0,0,1212,1213,1214,
0,1533,1534,1535,1534,1535,1559,0,0,0,0,0,0,0,0,0,0,0,0,0,0,0,0,0,0,0,0,0,0,0,0,0,0,0,0,0,0,0,0,0,0,0,0,0,0,0,0,0,0,0,0,0,0,0,0,0,0,0,0,0,0,0,0,4733,4733,4733,4733,4733,0,0,0,0,0,0,0,0,0,1237,0,1239,
1239,1240,1375,1296,1296,1375,1515,0,0,0,0,0,0,0,0,0,0,0,0,0,0,0,0,0,0,0,0,0,0,0,0,0,0,0,0,0,0,0,0,0,0,0,0,0,0,0,0,0,0,0,0,0,0,0,0,0,0,0,0,0,0,0,0,4733,4733,4733,4733,4733,0,0,0,0,0,0,0,0,0,0,0,1264,
1264,1265,1296,1296,1296,1296,1540,0,0,0,0,0,0,0,0,0,0,0,0,0,0,0,0,0,0,0,0,0,0,0,0,0,0,0,0,0,0,0,0,0,0,0,0,0,0,0,0,0,0,0,0,0,0,0,0,0,0,0,0,0,0,0,0,0,4733,4733,4733,4733,0,0,0,0,0,0,0,0,0,0,0,0,
0,0,0,0,0,1296,1515,0,0,0,0,0,0,0,0,0,0,0,0,0,0,0,0,0,0,0,0,0,0,0,0,0,0,0,0,0,0,0,0,0,0,0,0,0,0,0,0,0,0,0,0,0,0,0,0,0,0,0,0,0,0,0,0,0,0,4733,4733,4733,0,0,0,0,0,0,0,0,0,1124,1125,1126,
0,1212,1213,0,0,0,1540,0,0,0,0,0,0,0,0,0,0,0,0,0,0,0,0,0,0,0,0,0,0,0,0,0,0,0,0,0,0,0,0,0,0,0,0,0,0,0,0,0,0,0,0,0,0,0,0,0,0,0,0,0,0,0,0,0,0,0,0,0,0,0,0,0,0,0,0,0,0,1149,1150,1151,
0,0,0,1239,1240,0,1515,0,0,0,0,0,0,0,0,0,0,0,0,0,0,0,0,0,0,0,0,0,0,0,0,0,0,0,0,0,0,0,0,0,0,0,0,0,0,0,0,0,0,0,0,0,0,0,0,0,0,0,0,0,0,0,0,0,0,0,0,0,0,0,0,0,0,0,0,0,0,1174,1175,1176,
0,0,0,1264,1265,0,1540,0,0,0,0,0,0,0,0,0,0,0,0,0,0,0,0,0,0,0,0,0,0,0,0,0,0,0,0,0,0,0,0,0,0,0,0,0,0,0,0,0,0,0,0,0,0,0,0,0,0,0,0,0,0,0,0,0,0,0,0,0,0,0,0,0,0,0,0,0,0,1199,1200,1201,
0,0,0,0,0,0,1565,0,0,0,0,0,0,0,0,0,0,0,0,0,0,0,0,0,0,0,0,0,0,0,0,0,0,0,0,0,0,0,0,0,0,0,0,0,0,0,0,0,0,0,0,0,0,0,0,0,0,0,0,0,0,0,0,0,0,0,0,0,0,0,0,0,0,0,0,0,0,1224,1225,1226,
0,0,0,0,0,0,0,0,0,0,0,0,0,0,0,0,0,0,0,0,0,0,0,0,0,0,0,0,0,0,0,0,0,0,0,0,0,0,0,0,0,0,0,0,0,0,0,0,0,0,0,0,0,0,0,0,0,0,0,0,0,0,0,0,0,0,0,0,0,0,0,0,0,0,0,0,0,0,1121,1122,
1530,1481,0,0,0,0,0,0,0,0,0,0,0,0,0,0,0,0,0,0,0,0,0,0,0,0,0,0,0,0,0,0,0,0,0,0,0,0,0,0,0,0,0,0,0,0,0,0,0,0,0,0,0,0,0,0,0,0,0,0,0,0,0,0,0,0,0,0,0,0,0,0,0,0,0,0,0,0,1146,1147,
0,1506,0,0,0,0,0,0,0,0,0,0,0,0,0,0,0,0,0,0,0,0,0,0,0,0,0,0,0,0,0,0,0,0,0,0,0,0,0,0,0,0,0,0,0,0,0,0,0,0,0,0,0,0,0,0,0,0,0,0,0,0,0,0,0,0,0,0,0,0,0,0,0,0,0,0,0,0,1171,1172,
1535,1559,0,0,0,0,0,0,0,0,0,0,0,0,0,0,0,0,0,0,0,0,0,0,0,0,0,0,0,0,0,0,0,0,0,0,0,0,0,0,0,0,0,0,0,0,0,0,0,0,0,0,0,0,0,0,0,0,0,0,0,0,0,0,0,0,0,0,0,0,0,0,0,0,0,0,0,0,1196,1197,
0,0,0,0,0,0,0,0,0,0,0,0,0,0,0,0,0,0,0,0,0,0,0,0,0,0,0,0,0,0,0,1121,1122,1123,0,0,0,0,0,0,0,0,0,0,0,0,0,0,0,0,0,0,0,0,0,0,0,0,0,0,0,0,0,0,0,0,0,0,0,0,0,0,0,0,0,0,0,0,0,0,
0,0,0,0,0,0,0,0,0,0,0,0,0,0,0,0,0,0,0,0,0,0,0,0,0,0,0,0,0,0,0,1146,1147,1148,0,0,0,0,0,0,0,0,0,0,0,0,0,0,0,0,0,0,0,0,0,0,0,0,1121,1122,1123,0,0,0,0,0,0,0,0,0,0,0,4810,0,0,0,0,0,0,0,
1125,1126,0,0,0,0,0,0,0,0,0,0,0,0,0,0,0,0,0,0,0,0,0,0,0,0,0,0,0,0,0,1171,1172,1173,0,0,0,0,0,0,0,0,0,0,0,0,0,0,0,0,0,0,0,0,0,0,0,0,1146,1147,1148,0,0,0,0,0,0,0,0,0,0,0,0,0,0,0,0,0,0,0,
1150,1151,0,0,0,0,0,0,0,0,0,0,0,0,0,0,0,0,0,0,0,0,0,0,0,0,0,0,0,0,0,1196,1197,1198,0,0,0,0,0,0,0,0,0,0,0,0,0,0,0,0,0,0,4733,4733,4733,0,4733,4733,1171,1172,1173,0,0,0,0,0,0,0,0,0,0,0,0,0,0,0,0,0,0,0,
1175,1176,0,0,0,0,0,0,0,0,0,0,0,0,0,0,0,0,0,0,0,0,0,0,0,0,0,0,0,0,0,0,1222,0,0,0,1121,1122,1123,0,0,0,0,0,0,0,0,0,0,4733,4733,1121,1122,1123,4733,4733,0,0,1196,1197,1198,4733,4733,0,0,0,0,0,0,0,0,0,0,0,0,0,0,1162,0,0,
1200,1201,0,0,0,0,0,0,0,0,0,0,0,0,0,0,0,0,0,0,0,0,0,0,0,0,0,0,0,0,0,0,1247,0,0,0,1146,1147,1148,0,0,0,0,0,0,0,0,0,0,4733,4733,1146,1147,1148,0,4733,0,0,4733,1222,4733,4733,4733,4733,4733,0,0,0,0,0,0,0,0,0,0,0,0,1187,0,0,
1225,1226,0,0,0,0,0,0,0,0,0,0,0,0,0,0,0,0,0,0,0,0,0,0,0,0,0,0,0,0,0,0,0,0,0,0,1171,1172,1173,0,0,0,0,0,0,0,0,0,1121,1122,1123,1171,1172,1173,0,1121,1122,1123,4733,1247,4733,0,0,4733,4733,4733,0,0,0,0,0,0,0,0,0,0,0,1212,0,0,
1250,1251,0,0,0,0,0,0,0,0,0,0,0,0,0,0,0,0,0,0,0,0,0,0,0,0,0,0,0,0,0,0,0,0,0,0,1196,1197,1198,0,0,0,0,0,0,0,0,0,1146,1147,1148,1196,1197,1198,0,1146,1147,1148,4733,0,4733,1121,1122,1123,4733,4733,0,0,0,0,0,0,0,0,0,0,0,0,0,0,
0,0,0,0,0,0,0,0,0,0,0,0,0,0,0,0,0,0,0,0,0,0,0,0,0,0,0,0,0,0,0,0,0,0,0,0,0,1222,0,0,0,0,0,0,0,0,0,0,1171,1172,1173,4733,1222,4733,0,1171,1172,1173,4733,4733,0,1146,1147,1148,4733,4733,0,0,0,0,0,0,0,0,0,0,0,0,0,0,
0,0,0,0,0,0,0,0,0,0,0,0,0,0,0,0,0,0,0,0,0,0,0,0,0,0,0,0,0,0,0,0,0,0,0,0,0,1247,0,0,0,0,0,0,0,0,0,0,1196,1197,1198,4733,1247,4733,4733,1196,1197,1198,0,0,4733,1171,1172,1173,4733,4733,0,0,0,0,0,0,0,0,0,0,0,0,0,0,
0,0,0,0,0,0,0,0,0,0,0,0,0,0,0,0,0,0,0,0,0,0,0,0,0,0,0,0,0,0,0,0,0,0,0,0,0,0,0,0,0,0,0,0,0,0,0,0,4733,1222,4733,4733,0,4733,4733,4733,1222,4733,0,0,4733,1196,1197,1198,4733,4733,0,0,0,0,0,0,0,0,0,0,0,0,1134,0,
0,0,0,0,0,0,0,0,0,0,0,0,0,0,0,0,0,0,0,0,0,0,0,0,0,0,0,0,0,0,0,0,0,0,0,0,0,0,0,0,0,0,0,0,0,0,0,0,4733,1247,4733,0,0,4733,4733,4733,1247,4733,4733,4733,4733,4733,1222,4733,0,4733,0,0,0,0,0,0,0,0,0,0,0,0,0,0,
0,0,0,0,0,0,0,0,0,0,0,0,0,0,0,0,0,0,0,0,0,0,0,0,0,0,0,0,0,0,0,0,0,0,0,0,0,0,0,0,0,0,0,0,0,0,0,0,4733,4733,0,0,0,4733,4733,0,4733,4733,4733,0,4733,4733,1247,4733,4733,4733,0,0,0,0,0,0,0,0,0,0,0,1124,1125,1126,
0,0,0,0,0,0,0,0,0,0,0,0,0,0,0,0,0,0,0,0,0,0,0,0,0,0,0,0,0,0,0,0,0,0,0,0,0,0,0,0,0,0,0,0,0,0,0,0,0,0,4733,4733,4733,4733,4733,4733,4733,4733,4733,4733,4733,4733,4733,4733,4733,0,0,0,0,0,0,0,0,0,0,0,0,1149,1150,1151,
1140,1141,1142,0,0,0,0,0,0,0,0,0,0,0,0,0,0,0,0,0,0,0,0,0,0,0,0,0,0,0,0,0,0,0,0,0,0,0,0,0,0,0,0,0,0,0,0,0,0,0,0,0,0,4733,4733,4733,4733,0,4733,4733,4733,4733,4733,4733,0,0,0,0,0,0,0,0,0,0,0,0,0,1174,1175,1176,
1165,1166,1167,0,0,0,0,0,0,0,0,0,0,0,0,0,0,0,0,0,0,0,0,0,0,0,0,0,0,0,0,0,0,0,0,0,0,0,0,0,0,0,0,0,0,0,0,0,0,0,0,0,0,0,0,0,0,0,0,0,0,0,0,0,0,0,0,0,0,0,0,0,0,0,0,0,0,1199,1200,1201,
1190,1191,1192,0,0,0,0,0,0,0,0,0,0,0,0,0,0,0,0,0,0,0,0,0,0,0,0,0,0,0,0,0,0,0,0,0,0,0,0,0,0,0,0,0,0,0,0,0,4809,0,0,0,0,0,0,0,0,0,0,0,0,0,0,4733,0,0,0,0,0,0,0,0,0,0,0,0,0,1224,1225,1226,
1215,1216,1217,0,0,0,0,0,0,0,0,0,0,0,0,0,0,0,0,0,0,0,0,0,0,0,0,0,0,0,0,0,0,0,0,0,0,0,0,0,0,0,0,0,0,0,0,0,0,0,0,0,0,0,4809,0,0,0,0,0,0,0,0,0,0,0,0,0,0,0,4809,0,0,0,0,0,0,1249,1250,1251,
1240,0,0,0,0,0,0,0,0,0,0,0,0,0,0,0,0,0,0,0,0,0,0,0,0,0,0,0,0,0,0,0,0,0,0,0,0,0,0,0,0,0,0,0,0,0,0,0,0,0,0,0,0,0,0,0,0,0,0,0,4809,0,0,0,0,0,0,0,0,0,0,0,0,0,0,0,0,0,0,0,
1265,0,0,0,0,0,0,0,0,0,0,0,0,0,0,0,0,0,0,0,0,0,0,0,0,0,0,0,0,0,0,0,0,0,0,0,0,0,0,0,0,0,0,0,0,0,0,0,0,0,0,0,0,0,0,0,0,0,0,0,0,0,0,0,0,4809,0,0,0,0,0,0,0,0,0,0,0,0,0,0,
1290,0,0,0,0,0,0,0,0,0,0,0,0,0,0,0,0,0,0,0,0,0,0,0,0,0,0,0,0,4810,0,0,0,0,0,0,0,0,0,0,0,0,0,0,0,0,0,0,0,0,0,0,0,0,0,0,4809,0,0,0,0,0,0,0,0,0,0,0,0,0,0,0,0,0,0,0,0,0,0,0,
0,0,0,0,0,0,0,0,0,0,0,0,0,0,0,0,0,0,0,0,0,0,0,0,0,0,0,0,0,0,0,0,0,0,0,0,0,0,0,0,0,0,0,0,0,0,0,0,0,0,0,0,0,0,0,0,0,0,0,0,0,0,0,0,0,0,0,0,0,0,0,0,0,1560,1534,1535,1535,1535,1222,0,
0,0,0,0,0,0,0,0,0,0,0,0,0,0,0,0,0,0,0,0,0,0,0,0,0,0,0,0,0,0,0,0,0,0,0,0,0,0,0,0,0,0,0,0,0,0,0,0,0,0,0,0,0,0,0,0,0,0,0,0,0,0,0,0,0,0,0,0,0,0,0,0,0,1512,1446,1447,1447,1447,0,0,
0,0,0,0,0,0,0,0,0,0,0,0,0,0,0,0,0,0,0,0,0,0,0,0,0,0,0,4810,0,0,0,0,0,0,0,0,0,0,0,0,0,0,0,0,0,0,0,0,0,0,0,0,0,0,0,0,0,0,0,0,0,0,0,0,0,0,0,0,0,0,0,0,0,1537,0,0,0,0,0,0,
0,0,0,0,0,0,0,0,0,0,0,0,0,0,0,0,0,0,0,0,0,0,0,0,0,0,0,0,0,0,0,0,0,0,0,0,0,0,0,0,0,0,0,0,0,0,0,0,0,0,0,0,0,0,0,0,0,0,0,0,0,0,0,0,0,0,0,0,0,1560,1535,1534,1535,1536,0,0,0,0,0,0,
0,0,0,0,0,0,0,0,0,0,0,0,0,0,0,0,0,0,0,0,0,0,0,0,0,0,0,0,0,0,0,0,0,0,0,0,0,0,0,0,0,0,0,0,0,0,0,0,0,0,0,0,0,0,0,0,0,0,0,0,0,0,0,0,0,0,0,0,0,0,1296,1447,1448,1415,0,0,0,0,0,0,
0,0,0,0,0,0,0,0,0,0,0,0,0,0,0,0,0,0,0,0,0,0,0,0,0,0,0,0,0,0,0,0,0,0,0,0,0,0,0,0,0,0,0,0,0,0,0,0,0,0,0,0,0,0,0,0,0,0,0,0,0,0,0,0,0,0,0,0,0,0,1471,1472,0,0,0,0,0,0,0,0,
0,0,1533,1534,1535,1534,1535,1534,1535,1534,1535,1534,1535,1534,1535,1534,1535,1534,1535,1534,1535,1534,1535,1534,1535,1534,1535,1534,1535,1534,1535,1534,1535,1534,1535,1534,1535,1534,1535,1559,0,0,1560,1534,1535,1534,1535,1534,1535,1534,1535,1534,1535,1534,1535,1534,1535,1534,1535,1534,1535,1534,1535,1534,1535,1534,1535,1534,1535,0,1471,1472,1473,0,0,0,0,0,0,0,
0,0,1447,1447,1447,1447,1447,1447,1447,1447,1447,1447,1447,1447,1447,1447,1447,1447,1447,1447,1447,1447,1447,1447,1447,1447,1447,1447,1447,1447,1447,1447,1447,1447,1447,1296,1296,1296,1296,1515,0,0,1512,0,0,1447,1447,1447,1447,1447,1447,1447,1447,0,0,0,0,0,1447,1447,1447,1447,0,1447,1447,1447,1447,1296,1447,0,1449,1472,1473,0,0,0,0,0,0,0,
0,0,0,0,0,0,0,0,0,0,0,0,0,0,0,0,0,0,0,0,0,0,0,0,0,0,0,0,0,0,0,0,0,0,0,0,0,0,0,0,0,0,0,0,0,0,0,0,0,0,0,0,0,0,0,0,0,0,0,0,0,0,0,0,0,0,0,0,1264,1265,1472,1472,1473,0,0,0,0,0,0,0,
0,0,0,1425,1426,0,0,0,0,0,0,0,0,0,0,0,0,0,0,0,0,0,0,0,0,0,0,0,0,0,0,0,0,0,0,0,0,0,0,0,0,0,0,0,0,0,0,0,0,0,0,0,0,0,0,0,0,0,0,0,0,0,0,0,0,0,0,0,1289,1290,1425,1426,1473,0,0,0,0,0,0,0
</data>
 </layer>
 <objectgroup id="10" name="Front">
  <object id="77" name="TileData" x="606" y="84" width="16" height="16">
   <properties>
    <property name="Action" value="Message &quot;Farm.1&quot;"/>
   </properties>
  </object>
 </objectgroup>
 <layer id="5" name="AlwaysFront" width="80" height="65">
  <data encoding="csv">
0,0,0,0,0,0,0,0,0,0,0,0,0,0,0,0,0,0,0,0,0,0,0,0,0,0,0,0,0,0,0,0,0,1134,1135,1136,0,0,0,0,0,0,0,0,0,0,0,0,0,0,0,0,0,0,0,0,0,0,0,0,0,0,0,0,0,0,0,0,0,0,0,0,0,0,0,0,0,0,0,0,
0,0,0,0,0,0,0,0,0,0,0,0,0,0,0,0,0,0,0,0,0,0,0,0,0,0,0,0,0,0,0,0,0,1159,1160,1161,0,0,0,0,0,0,0,0,0,0,0,0,0,0,0,0,0,0,0,0,0,0,0,0,0,0,0,0,0,0,0,0,0,0,0,0,0,0,0,0,0,0,0,0,
0,0,0,0,0,0,0,0,0,0,0,0,0,0,0,0,0,0,0,0,0,0,0,0,0,0,0,0,0,0,0,0,0,1184,1185,1186,0,0,0,0,0,0,0,0,0,0,0,0,0,0,0,0,0,0,0,0,0,0,0,0,0,0,0,0,0,0,0,0,0,0,0,0,0,0,0,0,0,0,0,0,
0,0,0,0,0,0,0,0,0,0,0,0,0,0,0,0,0,0,0,0,0,0,0,0,0,0,0,0,0,0,0,0,0,1272,1296,1271,0,0,0,0,0,0,0,0,0,0,0,1124,1125,1126,0,0,0,0,0,0,0,0,0,0,0,0,0,0,0,0,0,0,0,0,0,0,0,0,0,0,0,0,0,0,
0,0,0,0,0,0,0,0,0,0,0,0,0,0,0,1131,1132,1133,0,0,0,1131,1132,1133,0,0,0,0,0,0,0,0,0,2754,2755,2756,0,0,0,0,0,0,0,0,0,0,0,1149,1150,1151,0,0,0,0,0,0,0,0,0,0,0,0,0,0,0,0,0,0,0,0,0,0,0,0,0,0,0,0,0,0,
0,0,0,0,0,0,0,1121,1122,1123,0,0,0,0,0,1156,1157,1158,0,0,0,1156,1157,1158,0,0,0,0,0,0,0,0,0,0,2780,1124,1125,1126,0,0,0,0,0,0,1124,1125,1126,1174,1175,1176,0,0,0,0,0,0,0,0,0,0,0,0,0,0,0,0,0,0,0,0,0,0,0,0,0,0,0,0,0,0,
1140,1141,1142,0,0,0,0,1146,1147,1148,0,0,1124,1125,1126,1181,1182,1183,0,0,0,1181,1182,1183,0,0,0,0,0,0,0,0,0,0,0,1149,1150,1151,0,0,0,0,0,0,1149,1150,1151,1199,1200,1201,0,0,0,0,0,0,0,0,0,0,0,0,0,0,0,0,0,0,0,0,0,0,0,0,0,0,0,0,0,0,
1165,1166,1167,0,0,0,0,1171,1172,1173,0,0,1149,1150,1151,1206,1207,1208,0,0,0,1206,1207,1208,0,0,0,0,0,0,0,0,0,0,0,1174,1175,1176,0,0,0,0,0,0,1174,1175,1176,1224,1225,1226,0,0,0,0,0,0,0,0,0,4152,4153,4154,4155,4156,4157,4158,4159,4160,4161,0,0,0,0,0,0,0,0,0,0,0,
1190,1191,1192,0,0,0,0,1196,1197,1198,0,0,1174,1175,1176,0,1232,0,0,0,0,0,1232,0,0,0,0,0,0,0,0,0,0,0,0,1199,1200,1201,0,0,0,0,0,0,1199,1200,1201,1249,1250,1251,0,1131,0,1133,0,0,0,0,0,4210,4211,4212,4213,4214,4215,4216,4217,4218,4219,0,0,0,0,0,0,0,0,0,0,0,
1215,1216,1217,0,0,0,0,0,1222,0,0,0,1199,1200,1201,0,1257,0,0,0,0,0,1257,0,0,0,0,0,0,0,0,0,0,0,0,1224,1225,1226,0,0,0,0,0,0,1224,1225,1226,0,0,0,0,0,0,0,0,0,0,0,0,4268,4269,4270,4271,4272,4273,4274,4275,4276,4277,0,0,0,0,0,0,0,0,0,0,0,
1240,0,0,0,0,0,0,0,1247,0,0,0,1224,1225,1226,0,0,0,0,1124,1125,1126,0,0,0,0,0,0,0,0,0,0,0,0,0,1249,1250,1251,0,0,0,0,1482,0,1249,1250,1251,0,0,0,0,0,0,0,0,0,0,0,0,4326,4327,4328,4329,4330,4331,4332,4333,4334,0,0,0,0,0,0,0,0,0,0,0,0,
1265,0,0,0,0,0,0,0,1124,1125,1126,0,1249,1250,1251,0,0,0,0,1149,1150,1151,0,0,0,0,0,0,0,0,0,0,0,0,0,0,0,0,0,0,0,0,1507,0,0,0,0,0,0,0,0,0,0,0,0,0,0,0,0,4384,4385,4386,4387,4388,4389,4390,4391,4392,0,0,0,0,0,0,0,0,0,0,0,0,
1290,0,0,0,0,0,0,0,1149,1150,1151,0,0,0,0,0,0,0,0,1174,1175,1176,0,0,0,0,0,0,0,0,0,0,0,0,0,0,0,0,0,0,0,0,1507,0,0,0,0,0,0,0,0,0,0,0,0,0,0,0,0,4442,4443,4444,4445,4446,4447,4448,4449,4450,0,0,0,0,0,0,0,0,0,0,0,0,
0,0,0,0,0,0,0,0,1174,1175,1176,0,0,0,1121,1122,1123,0,0,1199,1200,1201,0,0,0,0,0,0,0,0,0,0,0,0,1121,1122,1123,0,0,0,0,0,1507,0,0,0,0,0,0,0,0,0,0,0,0,0,0,0,0,0,0,0,0,0,0,0,0,0,0,0,0,0,0,0,0,0,0,0,0,0,
0,0,0,0,0,1121,1122,1123,1199,1200,1201,0,0,0,1146,1147,1148,0,0,1224,1225,1226,0,1121,1122,1123,0,0,0,0,0,0,0,0,1146,1147,1148,0,0,0,0,0,1507,0,0,0,0,0,0,0,0,0,0,0,0,0,0,0,0,0,0,0,0,0,0,0,0,0,0,0,0,0,0,0,0,0,0,0,0,0,
0,0,0,0,0,1146,1147,1148,1224,1225,1226,0,0,0,1171,1172,1173,0,0,1249,1124,1125,1126,1146,1147,1148,0,0,0,0,0,0,0,0,1171,1172,1173,0,0,0,0,0,1507,0,0,0,0,0,0,0,0,0,0,0,0,0,0,0,0,0,0,0,0,0,0,0,0,0,0,0,0,0,0,0,0,0,0,0,0,0,
0,0,0,0,0,1171,1172,1173,1249,1250,1251,0,0,0,1196,1197,1198,0,0,0,1149,1150,1151,1171,1172,1173,0,0,0,0,0,0,0,0,1196,1197,1198,0,0,0,0,0,1532,0,0,0,0,0,0,0,0,0,0,0,0,0,0,0,0,0,0,0,0,0,0,0,0,0,0,0,0,0,0,0,0,0,0,0,0,0,
0,0,0,0,0,1196,1197,1198,0,0,0,0,0,0,0,1222,0,0,0,0,1174,1175,1176,1196,1197,1198,0,0,0,0,0,0,0,0,0,1222,0,0,0,0,0,0,1479,0,0,0,0,0,0,0,0,0,0,0,0,0,0,0,0,0,0,0,0,0,0,0,0,0,0,0,0,0,0,0,0,0,0,0,0,0,
0,0,0,0,0,0,1222,0,0,0,0,0,0,0,0,1247,1124,1125,1126,0,1199,1200,1201,0,1222,0,0,0,0,0,0,0,0,0,0,1247,0,0,0,0,0,0,0,0,0,0,0,0,0,0,0,0,0,0,0,0,0,0,0,0,0,0,0,0,0,0,0,0,0,1124,1125,1126,0,0,0,0,0,0,1138,1139,
1139,1140,1141,1142,0,0,1247,0,0,0,0,0,0,0,0,0,1149,1150,1151,0,1224,1225,1226,0,1247,0,0,0,0,0,0,0,0,0,0,0,0,0,0,0,0,0,0,0,0,0,0,0,0,0,0,0,0,0,0,0,0,0,0,0,0,0,0,0,0,0,0,0,0,1149,1150,1151,0,0,0,0,0,0,0,0,
1164,1165,1166,1167,0,0,0,0,0,0,0,0,0,0,0,0,1174,1175,1176,0,1249,1250,1251,0,0,0,0,0,0,0,0,0,0,0,0,0,0,0,1131,1132,1133,0,0,0,0,0,0,0,0,0,0,0,0,0,0,0,0,0,0,0,0,0,0,0,0,0,0,0,0,1174,1175,1176,0,0,0,0,0,0,0,0,
1189,1190,1191,1192,0,0,0,0,0,0,0,1121,1122,1123,0,0,1199,1200,1201,0,0,0,0,0,0,0,0,0,0,0,0,0,0,0,0,0,0,0,1156,1157,1158,0,0,0,0,0,0,0,0,0,1121,1122,1123,0,0,0,0,0,0,0,0,0,0,0,0,0,0,0,0,1199,1200,1201,0,0,0,0,0,0,0,0,
1214,1215,1216,1217,0,0,0,0,0,0,0,1146,1147,1148,0,0,1224,1225,1226,0,0,0,0,0,0,0,0,0,0,0,0,0,0,0,0,0,0,0,1181,1182,1183,0,1121,1122,1123,0,0,0,0,0,1146,1147,1148,1276,1276,1276,0,0,0,0,0,0,0,0,0,0,0,0,0,1224,1225,1226,0,0,0,0,0,0,0,0,
0,1137,1138,1139,1140,1141,1142,0,0,0,0,1171,1172,1173,0,0,1249,1250,1251,1124,1125,1126,0,0,0,0,0,0,0,0,0,0,0,0,0,0,0,0,1206,1207,1208,0,1146,1147,1148,0,0,0,0,0,1171,1172,1173,1276,1276,1276,0,0,0,0,0,0,0,0,0,0,0,0,0,1249,1250,1251,0,0,0,0,0,0,0,0,
0,1162,1163,1164,1165,1166,1167,0,0,0,0,1196,1197,1198,0,0,0,0,0,1149,1150,1151,1131,1132,1133,0,0,0,0,0,0,0,0,0,0,0,0,0,0,1232,0,0,1171,1172,1173,0,0,0,0,0,1196,1197,1198,1276,1276,1276,0,0,0,0,0,0,0,0,0,0,0,0,0,0,0,0,0,0,0,0,0,0,0,0,
0,1187,1188,1189,1190,1191,1192,0,0,0,0,0,1222,1131,1132,1133,0,0,0,1174,1175,1176,1156,1157,1158,0,0,0,0,0,0,0,0,0,0,0,0,0,0,1257,0,0,1196,1197,1198,1122,1123,0,0,0,0,1222,0,1276,1276,1276,0,0,0,0,1121,1122,1123,0,0,0,0,0,0,0,0,0,0,0,0,0,0,0,0,0,
1124,1125,1126,1214,1215,1216,1217,0,1121,1122,1123,0,1247,1156,1157,1158,1121,1122,1123,1199,1200,1201,1181,1182,1183,0,0,0,0,0,0,0,0,1131,1132,1133,0,0,0,0,0,0,0,1222,1146,1147,1148,0,0,0,0,1247,1121,1122,1123,0,0,0,0,0,1146,1147,1148,0,0,0,0,0,0,0,0,0,0,0,0,0,0,0,0,0,
1149,1150,1151,0,0,0,0,0,1146,1147,1148,0,0,1181,1182,1183,1146,1147,1148,1224,1225,1226,1206,1207,1208,0,0,0,0,0,0,0,0,1156,1157,1158,0,0,0,0,0,0,0,1247,1171,1172,1173,0,0,0,0,0,1146,1147,1148,0,0,1121,1122,1123,1171,1172,1173,0,0,0,0,0,0,0,0,0,0,0,0,0,0,0,0,0,
1174,1175,1176,0,0,0,0,0,1171,1172,1173,0,0,1206,1207,1208,1171,1172,1173,1249,1250,1251,0,1232,0,0,0,0,0,0,0,0,0,1181,1182,1183,0,0,0,0,0,0,0,0,1196,1197,1198,0,1121,1122,1123,0,1171,1172,1173,0,0,1146,1147,1148,1196,1197,1198,0,0,0,0,0,0,0,0,0,0,0,0,0,0,0,0,0,
1199,1200,1201,0,0,0,0,0,1196,1197,1198,0,0,0,1232,0,1196,1197,1198,0,0,0,0,1257,0,0,0,0,0,0,0,0,0,1206,1207,1208,0,0,0,0,0,0,0,0,0,1222,0,0,1146,1147,1148,0,1196,1197,1198,0,0,1171,1172,1173,0,1222,0,0,0,0,0,0,0,0,0,0,0,0,0,0,0,0,0,0,
1224,1225,1226,0,0,0,0,0,0,1222,0,0,0,0,1257,0,0,1222,0,0,0,0,0,0,0,0,0,0,0,0,0,0,0,0,1232,0,0,0,0,0,0,0,0,0,0,1247,0,0,1171,1172,1173,0,0,1222,0,0,0,1196,1197,1198,0,1247,0,0,0,0,0,0,0,0,0,0,0,0,0,0,0,0,0,0,
0,0,0,0,0,0,0,0,0,1247,0,0,0,0,0,0,1131,1132,1133,0,0,0,0,0,0,0,0,0,0,0,0,0,0,0,1257,0,0,0,0,0,0,0,0,0,0,0,0,0,1196,1197,1198,0,0,1247,0,0,0,0,1222,0,0,0,0,0,0,0,0,0,0,0,0,0,0,0,0,0,0,0,0,0,
0,0,0,0,0,0,0,0,0,0,0,0,0,0,0,0,1156,1157,1158,0,0,0,0,0,0,0,0,0,0,0,0,0,0,0,0,0,0,0,0,0,0,1131,1132,1133,0,0,0,0,0,1222,0,0,0,0,0,0,0,0,1247,0,0,0,0,0,0,0,0,0,0,0,0,0,0,0,0,0,0,0,0,0,
0,0,0,0,0,0,0,0,0,0,1131,1132,1133,0,0,0,1181,1182,1183,0,0,0,0,0,0,0,0,0,0,0,0,0,0,0,0,0,0,0,0,0,0,1156,1157,1158,0,0,0,0,0,1247,0,0,0,0,0,0,0,0,0,0,0,0,0,0,0,0,0,0,0,0,0,0,0,0,0,0,0,0,0,0,
0,0,0,0,0,0,0,0,0,0,1156,1157,1158,0,0,0,1206,1207,1208,0,0,0,0,0,0,0,0,0,0,0,0,0,0,0,0,0,0,0,0,0,0,1181,1182,1183,0,0,0,0,0,0,0,0,0,0,0,0,0,0,0,0,0,0,0,0,0,0,0,0,0,0,0,0,0,0,0,0,0,0,0,0,
0,0,0,0,0,0,0,0,0,0,1181,1182,1183,0,0,0,0,1232,0,0,0,0,0,0,0,0,0,0,0,0,0,0,0,0,0,0,0,0,0,0,0,1206,1207,1208,0,0,0,0,0,0,0,0,0,0,0,0,0,0,0,0,0,0,0,0,0,0,0,0,1124,1125,1126,0,0,0,0,0,0,0,0,0,
0,0,0,0,0,0,0,0,1131,1132,1206,1207,1208,0,0,0,0,1257,0,0,0,0,0,0,0,0,0,0,0,0,0,0,0,0,0,0,0,0,0,0,0,0,1232,0,0,0,0,0,0,0,0,0,0,0,0,0,0,0,0,0,0,0,0,0,0,0,0,0,1149,1150,1151,0,0,0,0,0,0,0,0,0,
0,0,0,0,0,0,0,0,1156,1157,1158,1232,0,0,0,0,0,0,0,0,0,0,0,0,0,0,0,0,0,0,0,0,0,0,0,0,0,0,0,0,0,0,1257,0,0,0,0,0,0,0,0,0,0,0,0,0,0,0,0,0,0,0,0,0,0,0,0,0,1174,1175,1176,0,0,0,0,0,0,1137,1138,1139,
0,0,0,0,0,0,0,0,1181,1182,1183,1257,0,0,0,0,0,0,0,0,0,0,0,0,0,0,0,0,0,0,0,0,0,0,0,0,0,0,0,0,0,0,0,0,0,0,0,0,0,0,0,0,0,0,0,0,0,0,0,0,0,0,0,0,0,0,0,0,1199,1200,1201,0,0,0,0,0,0,0,1163,1164,
0,0,0,0,0,0,1131,1132,1206,1207,1208,0,0,0,0,0,0,0,0,0,0,0,0,0,0,0,0,0,0,0,0,0,0,0,0,0,0,0,0,0,0,0,0,0,0,0,0,0,0,0,0,0,0,0,0,0,0,0,0,0,0,0,0,0,0,0,0,0,1224,1225,1226,0,0,0,0,0,0,0,1188,1189,
0,0,0,0,0,0,1156,1157,1158,1232,0,0,0,0,0,0,0,0,0,0,0,0,0,0,1131,1132,1133,0,0,0,0,0,0,0,0,0,0,0,0,0,0,0,0,0,0,0,0,0,0,0,0,0,0,0,0,0,0,0,0,0,0,0,0,0,0,0,0,0,1249,1250,1251,0,0,0,0,0,0,0,1213,1214,
0,0,0,0,0,0,1181,1182,1183,1257,0,0,0,0,0,0,0,0,0,0,0,0,0,0,1156,1157,1158,0,0,0,0,0,0,0,0,0,0,0,0,0,0,0,0,0,0,0,0,0,0,0,0,0,0,0,0,0,0,0,0,0,0,0,0,0,0,0,0,0,0,0,0,0,0,0,0,0,0,1237,0,1239,
0,0,0,0,0,0,1206,1207,1208,0,0,0,0,0,0,0,0,0,0,0,0,0,0,0,1181,1182,1183,0,0,0,0,0,0,0,0,0,0,0,0,0,0,0,1131,1132,1133,0,0,0,0,0,0,0,0,0,0,0,0,0,0,0,0,0,0,0,0,0,0,0,0,0,0,0,0,0,0,0,0,0,0,1264,
0,0,0,0,0,0,0,1232,0,0,0,0,0,0,0,0,0,0,0,0,0,0,0,0,1206,1207,1208,0,0,0,0,0,0,0,0,0,0,0,0,0,0,0,1156,1157,1158,0,0,0,0,0,0,0,0,0,0,0,0,0,0,0,0,0,0,0,0,0,0,0,0,0,0,0,0,0,0,0,0,0,0,1289,
0,0,0,0,0,0,0,1257,0,0,1131,1132,1133,0,0,0,0,0,0,0,0,0,1131,1132,1133,1232,0,0,0,0,0,0,0,0,0,0,0,0,0,0,0,0,1181,1182,1183,0,0,0,0,0,0,0,0,0,0,0,0,0,0,0,0,0,0,0,0,0,0,0,0,0,0,0,0,0,0,0,0,0,0,0,
0,0,0,0,0,0,0,0,0,0,1156,1157,1158,0,0,0,0,0,0,0,0,0,1156,1157,1158,1257,0,1131,1276,1133,0,0,0,0,0,0,0,0,0,0,0,0,1206,1207,1208,0,0,0,0,0,0,0,0,0,0,0,0,0,0,0,0,0,0,0,0,0,0,0,0,0,0,0,0,0,0,0,0,0,0,0,
0,0,0,0,0,0,0,0,0,0,1181,1182,1183,0,0,0,0,0,0,0,0,0,1181,1182,1183,0,0,1276,1276,1276,0,0,0,0,0,0,0,0,0,0,0,0,0,1232,0,0,0,0,0,0,0,0,0,0,0,0,0,0,0,0,0,0,0,0,0,0,0,0,0,0,0,0,0,0,0,0,0,0,0,0,
0,0,0,0,0,0,0,0,0,0,1206,1207,1208,0,0,0,0,0,0,0,0,0,1206,1207,1208,1131,1132,1133,1276,1276,0,0,0,0,0,0,0,0,0,0,0,0,0,1257,0,0,0,0,0,0,0,0,0,0,0,0,0,0,0,0,0,0,0,0,0,0,0,0,0,0,0,0,0,0,0,0,0,0,0,0,
0,0,0,0,0,0,0,0,0,0,0,1232,0,0,0,0,0,1276,1276,1276,0,0,0,1232,0,1156,1157,1158,1276,1276,0,0,0,0,0,0,0,0,0,0,0,0,0,0,0,0,0,0,0,0,0,0,0,0,0,0,0,0,0,0,0,0,0,0,0,0,0,0,0,0,0,0,0,0,0,0,0,0,0,0,
0,0,0,0,0,0,0,0,0,0,0,1257,0,0,0,0,1276,1276,1276,1276,0,0,0,1257,0,1181,1182,1183,1276,1276,0,0,0,0,0,0,0,0,0,0,0,0,0,0,0,0,0,0,0,0,0,0,0,0,0,0,0,0,0,0,0,0,0,0,0,0,0,0,0,0,0,0,0,0,0,0,0,0,0,0,
0,0,0,0,0,0,0,0,0,0,0,0,0,0,0,0,1276,1276,1276,1276,1276,0,0,0,0,1206,1207,1208,1276,1276,0,0,0,0,0,0,0,0,0,0,0,0,0,0,0,0,0,0,0,0,0,0,0,0,0,0,0,0,0,0,0,0,0,0,0,0,0,0,0,0,0,0,0,0,0,0,0,0,0,0,
0,0,0,0,0,0,0,0,0,0,0,0,0,0,0,0,0,1276,1276,1276,0,0,0,0,0,0,1232,0,0,0,0,0,0,0,0,0,0,0,0,0,0,0,0,0,0,0,0,0,0,0,0,0,0,0,0,0,0,0,0,0,0,0,0,0,0,0,0,0,0,0,0,0,0,0,0,0,0,1121,1122,1123,
0,0,0,0,0,0,0,0,0,0,0,0,0,0,0,0,0,0,1131,1132,1133,0,0,0,0,0,1257,0,0,0,0,0,0,0,0,0,0,0,0,0,0,0,0,0,0,0,0,0,0,0,0,0,0,0,0,0,0,0,0,0,0,0,0,0,0,0,0,0,0,0,0,0,0,0,0,0,0,1146,1147,1148,
0,0,0,0,0,0,1131,1132,1133,0,0,0,0,0,0,0,0,0,1156,1157,1158,0,0,0,0,0,0,0,0,0,1131,1132,1133,0,0,0,0,0,0,0,0,0,0,0,0,0,0,0,0,0,0,0,0,0,0,0,0,0,0,0,0,0,0,0,0,0,0,0,0,0,0,0,0,0,1124,1125,1126,1171,1172,1173,
0,0,0,0,0,0,1156,1157,1158,1131,1132,1133,0,0,0,0,0,0,1181,1182,1183,0,0,0,0,0,0,0,0,0,1156,1157,1158,0,0,0,0,0,0,0,0,0,0,0,0,0,0,0,0,0,0,0,0,0,0,0,0,0,0,0,0,0,0,0,0,0,0,0,0,0,0,0,0,0,1149,1150,1151,1196,1197,1198,
0,0,0,0,0,0,1181,1182,1183,1156,1157,1158,0,0,0,0,0,0,1206,1207,1208,0,1131,1132,1133,0,0,0,0,0,1181,1182,1183,0,0,0,0,0,0,0,0,0,0,0,0,0,0,0,0,0,0,0,0,0,0,0,0,0,0,0,0,0,0,0,0,0,0,0,0,0,0,1124,1125,1126,1174,1175,1176,0,0,0,
0,0,0,0,0,0,1206,1207,1208,1181,1182,1183,0,0,0,0,0,0,0,1232,0,0,1156,1157,1158,0,0,0,0,0,1206,1207,1208,0,0,0,0,0,0,0,0,0,0,0,0,0,0,0,0,0,0,0,0,0,0,0,0,0,0,0,0,0,0,0,0,0,0,0,0,0,0,1149,1150,1151,1199,1200,1201,0,0,0,
0,1136,0,0,0,0,0,1232,0,1206,1207,1208,0,0,0,0,0,0,0,1257,0,0,1181,1182,1183,0,0,0,0,0,0,1232,0,0,0,0,0,0,0,0,0,0,0,0,0,0,0,0,0,0,0,0,0,0,0,0,0,0,0,0,0,0,0,0,0,0,0,0,0,0,0,1174,1175,1176,1224,1225,1226,0,0,0,
1139,1140,0,0,0,0,0,1257,0,0,1232,0,0,0,0,0,0,0,0,0,0,0,1206,1207,1208,0,0,0,0,0,0,1257,0,0,0,0,0,0,0,0,0,0,0,0,0,0,0,0,0,0,0,0,0,0,0,0,0,0,0,0,0,0,0,0,0,0,1137,1138,1139,1140,1141,1199,1200,1201,1249,1250,1251,0,0,0,
1164,1165,0,0,0,0,0,0,0,0,1257,0,0,0,0,0,0,0,0,0,0,0,0,1232,0,0,0,0,0,0,0,0,0,0,0,0,0,0,0,0,0,0,0,0,0,0,0,0,0,0,0,0,0,0,0,0,0,0,0,0,0,0,0,0,0,0,1162,1163,1164,1165,1166,1167,1225,1226,0,0,0,0,0,0,
1189,1190,0,0,0,0,0,0,0,0,0,0,0,0,0,0,0,0,0,0,0,0,0,1257,0,0,0,0,0,0,0,0,0,0,0,0,0,0,0,0,0,0,0,0,0,0,0,0,0,0,0,0,1137,1138,1139,1140,1139,1140,1141,1142,1137,1138,1139,1140,1141,1142,1187,1188,1189,1190,1191,1192,1250,1440,0,0,0,0,0,0,
1214,1215,0,0,0,1137,1138,1139,1140,1141,1142,0,0,0,0,0,0,0,1124,1125,1126,0,0,0,0,0,0,0,0,0,1124,1125,1126,1137,1138,1139,1140,1139,1140,1141,1142,1137,1138,1139,1140,1141,1142,0,0,0,0,0,1162,1163,1164,1165,1164,1165,1166,1167,1162,1163,1164,1165,1166,1167,1212,1213,1214,1215,1216,1217,1121,1122,1123,0,0,0,0,0,
1239,1240,1482,1479,1480,1480,1163,1164,1165,1166,1481,1482,0,0,0,0,1378,0,1149,1150,1151,1121,1122,1123,1428,1378,0,0,0,0,1149,1150,1151,1162,1163,1164,1165,1164,1165,1166,1167,1162,1163,1164,1165,1166,1167,0,0,1124,1125,1126,1187,1188,1189,1190,1189,1190,1191,1192,1187,1188,1189,1190,1191,1192,0,0,1239,1240,0,1378,1146,1147,1148,0,0,0,0,0,
1264,1265,0,0,0,1187,1188,1189,1190,1191,1192,1137,1138,1139,1140,1141,0,0,1174,1175,1176,1146,1147,1148,1378,0,0,1121,1122,1123,1174,1175,1176,1187,1188,1189,1190,1189,1190,1191,1192,1187,1188,1189,1190,1191,1192,0,0,1149,1150,1151,1212,1213,1214,1215,1214,1215,1216,1217,1212,1213,1214,1215,1216,1217,0,0,0,0,1428,0,1171,1172,1173,0,0,0,0,0,
1289,1290,0,0,0,1212,1213,1214,1215,1216,1217,1162,1163,1164,1165,1166,1167,0,1199,1200,1201,1171,1172,1173,0,0,0,1146,1147,1148,1199,1200,1201,1212,1213,1214,1215,1214,1215,1216,1217,1212,1213,1214,1215,1216,1217,0,0,1174,1175,1176,0,0,1239,1240,1239,1240,0,0,0,0,1239,1240,0,0,1174,1175,1176,0,0,0,1196,1197,1198,0,0,0,0,0
</data>
 </layer>
 <objectgroup id="11" name="AlwaysFront"/>
 <layer id="6" name="AlwaysFront2" width="80" height="65">
  <data encoding="csv">
0,0,0,0,0,0,0,0,0,0,0,0,0,0,0,0,0,0,0,0,0,0,0,0,0,0,0,0,0,0,0,0,0,0,0,0,0,0,0,0,0,0,0,0,0,0,0,0,0,0,0,0,0,0,0,0,0,0,0,0,0,0,0,0,0,0,0,0,0,0,0,0,0,0,0,0,0,0,0,0,
0,0,0,0,0,0,0,0,0,0,0,0,0,0,0,0,0,0,0,0,0,0,0,0,0,0,0,0,0,0,0,0,0,0,0,0,0,0,0,0,0,0,0,0,0,0,0,0,0,0,0,0,0,0,0,0,0,0,0,0,0,0,0,0,0,0,0,0,0,0,0,0,0,0,0,0,0,0,0,0,
0,0,0,0,0,0,0,0,0,0,0,0,0,0,0,0,0,0,0,0,0,0,0,0,0,0,0,0,0,0,0,0,0,0,0,0,0,0,0,0,0,0,0,0,0,0,0,0,0,0,0,0,0,0,0,0,0,0,0,0,0,0,0,0,0,0,0,0,0,0,0,0,0,0,0,0,0,0,0,0,
0,0,0,0,0,0,0,0,0,0,0,0,0,0,0,0,0,0,0,0,0,0,0,0,0,0,0,0,0,0,0,0,0,0,0,0,0,0,0,0,0,0,0,0,0,0,0,0,0,0,0,0,0,0,0,0,0,0,0,0,0,0,0,0,0,0,0,0,0,0,0,0,0,0,0,0,0,0,0,0,
0,0,0,0,0,0,0,0,0,0,0,0,0,0,0,0,0,0,0,0,0,0,0,0,0,0,0,0,0,0,0,0,0,0,0,0,0,0,0,0,0,0,0,0,0,0,0,0,0,0,0,0,0,0,0,0,0,0,0,0,0,0,0,0,0,0,0,0,0,0,0,0,0,0,0,0,0,0,0,0,
0,0,0,0,0,0,0,0,0,0,0,0,0,0,0,0,0,0,0,0,0,0,0,0,0,0,0,0,0,0,0,0,0,0,0,0,0,0,0,0,0,0,0,0,0,0,0,0,0,0,0,0,0,0,0,0,0,0,0,0,0,0,0,0,0,0,0,0,0,0,0,0,0,0,0,0,0,0,0,0,
0,0,0,0,0,0,0,0,0,0,0,0,0,0,0,0,0,0,0,0,0,0,0,0,0,0,0,0,0,0,0,0,0,0,0,0,0,0,0,0,0,0,0,0,0,0,0,0,0,0,0,0,0,0,0,0,0,0,0,0,0,0,0,0,0,0,0,0,0,0,0,0,0,0,0,0,0,0,0,0,
0,0,0,0,0,0,0,0,0,0,0,0,0,0,0,0,0,0,0,0,0,0,0,0,0,0,0,0,0,0,0,0,0,0,0,0,0,0,0,0,0,0,0,0,0,0,0,0,0,0,0,0,0,0,0,0,0,0,0,0,0,0,0,0,0,0,0,0,0,0,0,0,0,0,0,0,0,0,0,0,
0,0,0,0,0,0,0,0,0,0,0,0,0,0,0,0,0,0,0,0,0,0,0,0,0,0,0,0,0,0,0,0,0,0,0,0,0,0,0,0,0,0,0,0,0,0,0,0,0,0,0,0,0,0,0,0,0,0,0,0,0,0,0,0,0,0,0,0,0,0,0,0,0,0,0,0,0,0,0,0,
0,0,0,0,0,0,0,0,0,0,0,0,0,0,0,0,0,0,0,0,0,0,0,0,0,0,0,0,0,0,0,0,0,0,0,0,0,0,0,0,0,0,0,0,0,0,0,0,0,0,0,0,0,0,0,0,0,0,0,0,0,0,0,0,0,0,0,0,0,0,0,0,0,0,0,0,0,0,0,0,
0,0,0,0,0,0,0,0,0,0,0,0,0,0,0,0,0,0,0,0,0,0,0,0,0,0,0,0,0,0,0,0,0,0,0,0,0,0,0,0,0,0,0,0,0,0,0,0,0,0,0,0,0,0,0,0,0,0,0,0,0,0,0,0,0,0,0,0,0,0,0,0,0,0,0,0,0,0,0,0,
0,0,0,0,0,0,0,0,0,0,0,0,0,0,0,0,0,0,0,0,0,0,0,0,0,0,0,0,0,0,0,0,0,0,0,0,0,0,0,0,0,0,0,0,0,0,0,0,0,0,0,0,0,0,0,0,0,0,0,0,0,0,0,0,0,0,0,0,0,0,0,0,0,0,0,0,0,0,0,0,
0,0,0,0,0,0,0,0,0,0,0,0,0,0,0,0,0,0,0,0,0,0,0,0,0,0,0,0,0,0,0,0,0,0,0,0,0,0,0,0,0,0,0,0,0,0,0,0,0,0,0,0,0,0,0,0,0,0,0,0,0,0,0,0,0,0,0,0,0,0,0,0,0,0,0,0,0,0,0,0,
0,0,0,0,0,0,0,0,0,0,0,0,0,0,0,0,0,0,0,0,0,0,0,0,0,0,0,0,0,0,0,0,0,0,0,0,0,0,0,0,0,0,0,0,0,0,0,0,0,0,0,0,0,0,0,0,0,0,0,0,0,0,0,0,0,0,0,0,0,0,0,0,0,0,0,0,0,0,0,0,
0,0,0,0,0,0,0,0,0,0,0,0,0,0,0,0,0,0,0,0,0,0,0,0,0,0,0,0,0,0,0,0,0,0,0,0,0,0,0,0,0,0,0,0,0,0,0,0,0,0,0,0,0,0,0,0,0,0,0,0,0,0,0,0,0,0,0,0,0,0,0,0,0,0,0,0,0,0,0,0,
0,0,0,0,0,0,0,0,0,0,0,0,0,0,0,0,0,0,0,0,0,0,0,0,0,0,0,0,0,0,0,0,0,0,0,0,0,0,0,0,0,0,0,0,0,0,0,0,0,0,0,0,0,0,0,0,0,0,0,0,0,0,0,0,0,0,0,0,0,0,0,0,0,0,0,0,0,0,0,0,
0,0,0,0,0,0,0,0,0,0,0,0,0,0,0,0,0,0,0,0,0,0,0,0,0,0,0,0,0,0,0,0,0,0,0,0,0,0,0,0,0,0,0,0,0,0,0,0,0,0,0,0,0,0,0,0,0,0,0,0,0,0,0,0,0,0,0,0,0,0,0,0,0,0,0,0,0,0,0,0,
0,0,0,0,0,0,0,0,0,0,0,0,0,0,0,0,0,0,0,0,0,0,0,0,0,0,0,0,0,0,0,0,0,0,0,0,0,0,0,0,0,0,0,0,0,0,0,0,0,0,0,0,0,0,0,0,0,0,0,0,0,0,0,0,0,0,0,0,0,0,0,0,0,0,0,0,0,0,0,0,
0,0,0,0,0,0,0,0,0,0,0,0,0,0,0,0,0,0,0,0,0,0,0,0,0,0,0,0,0,0,0,0,0,0,0,0,0,0,0,0,0,0,0,0,0,0,0,0,0,0,0,0,0,0,0,0,0,0,0,0,0,0,0,0,0,0,0,0,0,0,0,0,0,0,0,0,0,0,0,0,
0,0,0,0,0,0,0,0,0,0,0,0,0,0,0,0,0,0,0,0,0,0,0,0,0,0,0,0,0,0,0,0,0,0,0,0,0,0,0,0,0,0,0,0,0,0,0,0,0,0,0,0,0,0,0,0,0,0,0,0,0,0,0,0,0,0,0,0,0,0,0,0,0,0,0,0,0,0,0,0,
0,0,0,0,0,0,0,0,0,0,0,0,0,0,0,0,0,0,0,0,0,0,0,0,0,0,0,0,0,0,0,0,0,0,0,0,0,0,0,0,0,0,0,0,0,0,0,0,0,0,0,0,0,0,0,0,0,0,0,0,0,0,0,0,0,0,0,0,0,0,0,0,0,0,0,0,0,0,0,0,
0,0,0,0,0,0,0,0,0,0,0,0,0,0,0,0,0,0,0,0,0,0,0,0,0,0,0,0,0,0,0,0,0,0,0,0,0,0,0,0,0,0,0,0,0,0,0,0,0,0,0,0,0,0,0,0,0,0,0,0,0,0,0,0,0,0,0,0,0,0,0,0,0,0,0,0,0,0,0,0,
0,0,0,0,0,0,0,0,0,0,0,0,0,0,0,0,0,0,0,0,0,0,0,0,0,0,0,0,0,0,0,0,0,0,0,0,0,0,0,0,0,0,0,0,0,0,0,0,0,0,0,0,0,0,0,0,0,0,0,0,0,0,0,0,0,0,0,0,0,0,0,0,0,0,0,0,0,0,0,0,
0,0,0,0,0,0,0,0,0,0,0,0,0,0,0,0,0,0,0,0,0,0,0,0,0,0,0,0,0,0,0,0,0,0,0,0,0,0,0,0,0,0,0,0,0,0,0,0,0,0,0,0,0,0,0,0,0,0,0,0,0,0,0,0,0,0,0,0,0,0,0,0,0,0,0,0,0,0,0,0,
0,0,0,0,0,0,0,0,0,0,0,0,0,0,0,0,0,0,0,0,0,0,0,0,0,0,0,0,0,0,0,0,0,0,0,0,0,0,0,0,0,0,0,0,0,0,0,0,0,0,0,0,0,0,0,0,0,0,0,0,0,0,0,0,0,0,0,0,0,0,0,0,0,0,0,0,0,0,0,0,
0,0,0,0,0,0,0,0,0,0,0,0,0,0,0,0,0,0,0,0,0,0,0,0,0,0,0,0,0,0,0,0,0,0,0,0,0,0,0,0,0,0,0,0,0,0,0,0,0,0,0,0,0,0,0,0,0,0,0,0,0,0,0,0,0,0,0,0,0,0,0,0,0,0,0,0,0,0,0,0,
0,0,0,0,0,0,0,0,0,0,0,0,0,0,0,0,0,0,0,0,0,0,0,0,0,0,0,0,0,0,0,0,0,0,0,0,0,0,0,0,0,0,0,0,0,0,0,0,0,0,0,0,0,0,0,0,0,0,0,0,0,0,0,0,0,0,0,0,0,0,0,0,0,0,0,0,0,0,0,0,
0,0,0,0,0,0,0,0,0,0,0,0,0,0,0,0,0,0,0,0,0,0,0,0,0,0,0,0,0,0,0,0,0,0,0,0,0,0,0,0,0,0,0,0,0,0,0,0,0,0,0,0,0,0,0,0,0,0,0,0,0,0,0,0,0,0,0,0,0,0,0,0,0,0,0,0,0,0,0,0,
0,0,0,0,0,0,0,0,0,0,0,0,0,0,0,0,0,0,0,0,0,0,0,0,0,0,0,0,0,0,0,0,0,0,0,0,0,0,0,0,0,0,0,0,0,0,0,0,0,0,0,0,0,0,0,0,0,0,0,0,0,0,0,0,0,0,0,0,0,0,0,0,0,0,0,0,0,0,0,0,
0,0,0,0,0,0,0,0,0,0,0,0,0,0,0,0,0,0,0,0,0,0,0,0,0,0,0,0,0,0,0,0,0,0,0,0,0,0,0,0,0,0,0,0,0,0,0,0,0,0,0,0,0,0,0,0,0,0,0,0,0,0,0,0,0,0,0,0,0,0,0,0,0,0,0,0,0,0,0,0,
0,0,0,0,0,0,0,0,0,0,0,0,0,0,0,0,0,0,0,0,0,0,0,0,0,0,0,0,0,0,0,0,0,0,0,0,0,0,0,0,0,0,0,0,0,0,0,0,0,0,0,0,0,0,0,0,0,0,0,0,0,0,0,0,0,0,0,0,0,0,0,0,0,0,0,0,0,0,0,0,
0,0,0,0,0,0,0,0,0,0,0,0,0,0,0,0,0,0,0,0,0,0,0,0,0,0,0,0,0,0,0,0,0,0,0,0,0,0,0,0,0,0,0,0,0,0,0,0,0,0,0,0,0,0,0,0,0,0,0,0,0,0,0,0,0,0,0,0,0,0,0,0,0,0,0,0,0,0,0,0,
0,0,0,0,0,0,0,0,0,0,0,0,0,0,0,0,0,0,0,0,0,0,0,0,0,0,0,0,0,0,0,0,0,0,0,0,0,0,0,0,0,0,0,0,0,0,0,0,0,0,0,0,0,0,0,0,0,0,0,0,0,0,0,0,0,0,0,0,0,0,0,0,0,0,0,0,0,0,0,0,
0,0,0,0,0,0,0,0,0,0,0,0,0,0,0,0,0,0,0,0,0,0,0,0,0,0,0,0,0,0,0,0,0,0,0,0,0,0,0,0,0,0,0,0,0,0,0,0,0,0,0,0,0,0,0,0,0,0,0,0,0,0,0,0,0,0,0,0,0,0,0,0,0,0,0,0,0,0,0,0,
0,0,0,0,0,0,0,0,0,0,0,0,0,0,0,0,0,0,0,0,0,0,0,0,0,0,0,0,0,0,0,0,0,0,0,0,0,0,0,0,0,0,0,0,0,0,0,0,0,0,0,0,0,0,0,0,0,0,0,0,0,0,0,0,0,0,0,0,0,0,0,0,0,0,0,0,0,0,0,0,
0,0,0,0,0,0,0,0,0,0,0,0,0,0,0,0,0,0,0,0,0,0,0,0,0,0,0,0,0,0,0,0,0,0,0,0,0,0,0,0,0,0,0,0,0,0,0,0,0,0,0,0,0,0,0,0,0,0,0,0,0,0,0,0,0,0,0,0,0,0,0,0,0,0,0,0,0,0,0,0,
0,0,0,0,0,0,0,0,0,0,0,0,0,0,0,0,0,0,0,0,0,0,0,0,0,0,0,0,0,0,0,0,0,0,0,0,0,0,0,0,0,0,0,0,0,0,0,0,0,0,0,0,0,0,0,0,0,0,0,0,0,0,0,0,0,0,0,0,0,0,0,0,0,0,0,0,0,0,0,0,
0,0,0,0,0,0,0,0,0,0,0,0,0,0,0,0,0,0,0,0,0,0,0,0,0,0,0,0,0,0,0,0,0,0,0,0,0,0,0,0,0,0,0,0,0,0,0,0,0,0,0,0,0,0,0,0,0,0,0,0,0,0,0,0,0,0,0,0,0,0,0,0,0,0,0,0,0,0,0,0,
0,0,0,0,0,0,0,0,0,0,0,0,0,0,0,0,0,0,0,0,0,0,0,0,0,0,0,0,0,0,0,0,0,0,0,0,0,0,0,0,0,0,0,0,0,0,0,0,0,0,0,0,0,0,0,0,0,0,0,0,0,0,0,0,0,0,0,0,0,0,0,0,0,0,0,0,0,0,0,0,
0,0,0,0,0,0,0,0,0,0,0,0,0,0,0,0,0,0,0,0,0,0,0,0,0,0,0,0,0,0,0,0,0,0,0,0,0,0,0,0,0,0,0,0,0,0,0,0,0,0,0,0,0,0,0,0,0,0,0,0,0,0,0,0,0,0,0,0,0,0,0,0,0,0,0,0,0,0,0,0,
0,0,0,0,0,0,0,0,0,0,0,0,0,0,0,0,0,0,0,0,0,0,0,0,0,0,0,0,0,0,0,0,0,0,0,0,0,0,0,0,0,0,0,0,0,0,0,0,0,0,0,0,0,0,0,0,0,0,0,0,0,0,0,0,0,0,0,0,0,0,0,0,0,0,0,0,0,0,0,0,
0,0,0,0,0,0,0,0,0,0,0,0,0,0,0,0,0,0,0,0,0,0,0,0,0,0,0,0,0,0,0,0,0,0,0,0,0,0,0,0,0,0,0,0,0,0,0,0,0,0,0,0,0,0,0,0,0,0,0,0,0,0,0,0,0,0,0,0,0,0,0,0,0,0,0,0,0,0,0,0,
0,0,0,0,0,0,0,0,0,0,0,0,0,0,0,0,0,0,0,0,0,0,0,0,0,0,0,0,0,0,0,0,0,0,0,0,0,0,0,0,0,0,0,0,0,0,0,0,0,0,0,0,0,0,0,0,0,0,0,0,0,0,0,0,0,0,0,0,0,0,0,0,0,0,0,0,0,0,0,0,
0,0,0,0,0,0,0,0,0,0,0,0,0,0,0,0,0,0,0,0,0,0,0,0,0,0,0,0,0,0,0,0,0,0,0,0,0,0,0,0,0,0,0,0,0,0,0,0,0,0,0,0,0,0,0,0,0,0,0,0,0,0,0,0,0,0,0,0,0,0,0,0,0,0,0,0,0,0,0,0,
0,0,0,0,0,0,0,0,0,0,0,0,0,0,0,0,0,0,0,0,0,0,0,0,0,0,0,0,0,0,0,0,0,0,0,0,0,0,0,0,0,0,0,0,0,0,0,0,0,0,0,0,0,0,0,0,0,0,0,0,0,0,0,0,0,0,0,0,0,0,0,0,0,0,0,0,0,0,0,0,
0,0,0,0,0,0,0,0,0,0,0,0,0,0,0,0,0,0,0,0,0,0,0,0,0,0,0,0,0,0,0,0,0,0,0,0,0,0,0,0,0,0,0,0,0,0,0,0,0,0,0,0,0,0,0,0,0,0,0,0,0,0,0,0,0,0,0,0,0,0,0,0,0,0,0,0,0,0,0,0,
0,0,0,0,0,0,0,0,0,0,0,0,0,0,0,0,0,0,0,0,0,0,0,0,0,0,0,0,0,0,0,0,0,0,0,0,0,0,0,0,0,0,0,0,0,0,0,0,0,0,0,0,0,0,0,0,0,0,0,0,0,0,0,0,0,0,0,0,0,0,0,0,0,0,0,0,0,0,0,0,
0,0,0,0,0,0,0,0,0,0,0,0,0,0,0,0,0,0,0,0,0,0,0,0,0,0,0,0,0,0,0,0,0,0,0,0,0,0,0,0,0,0,0,0,0,0,0,0,0,0,0,0,0,0,0,0,0,0,0,0,0,0,0,0,0,0,0,0,0,0,0,0,0,0,0,0,0,0,0,0,
0,0,0,0,0,0,0,0,0,0,0,0,0,0,0,0,0,0,0,0,0,0,0,0,0,0,0,0,0,0,0,0,0,0,0,0,0,0,0,0,0,0,0,0,0,0,0,0,0,0,0,0,0,0,0,0,0,0,0,0,0,0,0,0,0,0,0,0,0,0,0,0,0,0,0,0,0,0,0,0,
0,0,0,0,0,0,0,0,0,0,0,0,0,0,0,0,0,0,0,0,0,0,0,0,0,0,0,0,0,0,0,0,0,0,0,0,0,0,0,0,0,0,0,0,0,0,0,0,0,0,0,0,0,0,0,0,0,0,0,0,0,0,0,0,0,0,0,0,0,0,0,0,0,0,0,0,0,0,0,0,
0,0,0,0,0,0,0,0,0,0,0,0,0,0,0,0,0,0,0,0,0,0,0,0,0,0,0,0,0,0,0,0,0,0,0,0,0,0,0,0,0,0,0,0,0,0,0,0,0,0,0,0,0,0,0,0,0,0,0,0,0,0,0,0,0,0,0,0,0,0,0,0,0,0,0,0,0,0,0,0,
0,0,0,0,0,0,0,0,0,0,0,0,0,0,0,0,0,0,0,0,0,0,0,0,0,0,0,0,0,0,0,0,0,0,0,0,0,0,0,0,0,0,0,0,0,0,0,0,0,0,0,0,0,0,0,0,0,0,0,0,0,0,0,0,0,0,0,0,0,0,0,0,0,0,0,0,0,0,0,0,
0,0,0,0,0,0,0,0,0,0,0,0,0,0,0,0,0,0,0,0,0,0,0,0,0,0,0,0,0,0,0,0,0,0,0,0,0,0,0,0,0,0,0,0,0,0,0,0,0,0,0,0,0,0,0,0,0,0,0,0,0,0,0,0,0,0,0,0,0,0,0,0,0,0,0,0,0,0,0,0,
0,0,0,0,0,0,0,0,0,0,0,0,0,0,0,0,0,0,0,0,0,0,0,0,0,0,0,0,0,0,0,0,0,0,0,0,0,0,0,0,0,0,0,0,0,0,0,0,0,0,0,0,0,0,0,0,0,0,0,0,0,0,0,0,0,0,0,0,0,0,0,0,0,0,0,0,0,0,0,0,
0,0,0,0,0,0,0,0,0,0,0,0,0,0,0,0,0,0,0,0,0,0,0,0,0,0,0,0,0,0,0,0,0,0,0,0,0,0,0,0,0,0,0,0,0,0,0,0,0,0,0,0,0,0,0,0,0,0,0,0,0,0,0,0,0,0,0,0,0,0,0,0,0,0,0,0,0,0,0,0,
0,0,0,0,0,0,0,0,0,0,0,0,0,0,0,0,0,0,0,0,0,0,0,0,0,0,0,0,0,0,0,0,0,0,0,0,0,0,0,0,0,0,0,0,0,0,0,0,0,0,0,0,0,0,0,0,0,0,0,0,0,0,0,0,0,0,0,0,0,0,0,0,0,0,0,0,0,0,0,0,
0,0,0,0,0,0,0,0,0,0,0,0,0,0,0,0,0,0,0,0,0,0,0,0,0,0,0,0,0,0,0,0,0,0,0,0,0,0,0,0,0,0,0,0,0,0,0,0,0,0,0,0,0,0,0,0,0,0,0,0,0,0,0,0,0,0,0,0,0,0,0,0,0,0,0,0,0,0,0,0,
0,0,0,0,0,0,0,0,0,0,0,0,0,0,0,0,0,0,0,0,0,0,0,0,0,0,0,0,0,0,0,0,0,0,0,0,0,0,0,0,0,0,0,0,0,0,0,0,0,0,0,0,0,0,0,0,0,0,0,0,0,0,0,0,0,0,0,0,0,0,0,0,0,0,0,0,0,0,0,0,
0,0,1141,1142,0,0,0,0,0,0,0,0,0,0,0,0,0,0,0,0,0,0,0,0,0,0,0,0,0,0,0,0,0,0,0,0,0,0,0,0,0,0,0,0,0,0,0,0,0,0,0,0,0,0,0,0,0,0,0,0,0,0,0,0,0,0,0,0,0,0,0,0,0,0,0,0,0,0,0,0,
0,0,1166,1167,0,0,0,0,0,0,0,0,0,0,0,0,0,0,0,0,0,0,0,0,0,0,0,0,0,0,0,0,0,0,0,0,0,0,0,0,0,0,0,0,0,0,0,0,0,0,0,0,0,0,0,0,0,0,0,0,0,0,0,0,0,0,0,0,0,0,0,0,0,0,0,0,0,0,0,0,
0,0,1191,1192,0,0,0,0,0,0,0,0,0,0,0,0,0,0,0,0,0,0,0,0,0,0,0,0,0,0,0,0,0,0,0,0,0,0,0,0,0,0,0,0,0,0,0,0,0,0,0,0,0,0,0,0,0,0,0,0,0,0,0,0,0,0,0,0,0,0,0,0,0,0,0,0,0,0,0,0,
0,0,1216,1217,0,0,0,0,0,0,0,0,0,0,0,0,0,0,0,0,0,0,0,0,0,0,0,0,0,0,0,0,0,0,0,0,0,0,0,0,0,0,0,0,0,0,0,0,0,0,0,0,0,0,0,0,0,0,0,0,0,0,0,0,0,0,0,0,0,0,0,0,0,0,0,0,0,0,0,0,
0,0,0,0,0,1162,0,0,0,0,1167,0,0,0,0,0,0,0,0,0,0,0,0,0,0,0,0,0,0,0,0,0,0,0,0,0,0,0,0,0,0,0,0,0,0,0,0,0,0,0,0,0,0,0,0,0,0,0,0,0,0,0,0,0,0,0,1124,1125,1126,0,0,0,0,0,0,0,0,0,0,0,
0,0,0,0,0,0,0,0,0,0,0,0,0,0,0,0,0,0,0,0,0,0,0,0,0,0,0,0,0,0,0,0,0,0,0,0,0,0,0,0,0,0,0,0,0,0,0,0,0,0,0,0,0,0,0,0,0,0,0,0,0,0,0,0,0,0,1149,1150,1151,0,0,0,0,0,0,0,0,0,0,0,
0,0,0,0,0,0,0,0,0,0,0,0,0,0,0,0,0,0,0,0,0,0,0,0,0,0,0,0,0,0,0,0,0,0,0,0,0,0,0,0,0,0,0,0,0,0,0,0,0,0,0,0,0,0,0,0,0,0,0,0,0,0,0,0,0,0,0,0,0,0,0,0,0,0,0,0,0,0,0,0
</data>
 </layer>
 <objectgroup id="13" name="Action">
  <object id="221" name="Action" x="1025.09" y="206.545" width="15.4545" height="30.1818"/>
 </objectgroup>
 <objectgroup id="14" name="ActionStop">
  <object id="240" x="1270.67" y="236.667" width="8.33333" height="54"/>
 </objectgroup>
 <objectgroup id="15" name="Spawns">
  <object id="300" name="FromStop" x="1257.33" y="276.333"/>
  <object id="301" name="FromBedroom" x="1032.33" y="263"/>
  <object id="302" name="FromCharacter" x="1031" y="312"/>
 </objectgroup>
</map>
