<?xml version="1.0" encoding="UTF-8"?>
<map version="1.10" tiledversion="1.11.2" orientation="orthogonal" renderorder="right-down" width="80" height="65" tilewidth="16" tileheight="16" infinite="0" nextlayerid="14" nextobjectid="91">
 <tileset firstgid="1" name="untitled tile sheet" tilewidth="16" tileheight="16" tilecount="1975" columns="25">
  <image source="spring_outdoorsTileSheet" width="400" height="1264"/>
  <tile id="150">
   <properties>
    <property name="Buildable" type="bool" value="true"/>
    <property name="Type" value="Grass"/>
   </properties>
  </tile>
  <tile id="151">
   <properties>
    <property name="Buildable" type="bool" value="true"/>
    <property name="Type" value="Grass"/>
   </properties>
   <animation>
    <frame tileid="151" duration="950"/>
    <frame tileid="152" duration="950"/>
   </animation>
  </tile>
  <tile id="152">
   <properties>
    <property name="Buildable" type="bool" value="true"/>
    <property name="Type" value="Grass"/>
   </properties>
  </tile>
  <tile id="153">
   <properties>
    <property name="Diggable" value="T"/>
   </properties>
  </tile>
  <tile id="156">
   <properties>
    <property name="Buildable" type="bool" value="true"/>
    <property name="Type" value="Grass"/>
   </properties>
  </tile>
  <tile id="175">
   <properties>
    <property name="Buildable" type="bool" value="true"/>
    <property name="Type" value="Grass"/>
   </properties>
  </tile>
  <tile id="176">
   <properties>
    <property name="Diggable" value="T"/>
   </properties>
  </tile>
  <tile id="177">
   <properties>
    <property name="Buildable" type="bool" value="true"/>
    <property name="CanPlantTrees" value="T"/>
    <property name="NoSpawn" value="T"/>
    <property name="Type" value="Dirt"/>
   </properties>
  </tile>
  <tile id="178">
   <properties>
    <property name="Buildable" type="bool" value="true"/>
   </properties>
  </tile>
  <tile id="179">
   <properties>
    <property name="Buildable" type="bool" value="true"/>
    <property name="CanPlantTrees" value="T"/>
    <property name="NoSpawn" value="T"/>
    <property name="Type" value="Grass"/>
   </properties>
  </tile>
  <tile id="180">
   <properties>
    <property name="Buildable" type="bool" value="true"/>
    <property name="CanPlantTrees" value="T"/>
    <property name="NoSpawn" value="T"/>
    <property name="Type" value="Grass"/>
   </properties>
  </tile>
  <tile id="181">
   <properties>
    <property name="Buildable" type="bool" value="true"/>
    <property name="Type" value="Dirt"/>
   </properties>
  </tile>
  <tile id="182">
   <properties>
    <property name="Buildable" type="bool" value="true"/>
    <property name="Type" value="Dirt"/>
   </properties>
  </tile>
  <tile id="183">
   <animation>
    <frame tileid="183" duration="1000"/>
    <frame tileid="1182" duration="1000"/>
   </animation>
  </tile>
  <tile id="184">
   <animation>
    <frame tileid="184" duration="1000"/>
    <frame tileid="1183" duration="1000"/>
   </animation>
  </tile>
  <tile id="185">
   <animation>
    <frame tileid="185" duration="1000"/>
    <frame tileid="1184" duration="1000"/>
   </animation>
  </tile>
  <tile id="200">
   <properties>
    <property name="Buildable" type="bool" value="true"/>
    <property name="CanPlantTrees" value="T"/>
    <property name="NoSpawn" value="T"/>
    <property name="Type" value="Grass"/>
   </properties>
  </tile>
  <tile id="201">
   <properties>
    <property name="Buildable" type="bool" value="true"/>
    <property name="CanPlantTrees" value="T"/>
    <property name="NoSpawn" value="T"/>
   </properties>
  </tile>
  <tile id="202">
   <properties>
    <property name="Buildable" type="bool" value="true"/>
    <property name="CanPlantTrees" value="T"/>
    <property name="NoSpawn" value="T"/>
    <property name="Type" value="Dirt"/>
   </properties>
  </tile>
  <tile id="203">
   <properties>
    <property name="Buildable" type="bool" value="true"/>
    <property name="CanPlantTrees" value="T"/>
    <property name="NoSpawn" value="T"/>
    <property name="Type" value="Grass"/>
   </properties>
  </tile>
  <tile id="204">
   <properties>
    <property name="Buildable" type="bool" value="true"/>
   </properties>
  </tile>
  <tile id="205">
   <properties>
    <property name="Buildable" type="bool" value="true"/>
    <property name="CanPlantTrees" value="T"/>
    <property name="NoSpawn" value="T"/>
    <property name="Type" value="Grass"/>
   </properties>
  </tile>
  <tile id="206">
   <properties>
    <property name="Diggable" value="T"/>
    <property name="Type" value="Dirt"/>
   </properties>
  </tile>
  <tile id="207">
   <properties>
    <property name="Diggable" value="T"/>
    <property name="Type" value="Dirt"/>
   </properties>
  </tile>
  <tile id="208">
   <animation>
    <frame tileid="208" duration="1000"/>
    <frame tileid="1207" duration="1000"/>
   </animation>
  </tile>
  <tile id="209">
   <properties>
    <property name="Water" value="T"/>
   </properties>
   <animation>
    <frame tileid="209" duration="1000"/>
    <frame tileid="1208" duration="1000"/>
   </animation>
  </tile>
  <tile id="210">
   <animation>
    <frame tileid="210" duration="1000"/>
    <frame tileid="1209" duration="1000"/>
   </animation>
  </tile>
  <tile id="211">
   <animation>
    <frame tileid="211" duration="1000"/>
    <frame tileid="1210" duration="1000"/>
   </animation>
  </tile>
  <tile id="225">
   <properties>
    <property name="Buildable" type="bool" value="true"/>
    <property name="CanPlantTrees" value="T"/>
    <property name="NoSpawn" value="T"/>
    <property name="Type" value="Dirt"/>
   </properties>
  </tile>
  <tile id="226">
   <properties>
    <property name="Diggable" value="T"/>
   </properties>
  </tile>
  <tile id="227">
   <properties>
    <property name="Diggable" value="T"/>
    <property name="Type" value="Dirt"/>
   </properties>
  </tile>
  <tile id="228">
   <properties>
    <property name="Buildable" type="bool" value="true"/>
    <property name="CanPlantTrees" value="T"/>
    <property name="NoSpawn" value="T"/>
    <property name="Type" value="Dirt"/>
   </properties>
  </tile>
  <tile id="229">
   <properties>
    <property name="Buildable" type="bool" value="true"/>
   </properties>
  </tile>
  <tile id="230">
   <properties>
    <property name="Buildable" type="bool" value="true"/>
   </properties>
  </tile>
  <tile id="231">
   <properties>
    <property name="Diggable" value="T"/>
    <property name="Type" value="Dirt"/>
   </properties>
  </tile>
  <tile id="234">
   <properties>
    <property name="Water" value="T"/>
   </properties>
  </tile>
  <tile id="235">
   <animation>
    <frame tileid="235" duration="1000"/>
    <frame tileid="1290" duration="1000"/>
   </animation>
  </tile>
  <tile id="250">
   <properties>
    <property name="Buildable" type="bool" value="true"/>
    <property name="Type" value="Grass"/>
   </properties>
  </tile>
  <tile id="251">
   <properties>
    <property name="Buildable" type="bool" value="true"/>
    <property name="Type" value="Dirt"/>
   </properties>
  </tile>
  <tile id="252">
   <properties>
    <property name="Buildable" type="bool" value="true"/>
   </properties>
  </tile>
  <tile id="253">
   <properties>
    <property name="Buildable" type="bool" value="true"/>
    <property name="Type" value="Grass"/>
   </properties>
  </tile>
  <tile id="254">
   <properties>
    <property name="Buildable" type="bool" value="true"/>
    <property name="Type" value="Grass"/>
   </properties>
  </tile>
  <tile id="255">
   <properties>
    <property name="Buildable" type="bool" value="true"/>
    <property name="Type" value="Grass"/>
   </properties>
  </tile>
  <tile id="256">
   <properties>
    <property name="Buildable" type="bool" value="true"/>
    <property name="Type" value="Grass"/>
   </properties>
  </tile>
  <tile id="258">
   <animation>
    <frame tileid="258" duration="1000"/>
    <frame tileid="1257" duration="1000"/>
   </animation>
  </tile>
  <tile id="260">
   <animation>
    <frame tileid="260" duration="1000"/>
    <frame tileid="1315" duration="1000"/>
   </animation>
  </tile>
  <tile id="261">
   <properties>
    <property name="Buildable" type="bool" value="true"/>
   </properties>
  </tile>
  <tile id="275">
   <properties>
    <property name="Buildable" type="bool" value="true"/>
    <property name="Type" value="Grass"/>
   </properties>
  </tile>
  <tile id="276">
   <properties>
    <property name="Buildable" type="bool" value="true"/>
   </properties>
  </tile>
  <tile id="277">
   <properties>
    <property name="Buildable" type="bool" value="true"/>
   </properties>
  </tile>
  <tile id="278">
   <properties>
    <property name="Buildable" type="bool" value="true"/>
   </properties>
  </tile>
  <tile id="279">
   <properties>
    <property name="Buildable" type="bool" value="true"/>
   </properties>
  </tile>
  <tile id="281">
   <properties>
    <property name="Buildable" type="bool" value="true"/>
    <property name="Type" value="Grass"/>
   </properties>
  </tile>
  <tile id="283">
   <animation>
    <frame tileid="283" duration="1000"/>
    <frame tileid="1312" duration="1000"/>
   </animation>
  </tile>
  <tile id="284">
   <animation>
    <frame tileid="284" duration="1000"/>
    <frame tileid="1313" duration="1000"/>
   </animation>
  </tile>
  <tile id="286">
   <properties>
    <property name="Buildable" type="bool" value="true"/>
   </properties>
  </tile>
  <tile id="288">
   <properties>
    <property name="NoSpawn" value="All"/>
   </properties>
  </tile>
  <tile id="289">
   <properties>
    <property name="NoSpawn" value="All"/>
   </properties>
  </tile>
  <tile id="300">
   <properties>
    <property name="Buildable" type="bool" value="true"/>
    <property name="Type" value="Grass"/>
   </properties>
  </tile>
  <tile id="301">
   <properties>
    <property name="Buildable" type="bool" value="true"/>
    <property name="Type" value="Grass"/>
   </properties>
  </tile>
  <tile id="302">
   <properties>
    <property name="Buildable" type="bool" value="true"/>
    <property name="Type" value="Grass"/>
   </properties>
  </tile>
  <tile id="303">
   <properties>
    <property name="Buildable" type="bool" value="true"/>
    <property name="Type" value="Grass"/>
   </properties>
  </tile>
  <tile id="304">
   <properties>
    <property name="Buildable" type="bool" value="true"/>
    <property name="Type" value="Grass"/>
   </properties>
  </tile>
  <tile id="305">
   <properties>
    <property name="Buildable" type="bool" value="true"/>
    <property name="Type" value="Grass"/>
   </properties>
  </tile>
  <tile id="306">
   <properties>
    <property name="Buildable" type="bool" value="true"/>
    <property name="Type" value="Grass"/>
   </properties>
  </tile>
  <tile id="308">
   <animation>
    <frame tileid="308" duration="1000"/>
    <frame tileid="1316" duration="1000"/>
   </animation>
  </tile>
  <tile id="309">
   <animation>
    <frame tileid="309" duration="1000"/>
    <frame tileid="1317" duration="1000"/>
   </animation>
  </tile>
  <tile id="311">
   <properties>
    <property name="Buildable" type="bool" value="true"/>
   </properties>
  </tile>
  <tile id="312">
   <properties>
    <property name="NoSpawn" value="All"/>
    <property name="Type" value="Wood"/>
   </properties>
  </tile>
  <tile id="313">
   <properties>
    <property name="NoSpawn" value="All"/>
    <property name="Type" value="Wood"/>
   </properties>
  </tile>
  <tile id="314">
   <properties>
    <property name="NoSpawn" value="All"/>
    <property name="Type" value="Wood"/>
   </properties>
  </tile>
  <tile id="322">
   <properties>
    <property name="NoSpawn" value="All"/>
    <property name="Type" value="Wood"/>
   </properties>
  </tile>
  <tile id="325">
   <properties>
    <property name="Buildable" type="bool" value="true"/>
    <property name="Type" value="Grass"/>
   </properties>
  </tile>
  <tile id="326">
   <properties>
    <property name="Buildable" type="bool" value="true"/>
    <property name="Type" value="Grass"/>
   </properties>
  </tile>
  <tile id="327">
   <properties>
    <property name="Buildable" type="bool" value="true"/>
    <property name="Type" value="Grass"/>
   </properties>
  </tile>
  <tile id="328">
   <properties>
    <property name="Buildable" type="bool" value="true"/>
    <property name="Type" value="Grass"/>
   </properties>
  </tile>
  <tile id="329">
   <properties>
    <property name="Buildable" type="bool" value="true"/>
    <property name="Type" value="Grass"/>
   </properties>
  </tile>
  <tile id="331">
   <properties>
    <property name="Buildable" type="bool" value="true"/>
    <property name="Type" value="Grass"/>
   </properties>
  </tile>
  <tile id="332">
   <properties>
    <property name="Buildable" type="bool" value="true"/>
    <property name="Type" value="Grass"/>
   </properties>
  </tile>
  <tile id="337">
   <properties>
    <property name="NoSpawn" value="All"/>
    <property name="Type" value="Wood"/>
   </properties>
  </tile>
  <tile id="338">
   <properties>
    <property name="NoSpawn" value="All"/>
    <property name="Type" value="Wood"/>
   </properties>
  </tile>
  <tile id="339">
   <properties>
    <property name="NoSpawn" value="All"/>
    <property name="Type" value="Wood"/>
   </properties>
  </tile>
  <tile id="347">
   <properties>
    <property name="NoSpawn" value="All"/>
    <property name="Type" value="Wood"/>
   </properties>
  </tile>
  <tile id="350">
   <properties>
    <property name="Buildable" type="bool" value="true"/>
    <property name="Type" value="Grass"/>
   </properties>
  </tile>
  <tile id="351">
   <properties>
    <property name="Buildable" type="bool" value="true"/>
    <property name="Type" value="Grass"/>
   </properties>
  </tile>
  <tile id="352">
   <properties>
    <property name="Buildable" type="bool" value="true"/>
    <property name="Type" value="Grass"/>
   </properties>
  </tile>
  <tile id="353">
   <properties>
    <property name="Buildable" type="bool" value="true"/>
    <property name="Type" value="Grass"/>
   </properties>
  </tile>
  <tile id="354">
   <properties>
    <property name="Buildable" type="bool" value="true"/>
    <property name="Type" value="Grass"/>
   </properties>
  </tile>
  <tile id="355">
   <properties>
    <property name="Buildable" type="bool" value="true"/>
    <property name="Type" value="Grass"/>
   </properties>
  </tile>
  <tile id="356">
   <properties>
    <property name="Buildable" type="bool" value="true"/>
    <property name="Type" value="Grass"/>
   </properties>
  </tile>
  <tile id="357">
   <properties>
    <property name="Buildable" type="bool" value="true"/>
    <property name="Type" value="Grass"/>
   </properties>
  </tile>
  <tile id="375">
   <properties>
    <property name="Buildable" type="bool" value="true"/>
    <property name="Type" value="Grass"/>
   </properties>
  </tile>
  <tile id="376">
   <properties>
    <property name="Buildable" type="bool" value="true"/>
    <property name="Type" value="Grass"/>
   </properties>
  </tile>
  <tile id="377">
   <properties>
    <property name="Buildable" type="bool" value="true"/>
    <property name="Type" value="Grass"/>
   </properties>
  </tile>
  <tile id="378">
   <properties>
    <property name="Buildable" type="bool" value="true"/>
    <property name="Type" value="Grass"/>
   </properties>
  </tile>
  <tile id="379">
   <properties>
    <property name="Buildable" type="bool" value="true"/>
    <property name="Type" value="Grass"/>
   </properties>
  </tile>
  <tile id="380">
   <properties>
    <property name="Buildable" type="bool" value="true"/>
    <property name="Type" value="Grass"/>
   </properties>
  </tile>
  <tile id="381">
   <properties>
    <property name="Buildable" type="bool" value="true"/>
    <property name="Type" value="Grass"/>
   </properties>
  </tile>
  <tile id="382">
   <properties>
    <property name="Buildable" type="bool" value="true"/>
    <property name="Type" value="Grass"/>
   </properties>
  </tile>
  <tile id="397">
   <properties>
    <property name="NoSpawn" value="All"/>
    <property name="Type" value="Wood"/>
   </properties>
  </tile>
  <tile id="400">
   <properties>
    <property name="Buildable" type="bool" value="true"/>
    <property name="CanPlantTrees" value="T"/>
    <property name="Type" value="Grass"/>
   </properties>
  </tile>
  <tile id="401">
   <properties>
    <property name="Buildable" type="bool" value="true"/>
    <property name="CanPlantTrees" value="T"/>
    <property name="NoSpawn" value="T"/>
    <property name="Type" value="Grass"/>
   </properties>
  </tile>
  <tile id="402">
   <properties>
    <property name="Buildable" type="bool" value="true"/>
    <property name="Type" value="Grass"/>
   </properties>
  </tile>
  <tile id="403">
   <properties>
    <property name="Buildable" type="bool" value="true"/>
    <property name="Type" value="Grass"/>
   </properties>
  </tile>
  <tile id="404">
   <properties>
    <property name="Buildable" type="bool" value="true"/>
    <property name="Type" value="Grass"/>
   </properties>
  </tile>
  <tile id="405">
   <properties>
    <property name="Buildable" type="bool" value="true"/>
    <property name="Type" value="Grass"/>
   </properties>
  </tile>
  <tile id="406">
   <properties>
    <property name="Buildable" type="bool" value="true"/>
    <property name="Type" value="Grass"/>
   </properties>
  </tile>
  <tile id="407">
   <properties>
    <property name="Buildable" type="bool" value="true"/>
    <property name="Type" value="Grass"/>
   </properties>
  </tile>
  <tile id="420">
   <properties>
    <property name="Buildable" type="bool" value="true"/>
   </properties>
  </tile>
  <tile id="421">
   <properties>
    <property name="Buildable" type="bool" value="true"/>
   </properties>
  </tile>
  <tile id="422">
   <properties>
    <property name="Buildable" type="bool" value="true"/>
   </properties>
  </tile>
  <tile id="423">
   <properties>
    <property name="Buildable" type="bool" value="true"/>
   </properties>
  </tile>
  <tile id="436">
   <properties>
    <property name="Type" value="Wood"/>
   </properties>
  </tile>
  <tile id="456">
   <properties>
    <property name="Type" value="Dirt"/>
   </properties>
  </tile>
  <tile id="460">
   <properties>
    <property name="NoSpawn" type="bool" value="true"/>
   </properties>
  </tile>
  <tile id="463">
   <properties>
    <property name="Diggable" value="T"/>
    <property name="Type" value="Dirt"/>
   </properties>
  </tile>
  <tile id="471">
   <properties>
    <property name="Diggable" value="T"/>
    <property name="Type" value="Dirt"/>
   </properties>
  </tile>
  <tile id="472">
   <properties>
    <property name="Diggable" value="T"/>
    <property name="Type" value="Dirt"/>
   </properties>
  </tile>
  <tile id="473">
   <properties>
    <property name="Diggable" value="T"/>
    <property name="Type" value="Dirt"/>
   </properties>
  </tile>
  <tile id="480">
   <properties>
    <property name="Type" value="Dirt"/>
   </properties>
  </tile>
  <tile id="481">
   <properties>
    <property name="Type" value="Dirt"/>
   </properties>
  </tile>
  <tile id="482">
   <properties>
    <property name="Type" value="Dirt"/>
   </properties>
  </tile>
  <tile id="488">
   <properties>
    <property name="Diggable" value="T"/>
    <property name="Type" value="Dirt"/>
   </properties>
  </tile>
  <tile id="499">
   <properties>
    <property name="Type" value="Dirt"/>
   </properties>
  </tile>
  <tile id="505">
   <properties>
    <property name="Type" value="Dirt"/>
   </properties>
  </tile>
  <tile id="506">
   <properties>
    <property name="Type" value="Dirt"/>
   </properties>
  </tile>
  <tile id="509">
   <properties>
    <property name="NoSpawn" value="T"/>
   </properties>
  </tile>
  <tile id="512">
   <properties>
    <property name="Buildable" value="T"/>
    <property name="NoSpawn" value="Tree"/>
    <property name="Type" value="Dirt"/>
   </properties>
  </tile>
  <tile id="513">
   <properties>
    <property name="Diggable" value="T"/>
    <property name="Type" value="Dirt"/>
   </properties>
  </tile>
  <tile id="524">
   <properties>
    <property name="Type" value="Dirt"/>
   </properties>
  </tile>
  <tile id="530">
   <properties>
    <property name="Type" value="Dirt"/>
   </properties>
  </tile>
  <tile id="531">
   <properties>
    <property name="Type" value="Dirt"/>
   </properties>
  </tile>
  <tile id="532">
   <properties>
    <property name="Type" value="Dirt"/>
   </properties>
  </tile>
  <tile id="534">
   <properties>
    <property name="NoSpawn" value="T"/>
   </properties>
  </tile>
  <tile id="536">
   <properties>
    <property name="Buildable" value="T"/>
   </properties>
  </tile>
  <tile id="537">
   <properties>
    <property name="Buildable" value="T"/>
    <property name="NoSpawn" value="Tree"/>
    <property name="Type" value="Dirt"/>
   </properties>
  </tile>
  <tile id="538">
   <properties>
    <property name="Buildable" value="T"/>
   </properties>
  </tile>
  <tile id="549">
   <properties>
    <property name="Type" value="Dirt"/>
   </properties>
  </tile>
  <tile id="555">
   <properties>
    <property name="Type" value="Dirt"/>
   </properties>
  </tile>
  <tile id="556">
   <properties>
    <property name="Buildable" type="bool" value="true"/>
    <property name="Type" value="Dirt"/>
   </properties>
  </tile>
  <tile id="557">
   <properties>
    <property name="Type" value="Dirt"/>
   </properties>
  </tile>
  <tile id="558">
   <properties>
    <property name="Buildable" type="bool" value="true"/>
    <property name="Type" value="Dirt"/>
   </properties>
  </tile>
  <tile id="560">
   <properties>
    <property name="Diggable" value="T"/>
    <property name="Type" value="Dirt"/>
   </properties>
  </tile>
  <tile id="561">
   <properties>
    <property name="Buildable" value="T"/>
    <property name="NoSpawn" value="Tree"/>
    <property name="Type" value="Dirt"/>
   </properties>
  </tile>
  <tile id="562">
   <properties>
    <property name="Buildable" value="T"/>
    <property name="NoSpawn" value="Tree"/>
    <property name="Type" value="Dirt"/>
   </properties>
  </tile>
  <tile id="563">
   <properties>
    <property name="Buildable" value="T"/>
    <property name="NoSpawn" value="Trees"/>
    <property name="Type" value="Dirt"/>
   </properties>
  </tile>
  <tile id="564">
   <properties>
    <property name="Diggable" value="T"/>
   </properties>
  </tile>
  <tile id="565">
   <properties>
    <property name="Buildable" value="T"/>
    <property name="NoSpawn" value="T"/>
    <property name="Type" value="Dirt"/>
   </properties>
  </tile>
  <tile id="566">
   <properties>
    <property name="Buildable" value="T"/>
    <property name="NoSpawn" value="Tree"/>
    <property name="Type" value="Dirt"/>
   </properties>
  </tile>
  <tile id="571">
   <properties>
    <property name="Type" value="Dirt"/>
   </properties>
  </tile>
  <tile id="572">
   <properties>
    <property name="Type" value="Dirt"/>
   </properties>
  </tile>
  <tile id="573">
   <properties>
    <property name="Type" value="Dirt"/>
   </properties>
  </tile>
  <tile id="574">
   <properties>
    <property name="Type" value="Dirt"/>
   </properties>
  </tile>
  <tile id="580">
   <properties>
    <property name="Type" value="Dirt"/>
   </properties>
  </tile>
  <tile id="581">
   <properties>
    <property name="Type" value="Dirt"/>
   </properties>
  </tile>
  <tile id="582">
   <properties>
    <property name="Type" value="Dirt"/>
   </properties>
  </tile>
  <tile id="583">
   <properties>
    <property name="Buildable" type="bool" value="true"/>
    <property name="Type" value="Dirt"/>
   </properties>
  </tile>
  <tile id="585">
   <properties>
    <property name="Diggable" value="T"/>
    <property name="Type" value="Dirt"/>
   </properties>
  </tile>
  <tile id="586">
   <properties>
    <property name="Buildable" value="T"/>
   </properties>
  </tile>
  <tile id="587">
   <properties>
    <property name="Diggable" value="T"/>
    <property name="Type" value="Dirt"/>
   </properties>
  </tile>
  <tile id="588">
   <properties>
    <property name="Buildable" value="T"/>
    <property name="Type" value="Dirt"/>
   </properties>
  </tile>
  <tile id="589">
   <properties>
    <property name="Diggable" value="T"/>
    <property name="Type" value="Dirt"/>
   </properties>
  </tile>
  <tile id="591">
   <properties>
    <property name="Buildable" value="T"/>
    <property name="NoSpawn" value="Tree"/>
    <property name="Type" value="Dirt"/>
   </properties>
  </tile>
  <tile id="596">
   <properties>
    <property name="Type" value="Dirt"/>
   </properties>
  </tile>
  <tile id="597">
   <properties>
    <property name="Type" value="Dirt"/>
   </properties>
  </tile>
  <tile id="598">
   <properties>
    <property name="Type" value="Stone"/>
   </properties>
  </tile>
  <tile id="599">
   <properties>
    <property name="Type" value="Stone"/>
   </properties>
  </tile>
  <tile id="606">
   <properties>
    <property name="Buildable" type="bool" value="true"/>
    <property name="Type" value="Dirt"/>
   </properties>
  </tile>
  <tile id="607">
   <properties>
    <property name="Buildable" type="bool" value="true"/>
    <property name="Type" value="Dirt"/>
   </properties>
  </tile>
  <tile id="608">
   <properties>
    <property name="Buildable" type="bool" value="true"/>
    <property name="Type" value="Dirt"/>
   </properties>
  </tile>
  <tile id="610">
   <properties>
    <property name="Diggable" value="T"/>
    <property name="Type" value="Dirt"/>
   </properties>
  </tile>
  <tile id="611">
   <properties>
    <property name="Buildable" value="T"/>
   </properties>
  </tile>
  <tile id="612">
   <properties>
    <property name="Buildable" value="T"/>
    <property name="Type" value="Dirt"/>
   </properties>
  </tile>
  <tile id="613">
   <properties>
    <property name="Buildable" type="bool" value="true"/>
   </properties>
  </tile>
  <tile id="614">
   <properties>
    <property name="Diggable" value="T"/>
    <property name="Type" value="Dirt"/>
   </properties>
  </tile>
  <tile id="615">
   <properties>
    <property name="Buildable" value="T"/>
   </properties>
  </tile>
  <tile id="616">
   <properties>
    <property name="Buildable" value="T"/>
    <property name="Type" value="Dirt"/>
   </properties>
  </tile>
  <tile id="618">
   <properties>
    <property name="Buildable" value="T"/>
    <property name="Type" value="Dirt"/>
   </properties>
  </tile>
  <tile id="621">
   <properties>
    <property name="Type" value="Dirt"/>
   </properties>
  </tile>
  <tile id="622">
   <properties>
    <property name="Type" value="Dirt"/>
   </properties>
  </tile>
  <tile id="623">
   <properties>
    <property name="Type" value="Dirt"/>
   </properties>
  </tile>
  <tile id="624">
   <properties>
    <property name="Type" value="Dirt"/>
   </properties>
  </tile>
  <tile id="633">
   <properties>
    <property name="Buildable" type="bool" value="true"/>
    <property name="Type" value="Grass"/>
   </properties>
  </tile>
  <tile id="634">
   <properties>
    <property name="Buildable" type="bool" value="true"/>
    <property name="Type" value="Grass"/>
   </properties>
  </tile>
  <tile id="635">
   <properties>
    <property name="Buildable" type="bool" value="true"/>
    <property name="Type" value="Dirt"/>
   </properties>
  </tile>
  <tile id="636">
   <properties>
    <property name="Buildable" type="bool" value="true"/>
    <property name="Type" value="Dirt"/>
   </properties>
  </tile>
  <tile id="645">
   <properties>
    <property name="Buildable" value="T"/>
    <property name="NoSpawn" value="Tree"/>
    <property name="Type" value="Dirt"/>
   </properties>
  </tile>
  <tile id="654">
   <properties>
    <property name="Buildable" type="bool" value="true"/>
    <property name="Type" value="Grass"/>
   </properties>
  </tile>
  <tile id="655">
   <properties>
    <property name="Buildable" type="bool" value="true"/>
   </properties>
  </tile>
  <tile id="656">
   <properties>
    <property name="Buildable" type="bool" value="true"/>
    <property name="Type" value="Dirt"/>
   </properties>
  </tile>
  <tile id="657">
   <properties>
    <property name="Buildable" type="bool" value="true"/>
    <property name="Type" value="Grass"/>
   </properties>
  </tile>
  <tile id="658">
   <properties>
    <property name="Buildable" type="bool" value="true"/>
    <property name="Type" value="Grass"/>
   </properties>
  </tile>
  <tile id="659">
   <properties>
    <property name="Buildable" type="bool" value="true"/>
    <property name="Type" value="Grass"/>
   </properties>
  </tile>
  <tile id="670">
   <properties>
    <property name="Buildable" value="T"/>
    <property name="NoSpawn" value="Tree"/>
    <property name="Type" value="Dirt"/>
   </properties>
  </tile>
  <tile id="680">
   <properties>
    <property name="Type" value="Dirt"/>
   </properties>
  </tile>
  <tile id="681">
   <properties>
    <property name="Type" value="Dirt"/>
   </properties>
  </tile>
  <tile id="682">
   <properties>
    <property name="Buildable" type="bool" value="true"/>
   </properties>
  </tile>
  <tile id="683">
   <properties>
    <property name="Buildable" type="bool" value="true"/>
   </properties>
  </tile>
  <tile id="684">
   <properties>
    <property name="Buildable" type="bool" value="true"/>
   </properties>
  </tile>
  <tile id="685">
   <properties>
    <property name="Buildable" type="bool" value="true"/>
    <property name="Type" value="Dirt"/>
   </properties>
  </tile>
  <tile id="704">
   <properties>
    <property name="Buildable" type="bool" value="true"/>
    <property name="Type" value="Grass"/>
   </properties>
  </tile>
  <tile id="705">
   <properties>
    <property name="Buildable" type="bool" value="true"/>
   </properties>
  </tile>
  <tile id="706">
   <properties>
    <property name="Buildable" type="bool" value="true"/>
    <property name="Type" value="Dirt"/>
   </properties>
  </tile>
  <tile id="707">
   <properties>
    <property name="Buildable" type="bool" value="true"/>
    <property name="Type" value="Grass"/>
   </properties>
  </tile>
  <tile id="720">
   <properties>
    <property name="Type" value="Dirt"/>
   </properties>
  </tile>
  <tile id="745">
   <properties>
    <property name="Type" value="Dirt"/>
   </properties>
  </tile>
  <tile id="779">
   <properties>
    <property name="NoSpawn" value="All"/>
    <property name="Passable" value="T"/>
    <property name="Type" value="Wood"/>
   </properties>
  </tile>
  <tile id="780">
   <properties>
    <property name="NoSpawn" value="All"/>
    <property name="Passable" value="T"/>
    <property name="Type" value="Wood"/>
   </properties>
  </tile>
  <tile id="781">
   <properties>
    <property name="NoSpawn" value="All"/>
    <property name="Passable" value="T"/>
    <property name="Type" value="Wood"/>
   </properties>
  </tile>
  <tile id="782">
   <properties>
    <property name="NoSpawn" value="All"/>
    <property name="Passable" value="T"/>
    <property name="Type" value="Wood"/>
   </properties>
  </tile>
  <tile id="809">
   <properties>
    <property name="NPCBarrier" value="T"/>
    <property name="NoSpawn" value="All"/>
    <property name="Type" value="Wood"/>
   </properties>
  </tile>
  <tile id="812">
   <properties>
    <property name="NoSpawn" value="All"/>
    <property name="Type" value="Stone"/>
   </properties>
  </tile>
  <tile id="834">
   <properties>
    <property name="Passable" value="T"/>
    <property name="Type" value="Wood"/>
   </properties>
  </tile>
  <tile id="838">
   <properties>
    <property name="NoSpawn" value="All"/>
    <property name="Type" value="Stone"/>
   </properties>
  </tile>
  <tile id="859">
   <properties>
    <property name="Passable" value="T"/>
    <property name="Type" value="Wood"/>
   </properties>
  </tile>
  <tile id="860">
   <properties>
    <property name="Passable" value="T"/>
    <property name="Type" value="Wood"/>
   </properties>
  </tile>
  <tile id="884">
   <properties>
    <property name="Passable" value="T"/>
    <property name="Type" value="Wood"/>
   </properties>
  </tile>
  <tile id="885">
   <properties>
    <property name="Passable" value="T"/>
    <property name="Type" value="Wood"/>
   </properties>
  </tile>
  <tile id="910">
   <properties>
    <property name="Passable" value="T"/>
    <property name="Type" value="Wood"/>
   </properties>
  </tile>
  <tile id="1186">
   <properties>
    <property name="Water" value="T"/>
   </properties>
  </tile>
  <tile id="1187">
   <properties>
    <property name="Water" value="T"/>
   </properties>
  </tile>
  <tile id="1188">
   <properties>
    <property name="Water" value="T"/>
   </properties>
  </tile>
  <tile id="1211">
   <properties>
    <property name="Water" value="T"/>
   </properties>
  </tile>
  <tile id="1212">
   <properties>
    <property name="Water" value="T"/>
   </properties>
  </tile>
  <tile id="1213">
   <properties>
    <property name="Water" value="T"/>
   </properties>
  </tile>
  <tile id="1227">
   <properties>
    <property name="Water" value="T"/>
   </properties>
  </tile>
  <tile id="1228">
   <properties>
    <property name="Water" value="T"/>
   </properties>
  </tile>
  <tile id="1229">
   <properties>
    <property name="Water" value="T"/>
   </properties>
  </tile>
  <tile id="1230">
   <properties>
    <property name="Water" value="T"/>
   </properties>
  </tile>
  <tile id="1231">
   <properties>
    <property name="Water" value="T"/>
   </properties>
  </tile>
  <tile id="1237">
   <properties>
    <property name="Water" value="T"/>
   </properties>
  </tile>
  <tile id="1238">
   <properties>
    <property name="Water" value="T"/>
   </properties>
  </tile>
  <tile id="1239">
   <properties>
    <property name="Water" value="T"/>
   </properties>
  </tile>
  <tile id="1240">
   <properties>
    <property name="Water" value="T"/>
   </properties>
  </tile>
  <tile id="1241">
   <properties>
    <property name="Water" value="T"/>
   </properties>
  </tile>
  <tile id="1242">
   <properties>
    <property name="Water" value="T"/>
   </properties>
  </tile>
  <tile id="1243">
   <properties>
    <property name="Water" value="T"/>
   </properties>
  </tile>
  <tile id="1244">
   <properties>
    <property name="Water" value="T"/>
   </properties>
  </tile>
  <tile id="1245">
   <properties>
    <property name="Water" value="T"/>
   </properties>
  </tile>
  <tile id="1246">
   <properties>
    <property name="Passable" value="F"/>
    <property name="Water" value="T"/>
   </properties>
  </tile>
  <tile id="1247">
   <properties>
    <property name="Water" value="T"/>
   </properties>
  </tile>
  <tile id="1248">
   <properties>
    <property name="Water" value="T"/>
   </properties>
  </tile>
  <tile id="1249">
   <properties>
    <property name="Passable" value="F"/>
    <property name="Water" value="T"/>
   </properties>
  </tile>
  <tile id="1252">
   <properties>
    <property name="Water" value="T"/>
   </properties>
  </tile>
  <tile id="1253">
   <properties>
    <property name="Water" value="T"/>
   </properties>
  </tile>
  <tile id="1254">
   <properties>
    <property name="Water" value="T"/>
   </properties>
  </tile>
  <tile id="1255">
   <properties>
    <property name="Water" value="T"/>
   </properties>
  </tile>
  <tile id="1256">
   <properties>
    <property name="Water" value="T"/>
   </properties>
  </tile>
  <tile id="1263">
   <properties>
    <property name="Water" value="T"/>
   </properties>
  </tile>
  <tile id="1264">
   <properties>
    <property name="Water" value="T"/>
   </properties>
  </tile>
  <tile id="1265">
   <properties>
    <property name="Water" value="T"/>
   </properties>
  </tile>
  <tile id="1266">
   <properties>
    <property name="Passable" value="F"/>
    <property name="Water" value="T"/>
   </properties>
  </tile>
  <tile id="1267">
   <properties>
    <property name="Passable" value="F"/>
    <property name="Water" value="T"/>
   </properties>
  </tile>
  <tile id="1268">
   <properties>
    <property name="Water" value="T"/>
   </properties>
  </tile>
  <tile id="1269">
   <properties>
    <property name="Water" value="T"/>
   </properties>
  </tile>
  <tile id="1270">
   <properties>
    <property name="Water" value="T"/>
   </properties>
  </tile>
  <tile id="1271">
   <properties>
    <property name="Passable" value="F"/>
    <property name="Water" value="T"/>
   </properties>
  </tile>
  <tile id="1272">
   <properties>
    <property name="Water" value="T"/>
   </properties>
  </tile>
  <tile id="1273">
   <properties>
    <property name="Water" value="T"/>
   </properties>
  </tile>
  <tile id="1274">
   <properties>
    <property name="Water" value="T"/>
   </properties>
  </tile>
  <tile id="1277">
   <properties>
    <property name="Water" value="T"/>
   </properties>
  </tile>
  <tile id="1278">
   <properties>
    <property name="Water" value="T"/>
   </properties>
  </tile>
  <tile id="1279">
   <properties>
    <property name="Water" value="T"/>
   </properties>
  </tile>
  <tile id="1280">
   <properties>
    <property name="Water" value="T"/>
   </properties>
  </tile>
  <tile id="1281">
   <properties>
    <property name="Water" value="T"/>
   </properties>
  </tile>
  <tile id="1293">
   <animation>
    <frame tileid="1293" duration="500"/>
    <frame tileid="1294" duration="500"/>
    <frame tileid="1295" duration="500"/>
    <frame tileid="1296" duration="500"/>
   </animation>
  </tile>
  <tile id="1297">
   <properties>
    <property name="Water" value="T"/>
   </properties>
  </tile>
  <tile id="1298">
   <properties>
    <property name="Water" value="T"/>
   </properties>
  </tile>
  <tile id="1299">
   <properties>
    <property name="Passable" value="F"/>
    <property name="Water" value="T"/>
   </properties>
  </tile>
  <tile id="1302">
   <properties>
    <property name="Water" value="T"/>
   </properties>
  </tile>
  <tile id="1303">
   <properties>
    <property name="Water" value="T"/>
   </properties>
  </tile>
  <tile id="1304">
   <properties>
    <property name="Water" value="T"/>
   </properties>
  </tile>
  <tile id="1305">
   <properties>
    <property name="Water" value="T"/>
   </properties>
  </tile>
  <tile id="1306">
   <properties>
    <property name="Water" value="T"/>
   </properties>
  </tile>
  <tile id="1318">
   <animation>
    <frame tileid="1318" duration="450"/>
    <frame tileid="1319" duration="450"/>
    <frame tileid="1320" duration="450"/>
    <frame tileid="1321" duration="450"/>
   </animation>
  </tile>
  <tile id="1322">
   <properties>
    <property name="Water" value="T"/>
   </properties>
  </tile>
  <tile id="1323">
   <properties>
    <property name="Water" value="T"/>
   </properties>
  </tile>
  <tile id="1324">
   <properties>
    <property name="Water" value="T"/>
   </properties>
  </tile>
  <tile id="1637">
   <properties>
    <property name="Type" value="Wood"/>
   </properties>
  </tile>
  <tile id="1638">
   <properties>
    <property name="Type" value="Wood"/>
   </properties>
  </tile>
  <tile id="1639">
   <properties>
    <property name="Type" value="Wood"/>
   </properties>
  </tile>
  <tile id="1662">
   <properties>
    <property name="Type" value="Wood"/>
   </properties>
  </tile>
  <tile id="1663">
   <properties>
    <property name="Type" value="Wood"/>
   </properties>
  </tile>
  <tile id="1664">
   <properties>
    <property name="Type" value="Wood"/>
   </properties>
  </tile>
  <tile id="1687">
   <properties>
    <property name="Type" value="Wood"/>
   </properties>
  </tile>
  <tile id="1688">
   <properties>
    <property name="Type" value="Wood"/>
   </properties>
  </tile>
  <tile id="1689">
   <properties>
    <property name="Type" value="Wood"/>
   </properties>
  </tile>
  <tile id="1937">
   <properties>
    <property name="NoFurniture" value="T"/>
    <property name="NoSpawn" value="All"/>
   </properties>
  </tile>
  <tile id="1957">
   <properties>
    <property name="Type" value="Wood"/>
   </properties>
  </tile>
  <tile id="1958">
   <properties>
    <property name="Type" value="Wood"/>
   </properties>
  </tile>
  <tile id="1962">
   <properties>
    <property name="NoFurniture" value="T"/>
    <property name="NoSpawn" value="All"/>
   </properties>
  </tile>
  <tile id="1963">
   <properties>
    <property name="NoFurniture" value="T"/>
    <property name="NoSpawn" value="All"/>
   </properties>
  </tile>
  <tile id="1964">
   <properties>
    <property name="NoFurniture" value="T"/>
    <property name="NoSpawn" value="All"/>
    <property name="Type" value="Stone"/>
    <property name="placeable" value="F"/>
   </properties>
  </tile>
  <tile id="1965">
   <properties>
    <property name="NoFurniture" value="T"/>
    <property name="NoSpawn" value="All"/>
    <property name="Type" value="Stone"/>
    <property name="placeable" value="f"/>
   </properties>
  </tile>
  <tile id="1966">
   <properties>
    <property name="NoFurniture" value="T"/>
    <property name="NoSpawn" value="All"/>
    <property name="Type" value="Stone"/>
    <property name="placeable" value="f"/>
   </properties>
  </tile>
 </tileset>
 <tileset firstgid="1976" name="extra_tiles" tilewidth="16" tileheight="16" tilecount="64" columns="8">
  <image source="spring_outdoorTileSheet_extra" width="128" height="128"/>
  <tile id="0">
   <properties>
    <property name="Buildable" type="bool" value="true"/>
    <property name="CanPlantTrees" value="T"/>
    <property name="NoSpawn" value="T"/>
    <property name="Type" value="Grass"/>
   </properties>
  </tile>
  <tile id="1">
   <properties>
    <property name="Buildable" type="bool" value="true"/>
    <property name="NoSpawn" value="T"/>
    <property name="Type" value="Dirt"/>
   </properties>
  </tile>
  <tile id="2">
   <properties>
    <property name="Buildable" type="bool" value="true"/>
    <property name="CanPlantTrees" value="T"/>
    <property name="Diggable" value="T"/>
    <property name="NoSpawn" value="T"/>
    <property name="Type" value="Dirt"/>
   </properties>
  </tile>
  <tile id="9">
   <properties>
    <property name="Buildable" type="bool" value="true"/>
    <property name="CanPlantTrees" value="T"/>
    <property name="NoSpawn" value="T"/>
    <property name="Type" value="Grass"/>
   </properties>
  </tile>
  <tile id="10">
   <properties>
    <property name="Buildable" type="bool" value="true"/>
    <property name="NoSpawn" value="T"/>
    <property name="Type" value="Grass"/>
   </properties>
  </tile>
  <tile id="17">
   <properties>
    <property name="Buildable" type="bool" value="true"/>
    <property name="CanPlantTrees" value="T"/>
    <property name="NoSpawn" value="T"/>
    <property name="Type" value="Grass"/>
   </properties>
  </tile>
  <tile id="18">
   <properties>
    <property name="Buildable" type="bool" value="true"/>
    <property name="NoSpawn" value="T"/>
    <property name="Type" value="Grass"/>
   </properties>
  </tile>
  <tile id="25">
   <properties>
    <property name="Buildable" type="bool" value="true"/>
    <property name="CanPlantTrees" value="T"/>
    <property name="NoSpawn" value="T"/>
    <property name="Type" value="Grass"/>
   </properties>
  </tile>
 </tileset>
 <tileset firstgid="2040" name="v16_Outdoors2" tilewidth="16" tileheight="16" tilecount="1120" columns="16">
  <image source="spring_outdoorsTileSheet2" width="256" height="1120"/>
  <tile id="816">
   <properties>
    <property name="Water" value="T"/>
   </properties>
  </tile>
  <tile id="817">
   <properties>
    <property name="Water" value="T"/>
   </properties>
  </tile>
  <tile id="820">
   <properties>
    <property name="Water" value="T"/>
   </properties>
  </tile>
  <tile id="821">
   <properties>
    <property name="Water" value="T"/>
   </properties>
  </tile>
  <tile id="822">
   <properties>
    <property name="Water" value="T"/>
   </properties>
  </tile>
  <tile id="832">
   <properties>
    <property name="Water" value="T"/>
   </properties>
  </tile>
  <tile id="833">
   <properties>
    <property name="Water" value="T"/>
   </properties>
  </tile>
  <tile id="834">
   <properties>
    <property name="Water" value="T"/>
   </properties>
  </tile>
  <tile id="835">
   <properties>
    <property name="Water" value="T"/>
   </properties>
  </tile>
  <tile id="836">
   <properties>
    <property name="Water" value="T"/>
   </properties>
  </tile>
  <tile id="837">
   <properties>
    <property name="Water" value="T"/>
   </properties>
  </tile>
  <tile id="838">
   <properties>
    <property name="Water" value="T"/>
   </properties>
  </tile>
  <tile id="848">
   <properties>
    <property name="Water" value="T"/>
   </properties>
  </tile>
  <tile id="849">
   <properties>
    <property name="Water" value="T"/>
   </properties>
  </tile>
  <tile id="850">
   <properties>
    <property name="Water" value="T"/>
   </properties>
  </tile>
  <tile id="851">
   <properties>
    <property name="Water" value="T"/>
   </properties>
  </tile>
  <tile id="852">
   <properties>
    <property name="Water" value="T"/>
   </properties>
  </tile>
  <tile id="853">
   <properties>
    <property name="Water" value="T"/>
   </properties>
  </tile>
  <tile id="854">
   <properties>
    <property name="Water" value="T"/>
   </properties>
  </tile>
  <tile id="864">
   <properties>
    <property name="Water" value="T"/>
   </properties>
  </tile>
  <tile id="865">
   <properties>
    <property name="Water" value="T"/>
   </properties>
  </tile>
  <tile id="866">
   <properties>
    <property name="Water" value="T"/>
   </properties>
  </tile>
  <tile id="867">
   <properties>
    <property name="Water" value="T"/>
   </properties>
  </tile>
  <tile id="868">
   <properties>
    <property name="Water" value="T"/>
   </properties>
  </tile>
  <tile id="869">
   <properties>
    <property name="Water" value="T"/>
   </properties>
  </tile>
  <tile id="870">
   <properties>
    <property name="Water" value="T"/>
   </properties>
  </tile>
  <tile id="880">
   <properties>
    <property name="Water" value="T"/>
   </properties>
  </tile>
  <tile id="881">
   <properties>
    <property name="Water" value="T"/>
   </properties>
  </tile>
  <tile id="882">
   <properties>
    <property name="Water" value="T"/>
   </properties>
  </tile>
  <tile id="883">
   <properties>
    <property name="Water" value="T"/>
   </properties>
  </tile>
  <tile id="896">
   <properties>
    <property name="Diggable" value="T"/>
    <property name="Type" value="Dirt"/>
   </properties>
  </tile>
  <tile id="897">
   <animation>
    <frame tileid="897" duration="1000"/>
    <frame tileid="929" duration="1000"/>
   </animation>
  </tile>
  <tile id="912">
   <animation>
    <frame tileid="912" duration="1000"/>
    <frame tileid="944" duration="1000"/>
   </animation>
  </tile>
  <tile id="913">
   <animation>
    <frame tileid="913" duration="1000"/>
    <frame tileid="945" duration="1000"/>
   </animation>
  </tile>
  <tile id="930">
   <animation>
    <frame tileid="930" duration="1000"/>
    <frame tileid="931" duration="1000"/>
   </animation>
  </tile>
  <tile id="960">
   <animation>
    <frame tileid="960" duration="1000"/>
    <frame tileid="992" duration="1000"/>
   </animation>
  </tile>
  <tile id="961">
   <properties>
    <property name="Diggable" value="T"/>
    <property name="Type" value="Dirt"/>
   </properties>
  </tile>
  <tile id="976">
   <animation>
    <frame tileid="976" duration="1000"/>
    <frame tileid="1008" duration="1000"/>
   </animation>
  </tile>
  <tile id="977">
   <animation>
    <frame tileid="977" duration="1000"/>
    <frame tileid="1009" duration="1000"/>
   </animation>
  </tile>
 </tileset>
 <tileset firstgid="3160" name="PC Computer - Stardew Valley - Farm Buildings (1)" tilewidth="16" tileheight="16" tilecount="1508" columns="58">
  <image source="PC Computer - Stardew Valley - Farm Buildings (1).png" width="928" height="416"/>
 </tileset>
 <tileset firstgid="4668" name="Paths" tilewidth="16" tileheight="16" tilecount="64" columns="4">
  <image source="paths" width="64" height="256"/>
 </tileset>
 <layer id="1" name="Back" width="80" height="65">
  <data encoding="csv">
381,381,381,381,381,381,381,381,381,381,381,381,381,381,381,381,381,381,381,381,381,381,381,381,381,157,381,381,381,381,381,381,381,381,381,381,381,407,353,563,513,564,538,351,405,352,330,352,352,352,330,330,330,330,330,330,330,330,330,330,330,330,381,381,381,381,381,381,381,381,381,381,381,381,157,381,381,381,381,381,
406,406,406,406,406,406,406,406,406,406,406,406,406,406,406,406,406,406,406,406,406,406,406,406,406,406,406,406,406,406,406,406,406,406,406,406,406,352,353,177,624,589,538,351,352,352,354,377,377,377,277,404,330,330,330,330,330,330,330,330,330,330,381,381,381,381,381,381,381,381,381,381,381,381,381,157,381,381,381,381,
330,352,354,377,377,377,377,377,377,277,278,279,377,277,278,279,277,278,279,277,279,377,377,377,377,377,277,278,279,377,377,377,277,278,279,277,278,279,378,177,177,589,538,376,279,377,378,0,176,352,402,376,404,330,330,330,330,352,352,352,352,352,406,406,406,406,406,406,406,406,330,406,406,406,406,406,406,406,330,330,
352,378,377,257,176,257,176,176,176,176,176,176,257,176,176,176,176,176,176,176,176,176,176,176,255,176,176,256,176,255,257,257,176,256,176,176,255,176,256,177,208,589,538,176,176,255,0,0,352,352,330,402,351,352,330,352,330,330,352,352,352,352,305,352,352,301,330,330,306,305,330,352,352,352,352,352,330,352,330,330,
0,378,257,176,588,588,588,588,588,588,588,588,588,588,588,588,588,588,588,588,588,588,588,588,588,588,588,588,588,588,588,588,588,588,588,588,588,588,588,177,177,539,538,588,588,588,588,0,352,377,377,377,376,279,277,278,330,352,352,330,330,352,352,306,305,352,352,352,352,352,301,305,352,352,352,352,352,352,352,352,
354,257,0,588,588,588,588,588,588,588,588,588,588,588,588,588,588,588,588,588,588,588,588,588,588,588,588,588,588,588,588,588,588,218,218,218,588,588,588,587,561,589,538,588,588,588,588,352,378,257,257,257,257,176,255,176,376,404,301,352,352,352,305,352,352,330,352,301,352,305,352,352,301,352,330,352,301,305,352,352,
176,176,588,588,588,588,588,588,588,588,588,588,588,588,588,588,588,588,588,588,588,588,588,588,588,588,588,588,588,588,588,588,588,218,510,218,588,588,588,587,489,589,538,588,588,588,593,594,569,568,569,568,569,568,450,570,151,376,377,277,278,279,377,377,377,277,278,278,279,377,377,377,404,305,330,301,305,352,352,352,
328,176,588,588,538,538,538,538,538,538,538,538,538,538,538,538,538,538,538,538,538,538,538,538,538,538,538,538,538,538,538,538,538,461,461,461,538,538,538,587,177,589,538,538,538,538,612,565,599,154,227,588,588,588,613,595,402,276,176,151,176,402,176,152,176,151,176,402,176,1967,1965,1966,1965,404,330,352,301,305,352,352,
0,176,588,538,538,592,513,839,839,839,563,563,513,563,563,563,563,563,563,563,513,563,563,563,563,513,513,563,563,563,563,563,563,513,563,513,513,567,538,619,177,646,563,563,563,566,588,227,588,588,588,227,227,588,613,620,257,152,176,176,176,276,176,276,176,276,257,257,1965,1965,1966,1965,1967,376,377,352,352,352,355,356,
0,257,538,538,612,611,588,472,473,474,588,588,588,588,588,588,611,588,588,611,588,588,588,590,588,588,588,588,588,588,588,588,588,588,588,588,588,588,474,588,588,611,588,588,588,588,588,590,588,489,588,588,227,588,1977,176,257,257,257,257,257,257,257,257,257,257,257,257,257,1967,1965,1966,1965,257,257,404,352,352,380,381,
0,176,538,612,588,588,590,588,227,588,154,588,208,227,227,588,588,489,588,588,588,561,588,588,588,588,207,182,179,230,231,205,252,253,565,588,227,588,489,588,588,586,588,588,588,588,154,227,227,588,154,588,227,588,1978,1976,151,276,402,276,176,176,151,176,276,176,401,176,176,151,176,276,402,176,276,402,376,404,405,406,
0,176,612,590,588,586,588,588,588,227,561,588,588,588,588,227,154,588,565,588,588,588,464,588,588,588,588,179,254,176,176,176,151,2781,615,207,588,588,588,588,227,588,489,588,588,561,588,588,590,588,588,514,588,611,154,178,204,152,176,151,176,176,176,176,151,176,176,176,176,276,176,152,276,176,176,176,402,262,352,352,
0,176,561,615,588,588,588,590,588,154,154,227,588,464,588,588,227,588,588,588,588,588,588,588,588,588,588,178,204,176,176,176,176,2797,565,588,588,588,207,588,588,588,588,588,588,588,588,464,588,588,232,588,489,154,227,514,178,204,176,176,326,302,304,327,302,303,304,327,327,328,402,326,328,401,176,276,176,287,352,352,
353,176,588,588,464,588,588,588,588,514,588,154,588,588,588,588,227,588,588,588,561,588,588,565,588,489,588,182,229,176,176,176,402,2813,611,489,588,588,588,588,588,464,588,588,588,227,588,588,588,227,588,227,208,227,588,588,207,178,204,326,329,352,352,352,301,352,352,352,354,378,326,329,379,328,402,176,176,312,352,352,
353,176,588,565,588,227,588,154,588,154,154,588,588,590,227,588,588,588,154,588,588,588,227,561,588,588,588,588,178,204,176,176,151,226,615,588,588,227,588,588,588,588,588,489,588,154,154,588,227,588,615,588,588,154,464,232,154,586,1985,351,352,301,352,352,352,352,301,352,353,255,376,352,352,378,152,276,151,351,352,352,
353,176,588,615,154,588,561,588,227,588,561,227,154,588,154,588,208,588,565,588,588,588,588,586,588,588,588,590,588,178,180,181,206,203,590,588,588,588,232,588,588,588,588,588,588,227,588,588,588,588,588,590,588,489,227,588,227,514,1993,351,352,352,352,352,301,352,352,354,378,176,201,475,500,204,276,276,176,376,377,277,
353,176,588,588,154,588,588,588,207,227,154,227,154,154,154,588,207,588,588,588,588,208,588,464,588,611,588,588,588,588,588,588,590,565,588,227,588,588,588,588,588,586,227,588,227,588,588,489,227,588,207,588,588,227,588,590,154,227,2001,376,377,377,377,277,278,279,377,378,257,201,203,611,623,178,180,206,180,181,206,202,
353,176,588,154,588,588,489,588,588,154,207,588,208,154,590,154,588,227,588,227,154,588,588,588,561,588,588,588,588,588,588,588,588,227,588,588,154,588,588,586,588,588,464,514,588,588,227,588,588,154,177,588,227,489,588,154,227,489,178,180,206,180,206,180,181,206,180,206,202,203,588,586,625,598,574,598,574,598,574,598,
353,330,588,615,154,588,588,227,208,227,514,588,588,227,588,154,588,232,588,588,154,588,588,588,154,154,154,588,588,588,154,588,588,590,588,588,588,588,154,227,588,588,588,588,588,154,227,588,154,588,514,588,588,588,227,232,588,227,588,227,208,227,514,588,489,227,227,154,588,232,588,588,154,588,611,228,588,611,182,588,
353,257,588,590,154,588,588,561,588,588,227,154,588,588,154,588,588,588,588,588,588,588,154,207,588,588,154,588,464,588,227,588,588,588,561,588,514,588,588,588,227,588,588,227,588,227,588,154,154,588,588,588,154,588,588,588,154,588,590,588,227,588,227,154,588,588,154,588,588,588,588,588,588,588,588,228,617,596,326,327,
353,176,588,615,588,588,464,154,588,489,588,588,227,588,464,588,154,154,588,586,588,588,588,588,588,154,590,588,588,227,588,588,227,588,588,154,588,588,177,588,588,588,489,464,588,588,154,588,588,227,588,590,588,588,154,227,177,154,177,154,588,489,588,588,227,588,464,588,154,154,588,514,588,588,588,588,613,620,351,352,
353,176,588,561,207,588,588,588,154,588,588,561,588,227,588,588,588,489,588,588,588,177,588,588,154,177,154,588,154,588,588,207,561,588,588,464,588,227,588,489,588,588,588,588,588,514,154,227,588,588,588,207,588,561,227,588,208,588,588,588,154,588,588,154,227,227,588,588,588,489,588,588,588,514,588,227,613,595,351,352,
353,176,588,588,588,588,561,514,588,227,588,227,590,588,588,561,227,588,588,588,154,590,588,588,588,227,588,227,588,588,588,588,588,588,588,588,588,588,588,588,588,227,588,588,588,588,588,154,464,232,588,227,588,588,588,154,588,588,232,514,588,227,588,227,590,588,588,154,227,588,588,588,588,588,588,588,613,620,351,330,
353,176,588,588,176,588,588,588,227,207,588,227,588,588,514,588,154,154,588,154,588,588,464,588,154,588,561,588,154,561,588,227,588,590,588,588,588,590,154,588,588,588,207,588,588,590,588,227,227,588,588,588,227,154,588,154,464,588,154,588,227,207,588,227,588,588,514,588,154,154,588,588,588,464,588,588,613,595,351,330,
330,327,327,327,327,328,588,154,561,588,588,588,227,227,588,154,588,561,588,588,464,588,588,588,227,588,588,154,154,154,588,154,561,588,588,227,588,588,588,227,588,588,588,588,514,588,588,588,588,588,464,227,177,154,514,588,588,588,588,154,588,588,588,588,227,227,588,154,588,590,588,489,588,588,586,588,613,620,351,352,
330,330,352,352,352,353,588,588,154,588,565,588,588,588,588,588,464,588,154,227,588,588,227,588,154,154,227,588,588,227,154,561,588,588,588,588,514,588,588,588,588,588,154,227,588,588,227,489,588,154,154,588,588,588,154,588,227,588,154,588,590,588,489,464,588,514,154,586,588,489,227,588,154,588,588,588,613,595,351,352,
330,330,352,352,352,353,588,561,588,588,588,588,588,588,232,588,588,588,154,588,154,588,588,464,588,588,154,588,588,588,588,588,588,227,586,588,588,588,588,464,588,588,590,588,588,208,588,154,227,588,588,588,590,588,588,489,227,154,154,227,588,154,588,588,588,588,207,588,588,588,588,154,588,514,588,227,613,620,351,352,
330,352,330,330,352,353,588,588,588,227,588,154,227,590,588,154,588,588,588,514,588,227,588,588,588,588,588,588,588,232,588,588,489,588,588,588,207,588,588,588,588,590,588,588,588,588,588,588,588,588,464,588,588,588,586,588,227,227,177,588,588,227,588,588,154,588,227,588,154,588,588,588,207,565,588,588,613,595,351,352,
330,352,330,330,330,353,588,588,207,588,588,588,464,588,588,588,514,154,588,154,588,154,154,588,590,588,227,232,588,227,588,227,208,227,514,588,588,227,588,154,588,232,588,588,154,514,588,154,227,154,588,588,588,154,154,588,588,154,227,489,154,588,588,227,227,208,588,154,588,464,1244,1245,1245,1245,1246,565,613,620,351,352,
330,330,330,330,377,378,588,561,588,227,154,588,588,588,154,588,588,561,154,588,588,561,154,588,588,588,588,588,154,588,590,588,588,588,227,154,588,588,154,588,588,588,588,588,588,588,154,588,154,588,154,227,588,588,514,227,590,588,588,588,588,154,588,464,588,588,588,227,588,588,1269,1270,1270,1270,1271,1246,613,595,351,330,
330,330,354,378,176,588,588,561,154,588,588,588,588,154,154,227,207,588,588,489,588,154,588,588,207,588,590,227,177,154,177,154,588,489,588,588,227,588,464,588,154,154,588,514,514,588,588,154,154,588,154,154,588,565,588,588,588,588,588,464,588,227,227,588,588,227,588,154,588,208,1247,1300,1247,1273,1268,1271,613,620,351,352,
330,330,378,176,588,588,588,588,154,588,588,489,588,154,588,588,464,588,588,588,588,154,588,561,588,561,588,588,208,588,588,588,154,588,588,154,588,227,588,588,588,489,588,588,588,588,154,514,228,588,588,588,588,588,588,588,588,232,588,588,588,154,588,154,588,588,464,588,588,586,2907,1323,1247,1247,1247,1250,613,595,351,352,
352,353,176,588,588,588,587,588,227,588,588,588,561,227,227,590,588,588,207,588,154,228,227,588,588,588,588,154,588,588,232,514,588,227,588,227,590,588,588,154,227,588,588,588,588,588,208,588,227,588,227,588,227,588,154,227,154,588,154,588,588,588,514,588,227,586,588,588,588,588,2923,1250,1272,1272,1272,1272,613,620,351,352,
352,353,588,588,588,538,612,588,154,588,208,588,227,154,588,227,588,588,561,154,154,208,588,154,588,154,561,154,464,588,154,588,227,207,588,227,588,588,514,588,154,154,588,588,588,154,588,588,588,154,154,590,588,588,588,464,588,588,588,514,154,588,154,588,514,154,588,590,588,588,588,1272,1249,1300,1272,227,613,595,351,352,
257,353,588,588,538,612,588,588,588,561,588,588,588,588,590,588,588,561,154,588,588,588,588,588,590,154,154,588,588,588,590,154,588,588,588,588,227,207,588,154,588,154,588,489,588,154,588,464,588,588,588,588,227,154,588,588,588,154,588,588,588,154,588,588,227,154,588,590,588,514,588,154,611,588,586,588,613,620,351,330,
352,353,588,538,612,561,588,588,227,588,588,561,588,154,588,588,227,588,514,588,588,590,464,588,154,588,154,489,227,588,154,588,590,588,489,464,588,154,154,588,588,489,588,588,154,154,588,586,588,588,514,227,514,588,588,588,514,154,227,227,588,588,489,588,154,588,588,154,227,588,588,588,588,464,588,227,613,595,351,330,
352,353,588,612,588,588,514,588,590,588,227,489,588,588,154,590,227,588,227,154,154,227,588,588,588,588,588,590,588,154,489,227,588,154,588,588,588,588,207,588,588,588,588,154,561,154,588,227,154,588,588,154,588,588,489,588,154,588,588,464,588,588,588,588,154,588,561,588,588,588,588,208,588,588,588,588,613,620,351,352,
330,353,588,588,588,588,227,588,227,588,227,588,588,464,227,228,588,590,154,588,588,154,588,588,615,588,588,588,227,227,177,588,588,227,588,588,154,588,227,586,154,207,588,588,154,588,588,227,588,588,154,227,588,588,588,588,227,227,514,588,561,154,588,154,228,227,588,588,514,588,154,588,588,588,154,588,613,595,351,330,
330,353,588,561,588,561,588,588,588,588,588,588,588,154,588,154,588,588,588,588,588,154,227,588,588,154,154,588,588,154,227,489,154,588,588,227,588,208,588,154,588,464,561,588,588,588,588,207,228,588,227,154,588,208,588,227,154,588,227,588,588,588,154,154,208,588,154,588,464,588,588,565,590,588,590,154,613,620,351,330,
330,328,588,615,489,588,588,588,561,489,227,154,588,227,588,227,588,154,588,208,227,227,588,588,489,588,154,227,590,588,588,588,588,154,588,464,588,588,588,227,588,588,154,154,588,588,561,588,489,514,588,588,588,588,588,588,588,590,588,588,588,588,588,588,588,588,588,588,588,588,588,588,588,588,154,588,613,595,351,352,
330,353,588,588,588,464,588,588,588,154,177,154,154,588,588,588,227,154,588,588,588,588,227,154,588,565,588,588,588,588,588,464,588,227,154,588,154,227,588,154,588,227,154,154,227,588,154,588,588,588,588,227,588,514,561,588,154,588,588,227,588,514,588,514,588,464,588,154,588,588,588,588,154,588,588,588,613,620,351,352,
352,282,588,615,588,588,588,588,154,208,154,227,154,588,590,588,154,154,207,588,464,588,588,227,588,588,588,588,588,232,588,489,154,590,588,154,588,588,464,588,154,154,588,588,588,588,227,588,588,588,207,590,588,227,588,588,588,154,154,227,588,227,154,154,227,588,588,588,154,227,227,588,514,588,586,588,613,595,351,352,
407,307,588,588,588,588,588,227,154,588,561,588,489,588,588,588,514,588,154,588,588,588,588,227,588,588,154,227,154,588,154,588,588,588,514,588,227,588,588,588,154,588,588,588,232,154,154,588,207,588,227,227,588,227,588,588,464,227,228,588,590,154,588,588,154,588,588,615,588,227,590,588,588,588,590,588,613,620,351,352,
352,332,588,588,207,588,588,588,588,588,464,588,588,227,154,588,154,588,588,588,588,227,588,588,588,154,154,588,514,588,208,227,154,588,588,588,514,154,208,588,588,590,232,588,588,514,590,588,588,588,588,588,588,561,207,588,561,588,154,588,588,588,588,588,561,227,588,588,588,588,588,464,588,588,154,588,613,595,351,352,
352,353,588,588,588,588,588,489,588,154,588,588,588,588,561,227,588,588,489,561,588,154,588,208,588,565,588,588,588,588,154,154,588,588,154,588,154,588,588,154,154,588,588,588,588,514,588,588,588,588,154,227,154,154,154,588,227,588,227,588,154,588,208,514,227,588,588,489,588,588,588,154,588,588,588,588,613,620,351,352,
354,378,588,615,227,588,588,588,588,154,588,588,227,227,588,207,227,154,227,154,154,588,588,207,588,588,588,154,588,588,227,588,154,590,489,588,464,588,588,154,588,588,227,588,588,588,588,588,464,227,154,588,154,177,154,514,588,588,588,227,561,588,588,588,588,227,154,588,227,154,588,154,588,586,588,588,613,595,351,352,
353,402,588,561,588,588,561,588,227,588,154,588,228,588,588,588,154,588,588,561,154,489,154,588,227,588,154,154,227,489,588,588,588,588,588,588,588,588,588,489,588,588,588,154,588,207,154,154,588,177,154,154,588,561,227,154,588,590,588,154,154,227,588,464,588,514,227,588,177,154,227,154,588,588,588,588,613,620,351,352,
379,328,588,588,588,588,588,588,588,227,232,588,227,588,227,208,227,514,588,588,227,588,154,588,232,588,588,154,588,588,588,586,590,154,588,154,588,154,588,588,154,588,588,154,588,154,588,588,588,588,227,154,588,588,588,207,588,588,588,514,588,154,588,588,588,561,227,588,588,588,154,588,227,588,154,588,613,595,351,352,
352,353,588,588,464,588,489,154,588,588,588,154,489,590,588,588,588,227,154,588,588,154,588,588,489,561,588,154,588,154,154,588,588,588,588,232,588,489,590,588,561,588,588,588,590,227,154,588,590,588,154,588,588,464,154,588,227,154,588,154,588,588,588,588,227,588,588,588,154,154,588,514,588,588,227,588,613,620,351,352,
352,353,588,588,590,588,588,588,588,154,227,177,154,177,154,588,489,588,588,227,588,464,588,154,154,588,514,588,154,588,154,154,464,588,588,565,1244,1245,1245,1245,1245,1245,1246,3001,588,588,561,588,588,588,208,588,154,588,208,588,154,588,227,588,588,227,154,588,154,588,208,588,565,588,588,588,588,154,154,588,613,595,351,352,
352,353,615,615,588,588,588,514,561,489,588,208,588,588,588,154,588,588,154,588,227,588,588,588,154,588,588,588,154,588,154,154,588,588,2936,1244,1269,1270,1270,1270,1270,1270,2892,2875,561,588,588,588,154,227,154,588,154,588,588,154,154,588,207,227,154,227,154,154,514,588,207,588,588,588,154,588,588,227,588,588,613,620,351,352,
352,353,588,561,588,514,588,588,588,588,154,588,588,232,514,588,227,588,227,590,561,588,154,227,588,588,514,208,588,464,154,489,588,586,2860,2888,2889,1300,1247,1247,1275,1273,2890,2891,1245,1246,590,588,154,177,154,227,588,154,588,228,588,588,588,154,588,588,588,154,588,154,588,227,588,227,227,227,489,588,588,227,613,595,351,352,
330,353,588,588,588,588,588,588,154,588,154,464,588,489,588,227,207,588,227,588,588,514,489,154,154,154,588,588,154,588,588,588,154,1244,2888,2889,1247,1247,1250,1231,1231,1247,1275,1268,1270,1271,1246,588,227,588,154,154,588,227,588,588,489,588,588,588,227,588,588,154,154,227,588,154,588,154,154,588,588,588,586,588,613,620,351,352,
330,353,588,588,588,588,489,588,154,154,588,588,588,588,154,588,588,588,588,227,227,588,154,588,489,588,489,588,154,588,154,154,588,1269,1267,1247,1275,1230,1229,1256,1256,1254,1247,1247,1300,1268,1271,588,588,588,514,154,588,588,588,154,588,588,227,588,154,561,588,588,588,154,588,227,588,588,588,588,588,565,561,588,613,595,351,352,
330,353,588,615,588,588,588,154,588,154,588,227,588,154,588,590,588,489,464,588,154,154,514,588,489,154,588,154,154,588,588,154,588,1247,1272,1247,1274,1255,1228,1281,1281,1278,1282,1247,1250,1247,1272,561,464,588,588,588,154,208,227,154,588,154,588,227,588,588,227,227,227,154,588,464,588,514,588,588,228,228,228,588,613,620,351,352,
330,353,588,588,588,464,588,588,588,588,489,489,154,154,227,588,154,588,588,588,588,207,588,588,588,154,154,154,588,489,588,489,588,561,1247,1275,1247,1280,1281,1253,1281,1279,1247,1247,1275,1247,1247,588,588,154,588,154,177,154,154,588,588,227,588,588,154,588,177,154,227,208,588,588,588,588,588,588,588,588,588,588,613,595,351,352,
352,378,588,588,588,590,588,489,588,588,588,227,227,177,588,588,227,588,514,154,588,227,588,154,588,588,588,154,154,588,154,154,588,588,1247,1247,1247,1305,1306,1306,1306,1247,1248,1272,1247,1247,588,588,588,154,588,588,588,588,154,588,588,588,588,588,588,464,588,588,154,588,588,588,227,588,565,588,588,588,326,327,327,327,327,327,
330,353,588,615,588,588,588,588,154,154,588,588,154,227,489,154,588,588,227,588,208,588,154,588,464,561,588,588,154,588,588,208,154,588,588,464,1247,1300,1247,1275,1250,1247,1247,1247,1247,561,588,590,588,154,154,464,588,154,588,590,588,514,588,154,154,588,154,588,588,588,227,227,228,228,228,588,588,588,351,330,330,352,330,352,
352,353,588,565,588,227,489,588,588,154,227,590,588,588,588,588,154,588,464,588,588,588,227,588,588,154,154,588,588,207,588,154,588,464,588,588,590,1247,1300,1247,1247,1247,590,588,588,588,588,590,227,588,588,588,588,227,588,588,588,588,588,154,227,588,588,489,489,227,588,227,588,588,588,588,588,588,376,377,377,377,277,278,
352,353,588,588,588,588,588,588,565,588,588,588,588,588,464,588,227,227,588,588,489,588,154,588,227,154,489,227,154,588,588,154,154,588,588,588,154,588,561,514,588,588,588,588,154,208,154,588,154,154,588,588,227,154,588,227,154,154,588,154,227,588,588,588,588,588,588,228,588,588,326,327,328,328,588,377,377,377,377,377,
352,353,588,565,590,588,588,588,588,588,588,588,232,588,588,588,154,588,154,588,588,464,588,588,154,154,588,588,154,154,588,154,154,154,208,154,588,588,588,590,154,588,588,154,588,588,588,561,588,588,588,565,588,588,227,588,588,588,588,588,154,588,588,588,588,565,588,228,588,588,351,352,353,588,588,588,588,588,588,588,
352,353,588,588,590,588,588,588,588,154,227,154,588,154,588,588,588,514,588,227,588,588,588,588,588,588,588,232,588,588,588,588,588,588,588,588,588,588,588,588,588,588,588,588,588,588,588,588,588,588,588,588,588,588,588,588,588,588,588,588,588,588,588,588,588,588,588,588,588,588,351,352,353,588,588,588,588,588,588,588,
381,357,327,327,327,327,327,327,327,327,327,327,327,327,327,327,327,327,327,327,327,327,327,327,327,327,327,327,327,327,327,327,327,327,327,176,176,176,176,588,586,588,588,326,327,327,327,327,327,327,327,327,327,327,327,327,327,327,327,327,327,327,327,327,327,327,327,327,327,327,329,352,353,588,588,588,588,588,538,623,
381,383,357,330,330,330,330,330,330,330,330,330,352,330,356,356,356,356,356,356,352,352,352,352,352,352,352,352,352,352,352,352,352,330,176,176,176,176,176,588,588,588,588,351,352,352,352,352,352,352,352,352,352,352,352,352,352,352,352,352,352,352,352,352,352,352,352,330,330,330,352,352,353,588,588,1244,1245,1246,614,538,
381,381,382,352,352,330,330,330,330,330,330,330,352,352,381,381,157,381,381,381,352,352,355,356,356,356,356,356,356,356,356,356,356,356,176,176,176,176,176,588,588,588,588,351,330,356,356,356,356,356,356,356,356,356,356,356,356,356,356,356,356,356,356,356,356,356,356,356,356,330,352,305,353,588,1244,1269,1270,1271,1246,588
</data>
 </layer>
 <objectgroup id="2" name="Back">
  <object id="1" name="TileData" x="639.5" y="10" width="16" height="16">
   <properties>
    <property name="NoSpawn" value="All"/>
   </properties>
  </object>
  <object id="2" name="TileData" x="655.5" y="10" width="16" height="16">
   <properties>
    <property name="NoSpawn" value="All"/>
   </properties>
  </object>
  <object id="3" name="TileData" x="639.5" y="26" width="16" height="16">
   <properties>
    <property name="NoSpawn" value="All"/>
   </properties>
  </object>
  <object id="4" name="TileData" x="655.5" y="26" width="16" height="16">
   <properties>
    <property name="NoSpawn" value="All"/>
   </properties>
  </object>
  <object id="5" name="TileData" x="639.5" y="42" width="16" height="16">
   <properties>
    <property name="NoSpawn" value="All"/>
   </properties>
  </object>
  <object id="6" name="TileData" x="655.5" y="42" width="16" height="16">
   <properties>
    <property name="NoSpawn" value="All"/>
   </properties>
  </object>
  <object id="7" name="TileData" x="639.5" y="58" width="16" height="16">
   <properties>
    <property name="NoSpawn" value="All"/>
   </properties>
  </object>
  <object id="8" name="TileData" x="655.5" y="58" width="16" height="16">
   <properties>
    <property name="NoSpawn" value="All"/>
   </properties>
  </object>
  <object id="9" name="TileData" x="639.5" y="74" width="16" height="16">
   <properties>
    <property name="NoSpawn" value="All"/>
   </properties>
  </object>
  <object id="10" name="TileData" x="655.5" y="74" width="16" height="16">
   <properties>
    <property name="NoSpawn" value="All"/>
   </properties>
  </object>
  <object id="11" name="TileData" x="543.5" y="90" width="16" height="16">
   <properties>
    <property name="NoFurniture" value="total"/>
    <property name="NoSpawn" value="All"/>
   </properties>
  </object>
  <object id="12" name="TileData" x="639.5" y="90" width="16" height="16">
   <properties>
    <property name="NoSpawn" value="All"/>
   </properties>
  </object>
  <object id="13" name="TileData" x="655.5" y="90" width="16" height="16">
   <properties>
    <property name="NoSpawn" value="All"/>
   </properties>
  </object>
  <object id="14" name="TileData" x="543.5" y="106" width="16" height="16">
   <properties>
    <property name="NoFurniture" value="total"/>
    <property name="NoSpawn" value="All"/>
   </properties>
  </object>
  <object id="15" name="TileData" x="639.5" y="106" width="16" height="16">
   <properties>
    <property name="NPCBarrier" value="T"/>
    <property name="NoSpawn" value="All"/>
   </properties>
  </object>
  <object id="16" name="TileData" x="655.5" y="106" width="16" height="16">
   <properties>
    <property name="NPCBarrier" value="T"/>
    <property name="NoSpawn" value="All"/>
   </properties>
  </object>
  <object id="17" name="TileData" x="543.5" y="122" width="16" height="16">
   <properties>
    <property name="NPCBarrier" value="T"/>
    <property name="NoSpawn" value="All"/>
   </properties>
  </object>
  <object id="18" name="TileData" x="767.5" y="122" width="16" height="16">
   <properties>
    <property name="NoSpawn" value="All"/>
   </properties>
  </object>
  <object id="19" name="TileData" x="527.5" y="138" width="16" height="16">
   <properties>
    <property name="NoSpawn" value="All"/>
   </properties>
  </object>
  <object id="20" name="TileData" x="543.5" y="138" width="16" height="16">
   <properties>
    <property name="NoSpawn" value="All"/>
   </properties>
  </object>
  <object id="21" name="TileData" x="559.5" y="138" width="16" height="16">
   <properties>
    <property name="NoSpawn" value="All"/>
   </properties>
  </object>
  <object id="22" name="TileData" x="527.5" y="154" width="16" height="16">
   <properties>
    <property name="NoSpawn" value="Tree"/>
   </properties>
  </object>
  <object id="23" name="TileData" x="543.5" y="154" width="16" height="16">
   <properties>
    <property name="NoSpawn" value="Tree"/>
   </properties>
  </object>
  <object id="24" name="TileData" x="559.5" y="154" width="16" height="16">
   <properties>
    <property name="NoSpawn" value="Tree"/>
   </properties>
  </object>
  <object id="25" name="TileData" x="1103.5" y="154" width="16" height="16">
   <properties>
    <property name="NoSpawn" value="All"/>
   </properties>
  </object>
  <object id="26" name="TileData" x="1103.5" y="170" width="16" height="16">
   <properties>
    <property name="Buildable" value="f"/>
   </properties>
  </object>
  <object id="27" name="TileData" x="1119.5" y="170" width="16" height="16">
   <properties>
    <property name="Buildable" value="f"/>
   </properties>
  </object>
  <object id="28" name="TileData" x="1135.5" y="170" width="16" height="16">
   <properties>
    <property name="Buildable" value="f"/>
   </properties>
  </object>
  <object id="29" name="TileData" x="1151.5" y="170" width="16" height="16">
   <properties>
    <property name="Buildable" value="f"/>
   </properties>
  </object>
  <object id="30" name="TileData" x="1103.5" y="186" width="16" height="16">
   <properties>
    <property name="Buildable" value="f"/>
   </properties>
  </object>
  <object id="31" name="TileData" x="1119.5" y="186" width="16" height="16">
   <properties>
    <property name="Buildable" value="f"/>
   </properties>
  </object>
  <object id="32" name="TileData" x="1135.5" y="186" width="16" height="16">
   <properties>
    <property name="Buildable" value="f"/>
   </properties>
  </object>
  <object id="33" name="TileData" x="1151.5" y="186" width="16" height="16">
   <properties>
    <property name="Buildable" value="f"/>
   </properties>
  </object>
  <object id="34" name="TileData" x="1103.5" y="202" width="16" height="16">
   <properties>
    <property name="Buildable" value="f"/>
   </properties>
  </object>
  <object id="35" name="TileData" x="1119.5" y="202" width="16" height="16">
   <properties>
    <property name="Buildable" value="f"/>
   </properties>
  </object>
  <object id="36" name="TileData" x="1135.5" y="202" width="16" height="16">
   <properties>
    <property name="Buildable" value="f"/>
   </properties>
  </object>
  <object id="37" name="TileData" x="1151.5" y="202" width="16" height="16">
   <properties>
    <property name="Buildable" value="f"/>
   </properties>
  </object>
  <object id="38" name="TileData" x="1103.5" y="218" width="16" height="16">
   <properties>
    <property name="Buildable" value="f"/>
   </properties>
  </object>
  <object id="39" name="TileData" x="1119.5" y="218" width="16" height="16">
   <properties>
    <property name="Buildable" value="f"/>
   </properties>
  </object>
  <object id="40" name="TileData" x="1135.5" y="218" width="16" height="16">
   <properties>
    <property name="Buildable" value="f"/>
   </properties>
  </object>
  <object id="41" name="TileData" x="1151.5" y="218" width="16" height="16">
   <properties>
    <property name="Buildable" value="f"/>
   </properties>
  </object>
  <object id="42" name="TileData" x="1247.5" y="250" width="16" height="16">
   <properties>
    <property name="NPCBarrier" value="T"/>
   </properties>
  </object>
  <object id="43" name="TileData" x="1263.5" y="250" width="16" height="16">
   <properties>
    <property name="NoSpawn" value="All"/>
   </properties>
  </object>
  <object id="44" name="TileData" x="1247.5" y="266" width="16" height="16">
   <properties>
    <property name="NPCBarrier" value="T"/>
   </properties>
  </object>
  <object id="45" name="TileData" x="1263.5" y="266" width="16" height="16">
   <properties>
    <property name="NoSpawn" value="All"/>
   </properties>
  </object>
  <object id="46" name="TileData" x="1247.5" y="282" width="16" height="16">
   <properties>
    <property name="NPCBarrier" value="T"/>
   </properties>
  </object>
  <object id="47" name="TileData" x="1263.5" y="282" width="16" height="16">
   <properties>
    <property name="NoSpawn" value="All"/>
   </properties>
  </object>
  <object id="48" name="TileData" x="1247.5" y="298" width="16" height="16">
   <properties>
    <property name="NPCBarrier" value="T"/>
   </properties>
  </object>
  <object id="49" name="TileData" x="1263.5" y="298" width="16" height="16">
   <properties>
    <property name="NoSpawn" value="All"/>
   </properties>
  </object>
  <object id="50" name="TileData" x="1103.5" y="970" width="16" height="16">
   <properties>
    <property name="NPCBarrier" value="T"/>
   </properties>
  </object>
  <object id="51" name="TileData" x="623.5" y="1002" width="16" height="16">
   <properties>
    <property name="NPCBarrier" value="T"/>
   </properties>
  </object>
  <object id="52" name="TileData" x="639.5" y="1002" width="16" height="16">
   <properties>
    <property name="NPCBarrier" value="T"/>
    <property name="NoSpawn" value="All"/>
   </properties>
  </object>
  <object id="53" name="TileData" x="655.5" y="1002" width="16" height="16">
   <properties>
    <property name="NPCBarrier" value="T"/>
    <property name="NoSpawn" value="All"/>
   </properties>
  </object>
  <object id="54" name="TileData" x="671.5" y="1002" width="16" height="16">
   <properties>
    <property name="NPCBarrier" value="T"/>
   </properties>
  </object>
  <object id="55" name="TileData" x="623.5" y="1018" width="16" height="16">
   <properties>
    <property name="NoSpawn" value="All"/>
   </properties>
  </object>
  <object id="56" name="TileData" x="639.5" y="1018" width="16" height="16">
   <properties>
    <property name="NoSpawn" value="All"/>
   </properties>
  </object>
  <object id="57" name="TileData" x="655.5" y="1018" width="16" height="16">
   <properties>
    <property name="NoSpawn" value="All"/>
   </properties>
  </object>
  <object id="58" name="TileData" x="671.5" y="1018" width="16" height="16">
   <properties>
    <property name="NPCBarrier" value="T"/>
    <property name="NoSpawn" value="All"/>
   </properties>
  </object>
  <object id="59" name="TileData" x="639.5" y="1034" width="16" height="16">
   <properties>
    <property name="NoSpawn" value="All"/>
   </properties>
  </object>
  <object id="60" name="TileData" x="655.5" y="1034" width="16" height="16">
   <properties>
    <property name="NoSpawn" value="All"/>
   </properties>
  </object>
 </objectgroup>
 <layer id="3" name="Buildings" width="80" height="65">
  <data encoding="csv">
40,41,39,40,41,17,17,130,0,0,127,133,134,127,39,40,41,54,55,56,108,109,128,79,80,81,127,76,77,133,134,55,56,130,127,79,39,40,41,420,0,0,417,17,0,0,0,158,159,17,17,29,30,31,17,30,76,77,22,22,51,52,39,40,41,17,17,17,17,54,55,39,40,41,17,130,17,17,17,17,
65,66,64,65,66,17,17,17,0,17,233,158,159,406,64,65,66,79,80,81,133,134,406,17,105,17,233,0,102,158,159,80,81,406,406,233,64,65,66,395,0,0,392,89,90,17,17,17,17,17,17,54,55,56,17,55,56,102,22,22,76,77,64,65,66,17,17,17,17,79,80,64,65,66,17,17,17,17,17,17,
17,0,0,17,17,17,17,0,0,0,17,0,0,0,0,0,0,104,105,17,158,159,377,17,130,17,17,17,127,17,17,105,17,17,17,17,130,89,90,420,0,0,417,114,115,17,17,297,447,471,17,17,79,81,17,80,81,127,39,40,41,102,17,17,308,258,17,17,17,233,406,258,308,17,17,17,17,22,406,17,
15,16,17,17,256,17,255,17,17,17,17,17,233,17,17,17,255,17,130,17,17,17,233,17,17,17,17,17,17,17,17,130,17,17,17,17,17,114,115,445,0,0,442,233,17,17,297,322,493,496,497,17,17,233,17,105,308,258,64,65,66,127,17,233,17,22,17,17,17,17,130,17,305,17,17,17,17,258,144,145,
40,41,257,233,297,468,469,468,469,468,469,468,469,468,469,468,469,468,469,468,469,468,469,447,469,468,469,447,469,468,469,468,469,1634,1635,1636,469,447,469,470,0,0,467,447,469,447,322,347,518,521,522,523,17,17,17,130,258,17,233,0,0,17,17,17,17,17,169,170,22,17,22,22,22,17,17,17,258,308,169,170,
65,66,255,297,322,493,494,1907,1908,1909,494,493,448,493,494,493,494,493,494,493,448,493,494,493,494,493,494,493,494,493,448,493,494,1659,0,1661,448,493,494,495,0,0,492,493,494,493,347,397,543,546,547,548,549,17,17,362,17,17,17,169,170,17,17,17,17,17,17,17,17,17,17,17,17,17,17,17,17,17,362,17,
353,17,295,322,347,449,519,1932,1933,1934,519,518,519,518,519,449,519,518,519,449,519,518,519,518,519,518,519,518,519,518,519,518,519,1684,0,1686,519,518,519,520,0,0,517,518,519,347,372,0,836,0,384,385,384,385,386,387,17,17,17,17,17,17,17,17,17,17,17,17,362,17,17,17,17,17,17,17,17,17,387,17,
328,395,320,347,397,543,544,1957,1958,1959,544,543,544,543,544,543,544,543,544,543,544,543,544,543,544,543,544,543,544,543,544,543,544,1709,0,1711,544,543,544,545,0,0,542,543,544,545,0,0,0,0,0,0,0,0,0,412,17,17,17,17,17,17,17,17,17,17,17,17,412,384,385,385,386,412,130,17,17,17,412,17,
353,420,345,372,0,0,0,0,0,0,0,0,0,0,0,0,0,0,0,0,0,0,0,0,0,0,0,0,0,0,0,0,0,0,0,0,0,0,0,0,0,0,0,0,0,0,0,0,0,0,0,0,0,0,0,437,130,17,17,17,17,17,17,17,17,17,17,127,437,0,0,0,0,437,17,17,17,17,387,105,
353,395,370,0,0,0,0,0,0,0,0,0,0,0,0,0,0,0,0,0,0,0,0,0,0,0,0,3596,3597,3598,3599,3600,3601,3602,3603,0,0,0,0,0,0,0,0,0,0,0,0,0,0,0,0,0,0,0,0,384,385,385,385,385,385,386,385,385,385,385,386,385,386,0,0,0,0,384,384,385,385,386,387,130,
353,420,395,0,0,0,0,0,0,0,0,0,0,0,0,0,0,0,0,0,0,0,0,0,0,0,0,3654,3655,3656,3657,3658,3659,3660,3661,0,0,0,0,0,0,0,0,0,0,0,0,0,0,0,0,0,0,0,0,0,0,0,0,0,0,0,0,0,0,0,0,0,0,0,0,0,0,0,0,0,0,0,387,17,
353,395,420,0,0,0,0,0,0,0,0,0,0,0,0,0,0,0,0,0,0,0,0,0,0,0,0,3712,3713,3714,3715,3716,3717,3718,3719,0,0,0,0,0,0,0,0,0,0,0,0,0,0,0,0,0,0,0,0,0,0,0,0,0,0,0,0,0,0,0,0,0,0,0,0,0,0,0,0,0,0,0,387,130,
353,420,395,0,0,0,0,0,0,0,0,0,0,0,0,0,0,0,0,0,0,0,0,0,0,0,0,3770,3771,3772,3773,3774,3775,3776,3777,0,0,0,0,0,0,0,0,0,0,0,0,0,0,0,0,0,0,0,0,0,0,0,0,0,0,0,0,0,0,0,0,0,0,0,0,0,0,0,0,0,0,0,387,258,
258,395,420,0,0,0,0,0,0,0,0,0,0,0,0,0,0,0,0,0,0,0,0,0,0,0,0,3828,3829,3830,3831,3832,3833,3834,3835,0,0,0,0,0,0,0,0,0,0,0,0,0,0,0,0,0,0,0,0,0,0,0,0,4436,4437,4438,4439,4440,4441,4442,4443,4444,0,0,0,0,0,0,0,0,0,0,412,308,
17,420,395,0,0,0,0,0,0,0,0,0,0,0,0,0,0,0,0,0,0,0,0,0,0,0,0,3886,3887,3888,3889,3890,3891,3892,3893,0,0,0,0,0,0,0,0,0,0,0,0,0,0,0,0,0,0,0,0,0,0,0,0,4494,4495,4496,4497,4498,4499,4500,4501,4502,0,0,0,0,0,0,0,0,0,0,437,384,
378,445,395,0,0,0,0,0,0,0,0,0,0,0,0,0,0,0,0,0,0,0,0,0,0,0,0,3944,3945,3946,3947,3948,3949,3950,3951,0,0,0,0,0,0,0,0,0,0,0,0,0,0,0,0,0,0,0,0,0,0,0,0,4552,4553,4554,4555,4556,4557,4558,4559,4560,0,0,0,0,0,0,0,0,0,0,0,0,
469,470,420,0,0,0,0,0,0,0,0,0,0,0,0,0,0,0,0,0,0,0,0,0,0,0,0,4002,4003,4004,4005,4006,4007,4008,4009,0,0,0,0,0,0,0,0,0,0,0,0,0,0,0,0,0,0,0,0,0,0,0,0,4610,4611,4612,4613,4614,4615,4616,4617,4618,0,0,0,0,0,0,0,0,0,0,0,0,
494,495,395,0,0,0,0,0,0,0,0,0,0,0,0,0,0,0,0,0,0,0,0,0,0,0,0,0,0,0,0,0,0,0,0,0,0,0,0,0,0,0,0,0,0,0,0,0,0,0,0,0,0,0,0,0,0,0,0,0,0,0,0,0,0,0,0,0,0,0,0,0,0,0,0,0,0,0,0,0,
519,520,420,0,0,0,0,0,0,0,0,0,0,0,0,0,0,0,0,0,0,0,0,0,0,0,0,0,0,0,0,0,0,0,0,0,0,0,0,0,0,0,0,0,0,0,0,0,0,0,0,0,0,0,0,0,0,0,0,0,0,0,0,0,0,0,0,0,0,0,0,0,0,0,0,0,0,0,0,0,
544,545,395,0,0,0,0,0,0,0,0,0,0,0,0,0,0,0,0,0,0,0,0,0,0,0,0,0,0,0,0,0,0,0,0,0,0,0,0,0,0,0,0,0,0,0,0,0,0,0,0,0,0,0,0,0,0,0,0,0,0,0,0,0,0,0,0,0,0,0,0,0,0,0,0,0,0,387,384,385,
17,17,420,0,0,0,0,0,0,0,0,0,0,0,0,0,0,0,0,0,0,0,0,0,0,0,0,0,0,0,0,0,0,0,0,0,0,0,0,0,0,0,0,0,0,0,0,0,0,0,0,0,0,0,0,0,0,0,0,0,0,0,0,0,0,0,0,0,0,0,0,0,0,0,0,0,0,387,17,17,
17,17,395,0,0,0,0,0,0,0,0,0,0,0,0,0,0,0,0,0,0,0,0,0,0,0,0,0,0,0,0,0,0,0,0,0,0,0,0,0,0,0,0,0,0,0,0,0,0,0,0,0,0,0,0,0,0,0,0,0,0,0,0,0,0,0,0,0,0,0,0,0,0,0,0,0,0,387,17,17,
17,17,413,0,0,0,0,0,0,0,0,0,0,0,0,0,0,0,0,0,0,0,0,0,0,0,0,0,0,0,0,0,0,0,0,0,0,0,0,0,0,0,0,0,0,0,0,0,0,0,0,0,0,0,0,0,0,0,0,0,0,0,0,0,0,0,0,0,0,0,0,0,0,0,0,0,0,387,17,17,
17,308,255,176,258,255,395,0,0,0,0,0,0,0,0,0,0,0,0,0,0,0,0,0,0,0,0,0,0,0,0,0,0,0,0,0,0,0,0,0,0,0,0,0,0,0,0,0,0,0,0,0,0,0,0,0,0,0,0,0,0,0,0,0,0,0,0,0,0,0,0,0,0,0,0,0,0,387,233,17,
17,17,17,17,17,17,420,0,0,0,0,0,0,0,0,0,0,0,0,0,0,0,0,0,0,0,0,0,0,0,0,0,0,0,0,0,0,0,0,0,0,0,0,0,0,0,0,0,0,0,0,0,0,0,0,0,0,0,0,0,0,0,0,0,0,0,0,0,0,0,0,0,0,0,0,0,0,387,308,169,
169,170,17,17,17,17,395,0,0,0,0,0,0,0,0,0,0,0,0,0,0,0,0,0,0,0,0,0,0,0,0,0,0,0,0,0,0,0,0,0,0,0,0,0,0,0,0,0,0,0,0,0,0,0,0,0,0,0,0,0,0,0,0,0,0,0,0,0,0,0,0,0,0,0,0,0,0,387,17,258,
308,17,17,17,17,17,420,0,0,0,0,0,0,0,0,0,0,0,0,0,0,0,0,0,0,0,0,0,0,0,0,0,0,0,0,0,0,0,0,0,0,0,0,0,0,0,0,0,0,0,0,0,0,0,0,0,0,0,0,0,0,0,0,0,0,0,0,0,0,0,0,0,0,0,0,0,0,387,17,17,
17,17,17,308,0,233,395,0,0,0,0,0,0,0,0,0,0,0,0,0,0,0,0,0,0,0,0,0,0,0,0,0,0,0,0,0,0,0,0,0,0,0,0,0,0,0,0,0,0,0,0,0,0,0,0,0,0,0,0,0,0,0,0,0,0,0,0,0,0,0,0,0,0,0,0,0,0,387,17,17,
17,17,233,0,0,258,420,0,0,0,0,0,0,0,0,0,0,0,0,0,0,0,0,0,0,0,0,0,0,0,0,0,0,0,0,0,0,0,0,0,0,0,0,0,0,0,0,0,0,0,0,0,0,0,0,0,0,0,0,0,0,0,0,0,0,0,0,0,0,0,184,185,212,185,186,0,0,387,17,17,
17,17,17,169,170,17,445,0,0,0,0,0,0,0,0,0,0,0,0,0,0,0,0,0,0,0,0,0,0,0,0,0,0,0,0,0,0,0,0,0,0,0,0,0,0,0,0,0,0,0,0,0,0,0,0,0,0,0,0,0,0,0,0,0,0,0,0,0,0,0,209,1294,210,210,285,186,0,387,17,233,
308,17,17,258,17,297,470,0,0,0,0,0,0,0,0,0,0,0,0,0,0,0,0,0,0,0,0,0,0,0,0,0,0,0,0,0,0,0,0,0,0,0,0,0,0,0,0,0,0,0,0,0,0,0,0,0,0,0,0,0,0,0,0,0,0,0,0,0,0,0,2938,0,0,0,0,211,0,387,130,17,
17,130,17,17,297,322,495,0,0,0,0,0,0,0,0,0,0,0,0,0,0,0,0,0,0,0,0,0,0,0,0,0,0,0,0,0,0,0,0,0,0,0,0,0,0,0,0,0,0,0,0,0,0,0,0,0,0,0,0,0,0,0,0,0,0,0,0,0,0,0,2970,0,0,0,0,236,0,387,17,17,
435,17,255,297,322,347,520,0,0,0,0,0,0,0,0,0,0,0,0,0,0,0,0,0,0,0,0,0,0,0,0,0,0,0,0,0,0,0,0,0,0,0,0,0,0,0,0,0,0,0,0,0,0,0,0,0,0,0,0,0,0,0,0,0,0,0,0,0,0,0,259,309,0,1294,310,261,0,387,17,17,
17,17,295,322,347,397,545,0,0,0,0,0,0,0,0,0,0,0,0,0,0,0,0,0,0,0,0,0,0,0,0,0,0,0,0,0,0,0,0,0,0,0,0,0,0,0,0,0,0,0,0,0,0,0,0,0,0,0,0,0,0,0,0,0,0,0,0,0,0,0,0,259,260,260,261,0,0,387,17,17,
258,445,320,347,372,0,0,0,0,0,0,0,0,0,0,0,0,0,0,0,0,0,0,0,0,0,0,0,0,0,0,0,0,0,0,0,0,0,0,0,0,0,0,0,0,0,0,0,0,0,0,0,0,0,0,0,0,0,0,0,0,0,0,0,0,0,0,0,0,0,0,0,0,0,0,0,0,387,258,102,
469,470,345,372,0,0,0,0,0,0,0,0,0,0,0,0,0,0,0,0,0,0,0,0,0,0,0,0,0,0,0,0,0,0,0,0,0,0,0,0,0,0,0,0,0,0,0,0,0,0,0,0,0,0,0,0,0,0,0,0,0,0,0,0,0,0,0,0,0,0,0,0,0,0,0,0,0,387,258,127,
494,495,370,0,0,0,0,0,0,0,0,0,0,0,0,0,0,0,0,0,0,0,0,0,0,0,0,0,0,0,0,0,0,0,0,0,0,0,0,0,0,0,0,0,0,0,0,0,0,0,0,0,0,0,0,0,0,0,0,0,0,0,0,0,0,0,0,0,0,0,0,0,0,0,0,0,0,387,308,258,
519,520,395,0,0,0,0,0,0,0,0,0,0,0,0,0,0,0,0,0,0,0,0,0,0,0,0,0,0,0,0,0,0,0,0,0,0,0,0,0,0,0,0,0,0,0,0,0,0,0,0,0,0,0,0,0,0,0,0,0,0,0,0,0,0,0,0,0,0,0,0,0,0,0,0,0,0,387,17,233,
544,545,420,0,0,0,0,0,0,0,0,0,0,0,0,0,0,0,0,0,0,0,0,0,0,0,0,0,0,0,0,0,0,0,0,0,0,0,0,0,0,0,0,0,0,0,0,0,0,0,0,0,0,0,0,0,0,0,0,0,0,0,0,0,0,0,0,0,0,0,0,0,0,0,0,0,0,387,233,17,
352,328,395,0,0,0,0,0,0,0,0,0,0,0,0,0,0,0,0,0,0,0,0,0,0,0,0,0,0,0,0,0,0,0,0,0,0,0,0,0,0,0,0,0,0,0,0,0,0,0,0,0,0,0,0,0,0,0,0,0,0,0,0,0,0,0,0,0,0,0,0,0,0,0,0,0,0,387,17,17,
357,17,420,0,0,0,0,0,0,0,0,0,0,0,0,0,0,0,0,0,0,0,0,0,0,0,0,0,0,0,0,0,0,0,0,0,0,0,0,0,0,0,0,0,0,0,0,0,0,0,0,0,0,0,0,0,0,0,0,0,0,0,0,0,0,0,0,0,0,0,0,0,0,0,0,0,0,387,17,17,
382,17,395,0,0,0,0,0,0,0,0,0,0,0,0,0,0,0,0,0,0,0,0,0,0,0,0,0,0,0,0,0,0,0,0,0,0,0,0,0,0,0,0,0,0,0,0,0,0,0,0,0,0,0,0,0,0,0,0,0,0,0,0,0,0,0,0,0,0,0,0,0,0,0,0,0,0,387,17,17,
233,17,420,0,0,0,0,0,0,0,0,0,0,0,0,0,0,0,0,0,0,0,0,0,0,0,0,0,0,0,0,0,0,0,0,0,0,0,0,0,0,0,0,0,0,0,0,0,0,0,0,0,0,0,0,0,0,0,0,0,0,0,0,0,0,0,0,0,0,0,0,0,0,0,0,0,0,387,17,17,
17,17,395,0,0,0,0,0,0,0,0,0,0,0,0,0,0,0,0,0,0,0,0,0,0,0,0,0,0,0,0,0,0,0,0,0,0,0,0,0,0,0,0,0,0,0,0,0,0,0,0,0,0,0,0,0,0,0,0,0,0,0,0,0,0,0,0,0,0,0,0,0,0,0,0,0,0,387,233,17,
17,17,420,0,0,0,0,0,0,0,0,0,0,0,0,0,0,0,0,0,0,0,0,0,0,0,0,0,0,0,0,0,0,0,0,0,0,0,0,0,0,0,0,0,0,0,0,0,0,0,0,0,0,0,0,0,0,0,0,0,0,0,0,0,0,0,0,0,0,0,0,0,0,0,0,0,0,387,308,15,
17,17,395,0,0,0,0,0,0,0,0,0,0,0,0,0,0,0,0,0,0,0,0,0,0,0,0,0,0,0,0,0,0,0,0,0,0,0,0,0,0,0,0,0,0,0,0,0,0,0,0,0,0,0,0,0,0,0,0,0,0,0,0,0,0,0,0,0,0,0,0,0,0,0,0,0,0,387,39,40,
16,17,420,0,0,0,0,0,0,0,0,0,0,0,0,0,0,0,0,0,0,0,0,0,0,0,0,0,0,0,0,0,0,0,0,0,0,0,0,0,0,0,0,0,0,0,0,0,0,0,0,0,0,0,0,0,0,0,0,0,0,0,0,0,0,0,0,0,0,0,0,0,0,0,0,0,0,387,64,65,
41,17,395,0,0,0,0,0,0,0,0,0,0,0,0,0,0,0,0,0,0,0,0,0,0,0,0,0,0,0,0,0,0,0,0,0,0,0,0,0,0,0,0,0,0,0,0,0,0,0,0,0,0,0,0,0,0,0,0,0,0,0,0,0,0,0,0,0,0,0,0,0,0,0,0,0,0,387,17,17,
66,17,420,0,0,0,0,0,0,0,0,0,0,0,0,0,0,0,0,0,0,0,0,0,0,0,0,0,0,0,0,0,0,0,0,0,0,0,0,0,0,0,0,0,0,0,0,0,0,0,0,0,0,0,0,0,0,0,0,0,0,0,0,0,0,0,0,0,0,0,0,0,0,0,0,0,0,387,17,17,
176,176,395,0,0,0,0,0,0,0,0,0,0,0,0,0,0,0,0,0,0,0,0,0,0,0,0,0,0,0,0,0,0,0,0,0,184,185,212,185,212,185,3000,0,0,0,0,0,0,0,0,0,0,0,0,0,0,0,0,0,0,0,0,0,0,0,0,0,0,0,0,0,0,0,0,0,0,387,308,258,
176,176,420,0,0,0,0,0,0,0,0,0,0,0,0,0,0,0,0,0,0,0,0,0,0,0,0,0,0,0,0,0,0,0,0,2937,284,1294,210,210,210,210,3016,3017,0,0,0,0,0,0,0,0,0,0,0,0,0,0,0,0,0,0,0,0,0,0,0,0,0,0,0,0,0,0,0,0,0,387,17,233,
176,176,395,0,0,0,0,0,0,0,0,0,0,0,0,0,0,0,0,0,0,0,0,0,0,0,0,0,0,0,0,0,0,0,2952,2953,0,0,0,0,0,0,0,285,185,186,0,0,0,0,0,0,0,0,0,0,0,0,0,0,0,0,0,0,0,0,0,0,0,0,0,0,0,0,0,0,0,387,17,17,
352,17,420,0,0,0,0,0,0,0,0,0,0,0,0,0,0,0,0,0,0,0,0,0,0,0,0,0,0,0,0,0,0,184,284,0,0,0,0,0,0,0,0,0,1294,285,186,0,0,0,0,0,0,0,0,0,0,0,0,0,0,0,0,0,0,0,0,0,0,0,0,0,0,0,0,0,0,387,17,258,
17,308,395,0,0,0,0,0,0,0,0,0,0,0,0,0,0,0,0,0,0,0,0,0,0,0,0,0,0,0,0,0,0,209,0,0,0,0,0,0,0,0,0,0,0,0,211,0,0,0,0,0,0,0,0,0,0,0,0,0,0,0,0,0,0,0,0,0,0,0,0,0,0,0,0,0,0,387,17,17,
17,258,420,0,0,0,0,0,0,0,0,0,0,0,0,0,0,0,0,0,0,0,0,0,0,0,0,0,0,0,0,0,0,259,309,0,0,0,0,0,0,0,0,0,0,0,236,0,0,0,0,0,0,0,0,0,0,0,0,0,0,0,0,0,0,0,0,0,0,0,0,0,0,0,0,0,0,412,17,308,
258,282,395,0,0,0,0,0,0,0,0,0,0,0,0,0,0,0,0,0,0,0,0,0,0,0,0,0,0,0,0,0,0,0,234,0,0,0,0,0,0,0,0,0,0,310,261,0,0,0,0,0,0,0,0,0,0,0,0,0,0,0,0,0,0,0,0,0,0,0,0,0,0,0,0,0,0,437,415,415,
17,307,420,0,0,0,0,0,0,0,0,0,0,0,0,0,0,0,0,0,0,0,0,0,0,0,0,0,0,0,0,0,0,0,259,260,309,1319,0,0,0,0,0,0,310,261,0,0,0,0,0,0,0,0,0,0,0,0,0,0,0,0,0,0,0,0,0,0,0,0,0,0,0,392,326,233,308,17,127,17,
15,332,395,0,0,0,0,0,0,0,0,0,0,0,0,0,0,0,0,0,0,0,0,0,0,0,0,0,0,0,0,0,0,0,0,0,259,309,1294,0,0,310,3064,3066,261,0,0,0,0,0,0,0,0,0,0,0,0,0,0,0,0,0,0,0,0,0,0,0,0,0,0,0,0,417,258,308,258,17,233,258,
40,41,420,0,0,0,0,0,0,0,0,0,0,0,0,0,0,0,0,0,0,0,0,0,0,0,0,0,0,0,0,0,0,0,0,0,0,259,3064,3065,3066,261,0,0,0,0,0,0,0,0,0,0,0,0,0,0,0,0,0,0,0,0,0,0,0,0,0,0,0,0,0,0,0,416,17,17,17,258,17,17,
65,66,395,0,0,0,0,0,0,0,0,0,0,0,0,0,0,0,0,0,0,0,0,0,0,0,0,0,0,0,0,0,0,0,0,0,0,0,0,0,0,0,0,0,0,0,0,0,0,0,0,0,0,0,0,0,0,0,0,0,0,0,0,0,0,0,0,0,0,392,176,176,328,295,296,468,469,468,291,292,
176,176,420,0,0,0,0,0,0,0,0,0,0,0,0,0,0,0,0,0,0,0,0,0,0,0,0,0,0,0,0,0,0,0,0,0,0,0,0,0,0,0,0,0,0,0,0,0,0,0,0,0,0,0,0,0,0,0,0,0,0,0,0,0,0,0,0,0,0,392,17,17,130,320,494,493,494,493,494,317,
381,176,413,0,0,0,0,0,0,0,0,0,0,0,0,0,0,0,0,0,0,0,0,0,0,0,0,0,0,0,0,0,0,0,0,0,0,0,0,0,0,0,0,0,0,0,0,0,0,0,0,0,0,0,0,0,0,0,0,0,0,0,0,0,0,0,0,0,0,416,176,17,176,345,519,518,519,518,519,317,
381,379,0,176,176,176,176,176,176,176,176,362,176,176,176,176,258,176,176,176,176,233,176,176,308,258,176,233,176,176,176,176,176,233,176,176,176,176,176,395,0,0,392,326,327,327,327,327,327,327,327,233,258,176,176,176,176,176,176,258,233,176,176,176,176,327,258,176,327,17,233,17,176,370,544,543,544,543,544,342,
17,17,387,384,385,385,385,385,386,385,386,387,355,233,356,356,356,356,356,356,356,356,356,356,356,356,356,356,356,356,356,356,356,356,356,356,356,176,176,420,0,0,417,17,17,17,17,258,17,17,17,308,17,17,17,17,17,17,17,14,15,16,17,17,17,233,17,17,17,17,176,17,17,17,17,184,185,186,17,392,
17,17,412,17,17,17,17,17,17,17,17,412,381,381,381,381,381,381,381,381,381,381,381,381,381,381,381,381,381,381,381,381,381,381,381,381,381,17,17,420,0,0,392,17,17,17,17,17,17,258,17,17,17,308,17,17,17,17,308,39,40,41,17,17,17,308,17,17,17,17,176,305,176,420,184,284,210,285,186,417
</data>
 </layer>
 <objectgroup id="4" name="Buildings">
  <object id="62" name="TileData" x="129.167" y="109.333" width="16" height="16">
   <properties>
    <property name="Action" value="Message &quot;Farm.1&quot;"/>
   </properties>
  </object>
 </objectgroup>
 <layer id="5" name="Paths" width="80" height="65">
  <data encoding="csv">
0,0,0,0,0,0,0,0,0,0,0,0,0,0,0,0,0,0,0,0,0,0,0,0,0,0,0,0,0,0,0,0,0,0,0,0,0,0,0,0,0,0,0,0,0,0,0,0,0,0,0,0,0,0,0,0,0,0,0,0,0,0,0,0,0,0,0,0,0,0,0,0,0,0,0,0,0,0,0,0,
0,0,0,0,0,0,0,0,0,0,0,0,0,0,0,0,0,0,0,0,0,0,0,0,0,0,0,0,0,0,0,0,0,0,0,0,0,0,0,0,0,0,0,0,0,0,0,0,0,0,0,0,0,0,0,0,0,0,0,0,0,0,0,0,0,0,0,0,0,0,0,0,0,0,0,0,0,0,0,0,
0,0,0,0,0,0,0,0,0,0,0,0,0,0,0,0,0,0,0,0,0,0,0,0,0,0,0,0,0,0,0,0,0,0,0,0,0,0,0,0,0,0,0,0,0,0,0,0,0,0,0,0,0,0,0,0,0,0,0,0,0,0,0,0,0,0,0,0,0,0,0,0,0,0,0,0,0,0,0,0,
0,0,0,0,0,0,0,0,0,0,0,0,0,0,0,0,0,0,0,0,0,0,0,0,0,0,0,0,0,0,0,0,0,0,0,0,0,0,0,0,0,0,0,0,0,0,0,0,0,0,0,0,0,0,0,0,0,0,0,0,0,0,0,0,0,0,0,0,0,0,0,0,0,0,0,0,0,0,0,0,
0,0,0,0,0,0,0,0,0,0,0,0,0,0,0,0,0,0,0,0,0,0,0,0,0,0,0,0,0,0,0,0,0,0,0,0,0,0,0,0,0,0,0,0,0,0,0,0,0,0,0,0,0,0,0,0,0,0,0,0,0,0,0,0,0,0,0,0,0,0,0,0,0,0,0,0,0,0,0,0,
0,0,0,0,0,0,0,0,0,0,0,0,0,0,0,0,0,0,0,0,0,0,0,0,0,0,0,0,0,0,0,0,0,0,0,0,0,0,0,0,0,0,0,0,0,0,0,0,0,0,0,0,0,0,0,0,0,0,0,0,0,0,0,0,0,0,0,0,0,0,0,0,0,0,0,0,0,0,0,0,
0,0,0,0,0,0,0,0,0,0,0,0,0,0,0,0,0,0,0,0,0,0,0,0,0,0,0,0,0,0,0,0,0,0,0,0,0,0,0,0,0,0,0,0,0,0,0,4694,0,4694,0,0,0,0,0,0,0,0,0,0,0,0,0,0,0,0,0,0,0,0,0,0,0,0,0,0,0,0,0,0,
0,0,0,0,0,0,0,0,0,0,0,0,0,0,0,0,0,0,0,0,0,0,0,0,0,0,0,0,0,0,0,0,0,0,0,0,0,0,0,0,0,0,0,0,0,0,0,0,0,0,0,0,0,0,0,0,0,0,0,0,0,0,0,0,0,0,0,0,0,0,0,0,0,0,0,0,0,0,0,0,
0,0,0,0,0,0,0,0,0,0,4686,4685,0,4682,0,4685,0,0,0,4682,0,4686,0,0,4682,0,0,4682,0,4682,0,4682,0,0,0,0,4682,0,4685,4686,4682,0,4686,4685,0,4682,4682,0,4678,0,0,0,0,0,0,0,130,0,0,0,0,0,0,0,0,0,0,0,0,0,0,0,0,0,0,0,0,0,0,0,
0,0,0,0,4686,0,4682,0,0,0,0,4681,0,4686,4685,0,4679,0,0,0,0,0,4679,0,0,0,0,0,0,0,0,0,0,0,4685,0,0,0,4685,0,4683,0,4684,0,0,0,0,0,0,0,4685,0,0,0,0,0,0,0,0,0,0,0,0,0,0,0,0,0,0,0,0,0,0,0,0,0,0,0,0,0,
0,0,0,0,4681,0,4685,0,4677,0,4686,4685,0,0,0,0,0,4698,4681,4685,4686,0,0,0,0,0,0,0,0,0,0,0,0,0,0,0,4678,0,0,4681,0,4691,0,4685,0,4678,0,4684,0,4686,0,0,4681,0,0,0,0,0,0,0,0,0,0,0,0,0,0,0,0,0,0,0,0,0,4694,4693,0,0,0,0,
0,0,0,4682,0,4685,0,0,0,0,0,4681,0,4678,0,4681,4686,0,0,0,0,0,0,0,0,0,0,0,0,0,0,0,0,0,0,0,0,4681,0,0,0,0,4683,0,0,0,0,0,0,4681,0,4683,0,4682,0,0,0,0,0,0,0,0,0,0,0,0,0,0,0,0,0,0,0,0,0,0,0,4694,0,0,
0,0,0,0,4685,0,4686,0,4681,0,0,4685,0,0,0,0,4685,0,4677,0,4685,4681,0,0,0,0,0,0,0,0,0,0,0,0,0,0,4686,0,0,0,4689,0,0,4691,4698,0,4683,0,4686,0,0,0,0,0,4685,0,0,0,0,0,0,0,0,0,0,0,0,0,0,0,0,0,0,0,0,0,0,0,0,0,
0,0,0,0,0,4685,0,0,4685,0,4686,0,4686,0,0,0,4681,4685,0,0,0,4685,4685,0,0,0,0,0,0,0,0,0,0,0,0,0,4681,0,4683,0,0,0,4686,0,0,4685,0,4682,0,4683,0,4682,4679,0,0,4682,0,0,0,0,0,0,0,0,0,0,0,0,0,0,0,0,0,0,0,0,0,0,0,0,
0,0,0,0,4686,4685,0,4678,0,0,0,4681,4681,0,0,0,0,4681,4686,0,0,0,4685,0,0,0,0,0,0,0,0,0,0,0,0,4697,0,0,0,4681,0,4683,4697,0,0,4682,0,4690,4690,4690,4697,0,0,4682,0,0,0,4682,0,0,0,0,0,0,0,0,0,0,0,0,0,0,0,0,0,0,0,0,0,0,
0,0,0,0,0,0,0,0,0,4686,0,0,0,0,4686,4685,0,0,0,0,4678,0,0,0,0,0,0,0,0,0,0,0,0,0,0,0,4683,4686,0,0,4681,0,0,4677,4682,0,4690,4690,4690,4690,4690,0,4686,0,0,4682,0,0,0,0,0,0,0,0,0,0,0,0,0,0,0,0,0,0,0,0,0,0,0,0,
0,0,0,0,4681,4685,0,0,0,4678,0,0,4677,4681,0,4685,0,4686,0,0,0,0,0,0,0,0,0,0,0,0,0,0,0,0,0,4682,0,0,4684,0,0,0,0,0,0,0,4690,4690,4690,4690,4690,0,0,4682,0,0,4682,0,0,0,0,0,0,0,0,0,0,0,0,0,0,0,0,0,0,0,0,0,0,0,
0,0,0,4682,0,0,4686,4681,0,0,0,0,0,4681,0,0,0,4685,4681,0,4685,4686,4685,0,4686,0,0,0,0,0,0,0,0,0,0,0,0,4681,0,4681,4682,0,4681,4686,0,4678,4690,4690,4690,4690,4690,4685,0,0,0,4685,0,0,0,0,0,0,0,0,0,0,0,0,0,0,0,0,0,0,0,0,0,0,0,0,
0,0,0,0,0,4685,0,0,4685,4681,4686,4681,4681,4686,0,4677,0,0,4686,0,0,4681,0,0,0,0,0,0,0,0,0,4683,0,4685,0,4677,0,0,0,0,0,4678,0,0,0,0,4690,4690,4690,4690,4690,0,0,4683,0,0,4691,0,4681,0,0,4681,0,0,0,0,0,0,0,4681,0,4681,0,0,0,0,0,0,0,0,
0,0,0,0,4681,0,4677,0,0,0,0,0,4685,0,0,0,0,0,4681,4685,0,0,0,0,4677,0,4686,0,0,4685,0,0,4686,4683,0,0,0,4689,0,0,4685,4681,0,4682,0,4683,0,4690,4690,4690,0,0,4682,0,4684,0,4681,0,0,4681,0,0,4685,0,0,0,0,4681,0,0,4685,0,4682,0,4685,0,0,0,0,0,
0,0,0,0,4686,4681,0,0,4685,0,0,4678,0,0,0,0,0,4685,4681,0,0,4678,0,0,0,0,0,0,0,0,4681,0,4681,4685,0,0,4686,0,0,4681,0,0,0,4685,0,0,4684,4686,0,4677,0,0,0,4686,0,4683,0,4686,4685,0,4686,0,0,4681,4685,0,0,0,4685,0,4686,0,4691,0,0,0,0,0,0,0,
0,0,0,0,0,4685,4681,0,0,4681,0,0,0,0,4685,4686,4681,4681,0,0,0,0,0,4685,4685,4681,0,4685,4686,0,4690,4690,4690,0,0,4682,4681,0,0,4685,4681,0,0,0,4681,0,0,4683,0,0,0,4682,4681,0,0,0,0,0,0,4685,0,0,4681,0,0,0,0,4686,0,0,0,4682,0,4683,4681,0,0,0,0,0,
0,0,0,0,0,0,0,4685,4681,0,4685,4685,0,4681,0,0,4685,0,0,0,0,0,0,0,0,4686,0,0,4690,4690,4690,4690,4690,4690,4690,4697,0,4682,0,0,4685,0,4677,0,0,4686,0,0,4685,0,0,0,4683,0,4683,0,4690,4690,0,0,4691,4685,0,0,4690,4690,4690,0,0,4683,0,0,4681,0,4685,0,4681,0,0,0,
0,0,0,0,0,0,0,0,4686,0,4685,0,4685,0,0,0,0,4678,0,4685,4681,0,4677,0,4685,0,0,4690,4690,4690,4686,4690,4690,4685,4690,4690,0,0,0,4681,0,0,0,0,4685,4681,0,4681,0,4681,4685,0,0,4685,0,4683,4690,4690,4690,4690,0,0,4691,0,4690,4690,4690,4690,4682,0,4678,4681,0,0,0,4686,0,0,0,0,
0,0,0,0,0,0,0,4698,0,0,4679,0,4681,0,4679,0,0,0,0,0,4685,0,0,0,4685,0,4690,4690,4690,4690,4690,4690,4690,4690,4690,4690,4690,0,0,0,4681,4685,4686,4682,0,0,0,0,4681,0,4686,0,4686,0,0,0,4690,4690,4690,4690,4681,4685,0,4682,4690,4690,4690,4690,0,0,0,4685,0,4682,0,0,0,0,0,0,
0,0,0,0,0,0,0,4681,0,0,0,0,0,0,0,0,0,0,0,4686,4685,4681,0,0,0,0,4678,4690,4690,4690,4690,4690,4690,4690,4690,4690,4690,4681,0,4679,0,0,0,0,0,0,4678,4686,0,4681,0,0,0,4681,4685,0,0,4690,4690,4682,0,4686,0,0,0,4690,4690,0,4683,4685,0,0,4685,4689,0,4681,0,0,0,0,
0,0,0,0,0,0,0,0,4681,0,4685,0,4677,0,0,4685,0,4686,4685,0,0,0,4686,0,0,0,4690,4690,4690,4685,4690,4690,4690,4686,4690,4690,4690,0,4681,0,4685,0,4684,0,4681,0,0,0,0,4685,0,4677,0,0,0,4681,0,4684,0,0,4685,0,4682,0,4685,0,4681,0,0,0,4685,0,0,0,0,0,4681,0,0,0,
0,0,0,0,0,0,0,0,4685,4681,0,0,0,0,4685,0,4681,4685,0,0,0,0,0,4681,0,0,0,4690,4690,4690,4690,4690,4690,4690,4690,4690,0,0,0,0,0,0,0,4677,4685,0,0,4682,0,0,4681,0,0,4681,4677,0,4681,0,4682,0,0,4682,0,0,0,0,0,4683,0,0,0,4681,0,0,0,4682,0,0,0,0,
0,0,0,0,0,0,0,0,0,4686,0,4685,0,0,4686,0,0,0,4681,0,4678,0,0,0,0,4681,0,4686,4690,4690,4690,4690,4690,4690,4690,0,0,4681,0,4686,0,4682,0,0,0,4685,0,0,4678,0,0,0,4684,0,0,4682,0,0,0,0,4681,0,4681,0,0,4686,4685,0,4681,0,0,0,0,0,0,0,4685,0,0,0,
0,0,0,0,0,0,0,0,4685,0,4685,0,0,4685,0,4685,0,0,4685,0,0,0,0,4679,0,0,4681,0,0,0,4690,4690,4690,0,4684,4683,0,4677,0,0,0,4683,0,4685,4681,0,4682,0,0,0,4682,4686,0,0,4691,0,0,4686,0,4681,0,0,0,4691,4684,0,0,4681,0,4681,0,0,0,0,0,0,0,0,0,0,
0,0,0,0,0,0,0,0,0,0,0,0,4681,0,4679,0,0,0,0,4681,4686,0,0,0,0,0,0,0,4681,4685,0,4682,0,0,0,0,4682,0,0,4683,0,4678,0,0,0,4677,4685,0,4683,0,0,0,4683,4681,0,0,4678,0,4685,0,0,4677,0,0,0,0,4681,4689,0,0,0,0,0,0,0,0,0,0,0,0,
0,0,0,0,0,0,0,4686,0,4677,4685,0,0,0,0,0,0,4677,0,0,4681,4685,4681,4698,0,4677,0,4686,0,4681,0,4686,0,4681,4679,0,0,0,4681,0,4682,0,0,4682,0,0,0,0,0,4681,0,0,4685,4677,0,0,0,0,0,0,4683,0,0,4681,0,4682,0,0,0,4686,0,0,0,0,0,0,4681,0,0,0,
0,0,0,0,0,0,0,4685,0,0,0,0,0,0,0,0,0,0,0,4685,0,0,0,0,0,0,0,4685,0,0,0,0,0,0,0,0,4689,0,4697,4698,0,4686,0,0,0,4697,4681,4686,0,0,0,4682,0,0,4682,0,4685,0,4677,4681,0,0,4686,4683,4686,4697,4681,0,4682,0,0,0,0,0,0,0,0,0,0,0,
0,0,0,0,0,0,0,0,4685,0,0,4685,0,0,4685,0,4684,0,0,0,4682,0,4685,0,4686,0,0,0,0,4691,4686,4681,0,0,4682,0,0,0,0,4682,0,0,0,4678,0,0,4682,0,0,4677,0,0,0,4685,4681,4686,0,0,4681,0,0,4683,4683,0,0,0,4681,4685,0,4691,4682,0,0,0,0,4682,4685,0,0,0,
0,0,0,0,0,0,0,4684,0,0,4682,0,0,4686,4684,0,0,0,4685,0,4685,0,0,4682,0,0,4685,0,4685,0,0,0,4685,0,4682,4686,0,4691,0,0,0,4682,0,0,0,4685,0,4681,0,0,4681,4685,4686,0,0,0,0,4681,0,0,0,4685,0,4682,4679,0,0,0,4681,0,0,4681,0,0,4682,0,0,0,0,0,
0,0,0,0,0,0,0,4682,0,0,0,0,4684,0,4682,4685,0,0,0,0,0,0,4685,0,4682,0,0,4686,0,4685,0,4691,0,0,0,0,4681,0,0,4678,0,4691,0,4685,0,4681,0,0,0,0,0,0,0,0,4678,0,0,0,0,0,4686,4691,0,0,0,0,4685,0,0,4691,0,0,4687,0,0,4682,0,0,0,0,
0,0,0,4681,0,0,4684,4682,0,4682,4682,0,0,4689,0,0,0,4679,0,4682,0,0,0,4682,0,4682,0,0,0,4690,4690,4690,4690,0,4682,0,0,4686,0,0,4686,0,0,0,0,0,0,0,4685,4681,0,4681,0,0,0,0,0,4681,0,4678,0,0,4681,0,0,4685,0,4678,0,4686,4685,4681,0,0,4691,0,4681,0,0,0,
0,0,0,0,4682,0,4684,0,4679,4684,0,0,0,0,0,0,4685,4685,4682,0,4684,0,4682,0,0,0,4682,4682,4690,4690,4690,4690,4690,4690,4682,0,4686,0,0,0,0,0,4679,0,0,4678,0,0,4681,0,4689,0,4690,4690,4690,0,4690,4690,4690,4690,4690,0,0,4686,4681,0,4698,0,0,0,0,0,0,4681,0,4682,0,0,0,0,
0,0,0,4681,0,0,0,4682,0,0,0,4679,4682,0,4685,0,0,0,0,4686,0,0,0,4686,0,0,4685,0,4690,4690,4690,4690,4690,4690,4690,0,0,4686,0,0,4681,0,0,4690,4690,4690,4690,4690,0,4690,4690,4690,4690,4690,4690,4690,4689,0,4690,4686,4690,4690,4690,0,0,4681,0,4681,4686,4681,0,0,0,0,4686,0,4685,0,0,0,
0,0,0,0,0,0,4682,0,0,0,4682,4682,0,4686,0,4685,4682,4684,4681,0,0,0,4682,0,4682,4685,0,4690,4690,4690,4690,4690,4690,4690,4690,4685,0,4681,4685,4681,4686,0,4690,4690,4690,4690,4690,4690,4690,4690,4690,4690,4690,4690,4685,4690,0,0,4690,4690,4690,4690,4690,4690,4690,0,0,0,0,0,0,0,4679,0,0,4684,0,0,0,0,
0,0,0,4684,0,0,0,4682,0,0,0,0,4684,0,4685,4685,4679,0,0,0,4679,4682,0,0,4679,0,4682,4690,4690,4690,4687,0,4690,4690,4690,4681,4689,0,4686,0,4685,4681,4690,4677,0,4690,4690,4690,4690,4690,4690,4686,4690,4690,0,4681,4690,4690,4690,4690,4690,4689,0,4690,4690,4690,0,4685,0,4678,0,0,0,4682,0,0,4681,0,0,0,
0,0,0,4681,0,4686,0,4682,0,4679,0,4684,4688,0,0,4682,0,4682,0,4682,0,0,4682,4685,0,4682,0,4690,4690,4690,0,0,4690,4690,4690,0,0,0,4681,4681,4681,0,4690,4690,4690,4690,4690,4689,0,4690,4690,4690,4690,4690,4689,0,4690,4690,4690,4681,4690,0,0,4690,4690,4690,0,0,0,0,0,4685,4681,0,4682,4682,0,0,0,0,
0,0,0,0,0,4682,0,0,4684,0,0,0,0,0,4681,0,4682,4685,0,0,0,4686,0,4685,4682,4685,0,4690,4690,4690,4690,4690,4690,4690,4690,4681,4681,4681,4685,4689,0,4681,4681,4690,4690,4686,4690,0,0,4690,4690,4690,4690,4690,0,0,4690,4690,4690,4690,4685,4690,4690,4690,4690,4690,4677,0,4681,0,0,4686,4681,0,0,0,4681,0,0,0,
0,0,0,0,4689,0,0,0,4682,0,4682,4685,4684,0,0,4685,0,0,4689,0,4682,4682,0,4682,0,4685,4682,0,4690,4690,4690,4690,4690,4690,4690,0,4686,4685,0,0,0,4685,4681,4690,4690,4690,4690,4690,4690,4690,4690,4690,4690,4690,4690,4690,4690,4690,4689,0,4690,4690,4690,4690,4690,4690,0,4681,0,4681,0,0,0,4691,4684,0,0,0,0,0,
0,0,0,4681,0,0,0,4679,0,4688,0,4682,4686,4681,0,0,0,4681,0,0,0,0,4682,0,0,0,4682,4685,4690,4690,4690,4690,4690,4690,0,4681,4685,4688,0,4685,4681,4686,0,0,0,4678,4690,4690,4690,4685,4690,4690,4681,4690,4690,4690,4690,4690,0,0,4690,4690,4690,4686,4690,4690,4681,0,4681,0,0,4681,0,4681,0,4682,4681,0,0,0,
0,0,0,4686,4681,4682,4684,0,0,0,0,0,0,0,0,4679,0,4682,0,4686,4685,4682,0,0,0,4679,0,0,0,4690,4690,4690,4690,0,0,0,4685,0,0,0,0,4685,4681,4681,0,0,4690,4690,4690,4690,4690,4689,0,4690,4690,4690,4690,4690,4690,4690,4690,4690,4690,4690,4678,4690,0,4685,4679,0,0,0,4685,0,4686,0,0,0,0,0,
0,0,0,0,0,4684,4682,4684,0,4684,4686,4684,4679,0,4682,4682,4682,0,4682,0,0,0,0,0,4685,4685,0,4682,0,4685,4685,0,4686,0,0,4681,0,0,4685,4686,0,4681,0,0,0,0,4681,4690,4690,4690,4685,0,0,4690,4690,4686,4690,4690,4690,4677,4690,4690,4690,4690,4690,4690,0,4681,0,0,4681,0,4681,4681,0,0,4681,0,0,0,
0,0,0,0,0,4684,0,4682,4689,0,0,0,0,4685,0,0,4682,4686,0,0,4682,0,4682,0,4686,0,0,0,0,4682,0,4685,0,0,4691,0,0,4686,0,0,0,0,0,4679,0,4681,0,0,4677,0,4690,4690,4690,4690,4690,4690,4690,4690,4690,4690,4690,4690,4690,4690,4690,0,4681,0,4681,0,4686,4681,0,0,0,4684,4685,0,0,0,
0,0,0,0,4686,4682,0,0,0,0,0,4685,0,0,4689,0,0,4698,4681,0,0,4685,0,0,0,0,0,0,0,0,0,0,0,4685,0,0,0,0,0,0,0,0,0,0,4686,0,0,4681,0,0,4681,0,4678,4690,4690,4690,4690,4679,4690,4690,4690,4690,4690,4690,0,0,4691,0,0,4681,4685,0,4681,4684,4682,0,4681,0,0,0,
0,0,0,4681,0,0,0,4681,0,4682,0,4679,0,4681,0,0,4682,0,0,4679,0,0,0,4679,0,0,4685,0,4682,0,4681,4685,0,0,4686,0,0,0,0,0,0,0,0,0,0,4685,0,0,0,4685,0,0,0,4681,0,4685,0,4681,0,4681,0,0,4679,0,0,4681,0,4681,0,0,4681,4681,4691,0,4686,0,0,0,0,0,
0,0,0,0,0,4682,4684,4686,0,0,0,0,4681,0,4690,4690,0,0,0,0,0,4682,0,0,0,4681,0,0,4679,0,0,4686,0,4682,0,0,0,0,0,0,0,0,0,0,0,0,4691,4685,4688,0,0,4685,0,0,0,4685,4681,0,0,0,0,4681,0,0,0,0,4681,0,4681,4684,0,0,0,4681,4682,4684,0,0,0,0,
0,0,0,4681,0,0,4686,4681,0,4682,4684,0,0,4690,4690,4690,4690,4681,0,4686,0,0,0,4682,4687,0,0,0,4682,0,0,0,0,0,0,0,0,0,0,0,0,0,0,0,0,0,0,0,0,0,4681,0,4685,0,4688,0,0,0,4685,4685,4685,0,0,4681,4685,0,0,4681,0,0,4688,0,4684,4681,0,4682,0,0,0,0,
0,0,0,0,4681,4682,0,0,0,4685,0,4682,4690,4690,4690,4690,4690,4690,0,0,0,4679,0,0,0,0,4679,0,0,4686,0,0,0,0,0,0,0,0,0,0,0,0,0,0,0,0,0,0,4685,4681,0,4685,0,4685,0,0,4681,0,0,4681,4688,0,4685,0,0,4685,0,4681,4685,0,0,0,0,4681,4684,0,4681,0,0,0,
0,0,0,4681,0,0,0,4684,4688,0,4686,0,4690,4690,4690,4690,4690,4690,4679,0,4682,0,4686,4685,0,0,0,0,4682,0,4681,0,4685,0,0,0,0,0,0,0,0,0,0,0,0,0,0,0,0,4681,0,0,0,0,4685,0,0,4685,4685,0,0,0,4681,4685,4685,4688,0,0,0,4685,0,4686,4681,0,0,0,0,0,0,0,
0,0,0,0,4682,4682,0,0,0,0,0,0,0,4690,4690,4690,4690,4681,0,4685,0,0,0,0,4688,0,4685,0,0,4687,0,0,0,0,0,0,0,0,0,0,0,0,0,0,0,0,0,0,4681,0,4685,4681,4685,0,4681,0,4688,0,4681,0,4685,0,4685,4681,0,0,0,0,4685,0,4681,0,0,0,0,0,0,0,0,0,
0,0,0,0,4686,0,4682,4682,0,4684,4682,0,4681,0,4690,4690,4681,0,0,0,0,4687,0,4682,0,0,0,4686,0,0,0,0,4681,0,0,0,0,0,0,0,0,0,0,0,0,0,0,4681,0,4685,0,4685,0,4685,0,4685,0,0,0,4681,4681,0,4685,0,4685,4686,0,4685,0,4681,0,0,0,0,0,0,0,0,0,0,
0,0,0,0,0,0,0,0,0,4682,0,0,4685,4679,4682,0,0,0,0,0,4681,0,0,0,4686,4681,0,0,4685,0,4686,0,0,0,0,0,0,0,0,0,0,0,0,0,0,0,0,0,0,4685,0,4681,0,4685,4688,0,0,4685,0,4685,4685,4685,0,4681,0,0,4681,4681,4681,0,0,0,0,0,0,0,0,0,0,0,
0,0,0,0,4681,0,4684,0,4682,0,0,4682,0,0,4681,0,4686,4685,0,4679,0,0,0,0,0,0,0,4687,0,4682,0,0,4682,0,4686,0,0,0,0,0,0,0,0,0,0,0,4685,4688,0,0,4685,0,4681,4681,0,0,0,4685,4681,0,0,0,0,4685,4681,4685,0,4685,0,4681,0,0,0,0,0,0,0,0,0,0,
0,0,0,0,4682,0,4682,4679,4684,0,0,4684,0,4681,0,4682,0,0,0,0,0,4685,0,4682,0,4686,4681,0,0,0,4682,4679,0,0,0,0,0,0,0,0,0,0,0,0,4681,4685,0,0,0,4685,0,4685,0,0,0,4685,0,4688,0,0,4685,0,4681,4685,0,0,4681,0,4685,0,0,0,0,0,0,0,0,0,0,0,
0,0,0,4681,0,0,4686,0,0,4681,4679,0,4684,0,4684,0,4679,4685,0,4686,0,0,0,0,0,4681,0,0,4682,0,0,0,0,0,4682,0,4686,0,0,0,0,4681,0,4686,0,0,0,4681,4685,0,4685,0,4686,4685,4681,0,0,0,0,0,0,4681,0,0,4681,4686,0,0,0,0,0,0,0,0,0,0,0,0,0,0,
0,0,0,0,0,4684,4682,0,4682,0,0,4681,0,4682,0,4685,0,0,4682,0,0,4681,0,4679,0,0,0,4685,0,0,4686,4682,0,4682,0,0,0,0,4681,0,0,0,0,0,4681,0,4686,0,0,4681,0,0,0,0,0,4681,4681,0,0,4686,4681,0,0,0,0,0,0,0,0,0,0,0,0,0,0,0,0,0,0,0,
0,0,0,0,0,0,0,0,0,0,0,0,0,0,0,0,0,0,0,0,0,0,0,0,0,0,0,0,0,0,0,0,4682,0,0,0,0,0,0,0,0,0,0,0,0,0,0,0,0,0,0,0,0,0,0,0,0,4681,0,0,0,0,0,0,0,0,0,0,0,0,0,0,0,0,0,0,0,0,0,0,
0,0,0,0,0,0,0,0,0,0,0,0,0,0,0,0,0,0,0,0,0,0,0,0,0,0,0,0,0,0,0,0,0,0,0,0,0,0,0,0,0,0,0,0,0,0,0,0,0,0,0,0,0,0,0,0,0,0,0,0,0,0,0,0,0,0,0,0,0,0,0,0,0,0,0,0,0,0,0,0,
0,0,0,0,0,0,0,0,0,0,0,0,0,0,0,0,0,0,0,0,0,0,0,0,0,0,0,0,0,0,0,0,0,0,0,0,0,0,0,0,0,0,0,0,0,0,0,0,0,0,0,0,0,0,0,0,0,0,0,0,0,0,0,0,0,0,0,0,0,0,0,0,0,0,0,0,0,0,0,0,
0,0,0,0,0,0,0,0,0,0,0,0,0,0,0,0,0,0,0,0,0,0,0,0,0,0,0,0,0,0,0,0,0,0,0,0,0,0,0,0,0,0,0,0,0,0,0,0,0,0,0,0,0,0,0,0,0,0,0,0,0,0,0,0,0,0,0,0,0,0,0,0,0,0,0,0,0,0,0,0
</data>
 </layer>
 <objectgroup id="6" name="Paths">
  <object id="63" name="TileData" x="272" y="160" width="16" height="16">
   <properties>
    <property name="Order" type="int" value="3"/>
   </properties>
  </object>
  <object id="64" name="TileData" x="704" y="192" width="16" height="16">
   <properties>
    <property name="Order" type="int" value="5"/>
   </properties>
  </object>
  <object id="65" name="TileData" x="560" y="224" width="16" height="16">
   <properties>
    <property name="Order" type="int" value="3"/>
   </properties>
  </object>
  <object id="66" name="TileData" x="672" y="224" width="16" height="16">
   <properties>
    <property name="Order" type="int" value="2"/>
   </properties>
  </object>
  <object id="67" name="TileData" x="800" y="224" width="16" height="16">
   <properties>
    <property name="Order" type="int" value="1"/>
   </properties>
  </object>
  <object id="68" name="TileData" x="560" y="352" width="16" height="16">
   <properties>
    <property name="Order" type="int" value="4"/>
   </properties>
  </object>
  <object id="69" name="TileData" x="112" y="384" width="16" height="16">
   <properties>
    <property name="Order" type="int" value="7"/>
   </properties>
  </object>
  <object id="70" name="TileData" x="368" y="496" width="16" height="16">
   <properties>
    <property name="Order" type="int" value="1"/>
   </properties>
  </object>
  <object id="71" name="TileData" x="608" y="512" width="16" height="16">
   <properties>
    <property name="Order" type="int" value="5"/>
   </properties>
  </object>
  <object id="72" name="TileData" x="624" y="512" width="16" height="16">
   <properties>
    <property name="Order" type="int" value="6"/>
   </properties>
  </object>
  <object id="73" name="TileData" x="720" y="512" width="16" height="16">
   <properties>
    <property name="Order" type="int" value="6"/>
   </properties>
  </object>
  <object id="74" name="TileData" x="1040" y="512" width="16" height="16">
   <properties>
    <property name="Order" type="int" value="7"/>
   </properties>
  </object>
  <object id="75" name="TileData" x="1056" y="592" width="16" height="16">
   <properties>
    <property name="Order" type="int" value="2"/>
   </properties>
  </object>
  <object id="76" name="TileData" x="272" y="768" width="16" height="16">
   <properties>
    <property name="Order" type="int" value="4"/>
   </properties>
  </object>
 </objectgroup>
 <layer id="8" name="Front" width="80" height="65">
  <data encoding="csv">
0,1,2,3,54,55,56,79,80,81,0,0,0,0,0,0,0,0,0,0,0,0,0,0,0,0,0,0,0,78,54,0,0,0,0,0,80,81,0,0,0,0,0,0,79,80,81,0,0,102,0,26,27,28,29,30,31,42,43,44,45,46,78,0,67,68,69,70,71,72,55,56,0,0,0,0,67,68,69,70,
0,26,27,28,79,80,81,104,105,106,0,0,0,0,0,0,0,0,0,0,0,0,0,0,0,0,0,0,0,0,79,0,0,0,0,0,105,106,0,0,0,0,0,0,104,105,106,0,0,127,0,51,52,53,54,55,56,67,68,69,70,71,72,0,92,93,94,95,96,97,80,81,0,0,0,0,92,93,94,95,
0,51,52,53,104,105,106,129,130,131,0,0,0,0,0,0,0,0,0,0,0,0,0,0,0,0,0,0,0,0,0,0,0,0,0,0,0,0,0,0,0,0,0,0,129,130,131,0,0,0,0,76,77,78,79,80,81,92,93,94,95,96,97,0,117,0,119,120,0,0,105,106,0,4,5,6,117,0,119,120,
0,76,77,78,129,130,131,0,0,0,0,0,0,0,0,0,0,0,0,0,0,0,0,0,0,0,0,0,0,0,0,0,0,0,0,0,0,0,0,0,0,0,0,0,0,0,0,0,117,0,0,104,102,106,0,4,5,6,0,119,120,0,0,0,0,0,144,145,0,0,0,0,0,29,30,31,0,0,0,0,
0,0,102,0,0,0,0,0,0,0,0,0,0,0,0,0,0,0,0,0,0,0,0,0,0,0,0,0,0,0,0,0,0,0,0,0,0,0,0,0,0,0,0,0,0,0,0,0,0,0,0,129,127,131,0,29,30,31,0,144,145,0,0,0,0,0,26,27,28,0,0,0,0,54,55,56,0,0,4,5,
0,0,127,0,0,0,0,0,0,0,0,0,0,0,0,0,0,0,0,0,0,0,0,0,0,0,0,0,0,0,0,0,0,1659,0,1661,0,0,0,0,0,0,0,0,0,0,0,0,811,0,359,360,359,360,361,54,55,56,0,0,0,0,0,0,0,0,51,52,53,0,0,0,0,79,80,81,0,0,29,30,
415,439,0,0,0,0,0,0,0,0,0,0,0,0,0,0,0,0,0,0,0,0,0,0,0,0,0,0,0,0,0,0,0,0,0,0,0,0,0,0,0,0,0,0,0,0,0,0,0,0,0,0,0,0,0,79,80,81,0,0,0,0,0,0,0,0,76,77,78,359,360,360,361,362,105,106,0,0,54,55,
0,0,0,0,0,0,0,0,0,0,0,0,0,0,0,0,0,0,0,0,0,0,0,0,0,0,0,0,0,0,0,0,0,0,0,0,0,0,0,0,0,0,0,0,0,0,0,0,0,0,0,0,0,0,0,104,105,106,0,0,0,0,0,0,0,0,0,102,0,0,0,0,0,0,0,0,0,0,79,80,
0,0,0,0,0,0,0,0,0,0,0,0,0,0,0,0,0,0,0,0,0,0,0,0,0,0,0,0,0,0,0,0,0,0,0,0,0,0,0,0,0,0,0,0,0,0,0,0,0,0,0,0,0,0,0,359,360,360,360,360,360,361,360,360,410,360,361,360,361,0,0,0,0,359,359,360,360,361,0,0,
0,0,0,0,0,0,0,0,0,0,0,0,0,0,0,0,0,0,0,0,0,0,0,0,0,0,0,0,0,0,0,0,0,0,0,0,0,0,0,0,0,0,0,0,0,0,0,0,0,0,0,0,0,0,0,0,0,0,0,0,0,0,0,0,0,0,0,0,0,0,0,0,0,0,0,0,0,0,0,0,
0,0,0,0,0,0,0,0,0,0,0,0,0,0,0,0,0,0,0,0,0,0,0,0,0,0,0,0,0,0,0,0,0,0,0,0,0,0,0,0,0,0,0,0,0,0,0,0,0,0,0,0,0,0,0,0,0,0,0,0,0,0,0,0,0,0,0,0,0,0,0,0,0,0,0,0,0,0,0,101,
0,0,0,0,0,0,0,0,0,0,0,0,0,0,0,0,0,0,0,0,0,0,0,0,0,0,0,0,0,0,0,0,0,0,0,0,0,0,0,0,0,0,0,0,0,0,0,0,0,0,0,0,0,0,0,0,0,0,0,0,0,0,0,0,0,0,0,0,0,0,0,0,0,0,0,0,0,0,0,0,
0,0,0,0,0,0,0,0,0,0,0,0,0,0,0,0,0,0,0,0,0,0,0,0,0,0,0,0,0,0,0,0,0,0,0,0,0,0,0,0,0,0,0,0,0,0,0,0,0,0,0,0,0,0,0,0,0,0,0,0,0,0,0,0,0,0,0,0,0,0,0,0,0,0,0,0,0,0,0,0,
0,0,0,0,0,0,0,0,0,0,0,0,0,0,0,0,0,0,0,0,0,0,0,0,0,0,0,0,0,0,0,0,0,0,0,0,0,0,0,0,0,0,0,0,0,0,0,0,0,0,0,0,0,0,0,0,0,0,0,0,0,0,0,0,0,0,0,0,0,0,0,0,0,0,0,0,0,0,0,359,
0,0,0,0,0,0,0,0,0,0,0,0,0,0,0,0,0,0,0,0,0,0,0,0,0,0,0,0,0,0,0,0,0,0,0,0,0,0,0,0,0,0,0,0,0,0,0,0,0,0,0,0,0,0,0,0,0,0,0,0,0,0,0,0,0,0,0,0,0,0,0,0,0,0,0,0,0,0,0,0,
0,0,0,0,0,0,0,0,0,0,0,0,0,0,0,0,0,0,0,0,0,0,0,0,0,0,0,0,0,0,0,0,0,0,0,0,0,0,0,0,0,0,0,0,0,0,0,0,0,0,0,0,0,0,0,0,0,0,0,0,0,0,0,0,0,0,0,0,0,0,0,0,0,0,0,0,0,0,0,0,
0,0,0,0,0,0,0,0,0,0,0,0,0,0,0,0,0,0,0,0,0,0,0,0,0,0,0,0,0,0,0,0,0,0,0,0,0,0,0,0,0,0,0,0,0,0,0,0,0,0,0,0,0,0,0,0,0,0,0,0,0,0,0,0,0,0,0,0,0,0,0,0,0,0,0,0,0,0,0,0,
0,0,0,0,0,0,0,0,0,0,0,0,0,0,0,0,0,0,0,0,0,0,0,0,0,0,0,0,0,0,0,0,0,0,0,0,0,0,0,0,0,0,0,0,0,0,0,0,0,0,0,0,0,0,0,0,0,0,0,0,0,0,0,0,0,0,0,0,0,0,0,0,0,0,0,0,0,0,0,0,
0,0,0,0,0,0,0,0,0,0,0,0,0,0,0,0,0,0,0,0,0,0,0,0,0,0,0,0,0,0,0,0,0,0,0,0,0,0,0,0,0,0,0,0,0,0,0,0,0,0,0,0,0,0,0,0,0,0,0,0,0,0,0,0,0,0,0,0,0,0,0,0,0,0,0,0,0,362,359,360,
0,0,0,0,0,0,0,0,0,0,0,0,0,0,0,0,0,0,0,0,0,0,0,0,0,0,0,0,0,0,0,0,0,0,0,0,0,0,0,0,0,0,0,0,0,0,0,0,0,0,0,0,0,0,0,0,0,0,0,0,0,0,0,0,0,0,0,0,0,0,0,0,0,0,0,0,0,42,43,44,
0,0,0,0,0,0,0,0,0,0,0,0,0,0,0,0,0,0,0,0,0,0,0,0,0,0,0,0,0,0,0,0,0,0,0,0,0,0,0,0,0,0,0,0,0,0,0,0,0,0,0,0,0,0,0,0,0,0,0,0,0,0,0,0,0,0,0,0,0,0,0,0,0,0,0,0,0,67,68,69,
0,0,0,0,0,0,0,0,0,0,0,0,0,0,0,0,0,0,0,0,0,0,0,0,0,0,0,0,0,0,0,0,0,0,0,0,0,0,0,0,0,0,0,0,0,0,0,0,0,0,0,0,0,0,0,0,0,0,0,0,0,0,0,0,0,0,0,0,0,0,0,0,0,0,0,0,0,92,93,94,
0,413,414,415,414,415,439,0,0,0,0,0,0,0,0,0,0,0,0,0,0,0,0,0,0,0,0,0,0,0,0,0,0,0,0,0,0,0,0,0,0,0,0,0,0,0,0,0,0,0,0,0,0,0,0,0,0,0,0,0,0,0,0,0,0,0,0,0,0,0,0,0,0,0,0,0,0,117,0,119,
119,120,255,176,176,255,395,0,0,0,0,0,0,0,0,0,0,0,0,0,0,0,0,0,0,0,0,0,0,0,0,0,0,0,0,0,0,0,0,0,0,0,0,0,0,0,0,0,0,0,0,0,0,0,0,0,0,0,0,0,0,0,0,0,0,0,0,0,0,0,0,0,0,0,0,0,0,0,0,144,
144,145,176,176,176,176,420,0,0,0,0,0,0,0,0,0,0,0,0,0,0,0,0,0,0,0,0,0,0,0,0,0,0,0,0,0,0,0,0,0,0,0,0,0,0,0,0,0,0,0,0,0,0,0,0,0,0,0,0,0,0,0,0,0,0,0,0,0,0,0,0,0,0,0,0,0,0,0,0,0,
0,0,0,0,0,176,395,0,0,0,0,0,0,0,0,0,0,0,0,0,0,0,0,0,0,0,0,0,0,0,0,0,0,0,0,0,0,0,0,0,0,0,0,0,0,0,0,0,0,0,0,0,0,0,0,0,0,0,0,0,0,0,0,0,0,0,0,0,0,0,0,0,0,0,0,0,0,4,5,6,
0,92,93,0,0,0,420,0,0,0,0,0,0,0,0,0,0,0,0,0,0,0,0,0,0,0,0,0,0,0,0,0,0,0,0,0,0,0,0,0,0,0,0,0,0,0,0,0,0,0,0,0,0,0,0,0,0,0,0,0,0,0,0,0,0,0,0,0,0,0,0,0,0,0,0,0,0,29,30,31,
0,0,0,119,120,0,395,0,0,0,0,0,0,0,0,0,0,0,0,0,0,0,0,0,0,0,0,0,0,0,0,0,0,0,0,0,0,0,0,0,0,0,0,0,0,0,0,0,0,0,0,0,0,0,0,0,0,0,0,0,0,0,0,0,0,0,0,0,0,0,0,0,0,0,0,0,0,54,55,56,
0,0,0,144,145,0,420,0,0,0,0,0,0,0,0,0,0,0,0,0,0,0,0,0,0,0,0,0,0,0,0,0,0,0,0,0,0,0,0,0,0,0,0,0,0,0,0,0,0,0,0,0,0,0,0,0,0,0,0,0,0,0,0,0,0,0,0,0,0,0,0,0,0,0,0,0,0,79,80,81,
0,0,0,0,0,0,445,0,0,0,0,0,0,0,0,0,0,0,0,0,0,0,0,0,0,0,0,0,0,0,0,0,0,0,0,0,0,0,0,0,0,0,0,0,0,0,0,0,0,0,0,0,0,0,0,0,0,0,0,0,0,0,0,0,0,0,0,0,0,0,0,0,0,0,0,0,0,104,105,106,
0,0,0,0,0,0,0,0,0,0,0,0,0,0,0,0,0,0,0,0,0,0,0,0,0,0,0,0,0,0,0,0,0,0,0,0,0,0,0,0,0,0,0,0,0,0,0,0,0,0,0,0,0,0,0,0,0,0,0,0,0,0,0,0,0,0,0,0,0,0,0,0,0,0,0,0,0,0,1,2,
410,361,0,0,0,0,0,0,0,0,0,0,0,0,0,0,0,0,0,0,0,0,0,0,0,0,0,0,0,0,0,0,0,0,0,0,0,0,0,0,0,0,0,0,0,0,0,0,0,0,0,0,0,0,0,0,0,0,0,0,0,0,0,0,0,0,0,0,0,0,0,0,0,0,0,0,0,0,26,27,
0,386,0,0,0,0,0,0,0,0,0,0,0,0,0,0,0,0,0,0,0,0,0,0,0,0,0,0,0,0,0,0,0,0,0,0,0,0,0,0,0,0,0,0,0,0,0,0,0,0,0,0,0,0,0,0,0,0,0,0,0,0,0,0,0,0,0,0,0,0,0,0,0,0,0,0,0,0,51,52,
415,439,0,0,0,0,0,0,0,0,0,0,0,0,0,0,0,0,0,0,0,0,0,0,0,0,0,0,0,0,0,0,0,0,0,0,0,0,0,0,0,0,0,0,0,0,0,0,0,0,0,0,0,0,0,0,0,0,0,0,0,0,0,0,0,0,0,0,0,0,0,0,0,0,0,0,0,0,76,77,
0,0,0,0,0,0,0,0,0,0,0,0,0,0,0,0,0,0,0,0,0,0,0,0,0,0,0,0,0,0,0,0,0,0,0,0,0,0,0,0,0,0,0,0,0,0,0,0,0,0,0,0,0,0,0,0,0,0,0,0,0,0,0,0,0,0,0,0,0,0,0,0,0,0,0,0,0,0,0,0,
0,0,0,0,0,0,0,0,0,0,0,0,0,0,0,0,0,0,0,0,0,0,0,0,0,0,0,0,0,0,0,0,0,0,0,0,0,0,0,0,0,0,0,0,0,0,0,0,0,0,0,0,0,0,0,0,0,0,0,0,0,0,0,0,0,0,0,0,0,0,0,0,0,0,0,0,0,0,0,0,
5,6,0,0,0,0,0,0,0,0,0,0,0,0,0,0,0,0,0,0,0,0,0,0,0,0,0,0,0,0,0,0,0,0,0,0,0,0,0,0,0,0,0,0,0,0,0,0,0,0,0,0,0,0,0,0,0,0,0,0,0,0,0,0,0,0,0,0,0,0,0,0,0,0,0,0,0,0,0,0,
30,31,0,0,0,0,0,0,0,0,0,0,0,0,0,0,0,0,0,0,0,0,0,0,0,0,0,0,0,0,0,0,0,0,0,0,0,0,0,0,0,0,0,0,0,0,0,0,0,0,0,0,0,0,0,0,0,0,0,0,0,0,0,0,0,0,0,0,0,0,0,0,0,0,0,0,0,0,0,0,
55,56,0,0,0,0,0,0,0,0,0,0,0,0,0,0,0,0,0,0,0,0,0,0,0,0,0,0,0,0,0,0,0,0,0,0,0,0,0,0,0,0,0,0,0,0,0,0,0,0,0,0,0,0,0,0,0,0,0,0,0,0,0,0,0,0,0,0,0,0,0,0,0,0,0,0,0,42,0,0,
80,81,0,0,0,0,0,0,0,0,0,0,0,0,0,0,0,0,0,0,0,0,0,0,0,0,0,0,0,0,0,0,0,0,0,0,0,0,0,0,0,0,0,0,0,0,0,0,0,0,0,0,0,0,0,0,0,0,0,0,0,0,0,0,0,0,0,0,0,0,0,0,0,0,0,0,0,67,0,0,
105,106,0,0,0,0,0,0,0,0,0,0,0,0,0,0,0,0,0,0,0,0,0,0,0,0,0,0,0,0,0,0,0,0,0,0,0,0,0,0,0,0,0,0,0,0,0,0,0,0,0,0,0,0,0,0,0,0,0,0,0,0,0,0,0,0,0,0,0,0,0,0,0,0,0,0,0,92,0,0,
130,131,0,0,0,0,0,0,0,0,0,0,0,0,0,0,0,0,0,0,0,0,0,0,0,0,0,0,0,0,0,0,0,0,0,0,0,0,0,0,0,0,0,0,0,0,0,0,0,0,0,0,0,0,0,0,0,0,0,0,0,0,0,0,0,0,0,0,0,0,0,0,0,0,0,0,0,0,0,0,
0,0,0,0,0,0,0,0,0,0,0,0,0,0,0,0,0,0,0,0,0,0,0,0,0,0,0,0,0,0,0,0,0,0,0,0,0,0,0,0,0,0,0,0,0,0,0,0,0,0,0,0,0,0,0,0,0,0,0,0,0,0,0,0,0,0,0,0,0,0,0,0,0,0,0,0,0,0,0,0,
0,0,0,0,0,0,0,0,0,0,0,0,0,0,0,0,0,0,0,0,0,0,0,0,0,0,0,0,0,0,0,0,0,0,0,0,0,0,0,0,0,0,0,0,0,0,0,0,0,0,0,0,0,0,0,0,0,0,0,0,0,0,0,0,0,0,0,0,0,0,0,0,0,0,0,0,0,0,0,0,
0,0,0,0,0,0,0,0,0,0,0,0,0,0,0,0,0,0,0,0,0,0,0,0,0,0,0,0,0,0,0,0,0,0,0,0,0,0,0,0,0,0,0,0,0,0,0,0,0,0,0,0,0,0,0,0,0,0,0,0,0,0,0,0,0,0,0,0,0,0,0,0,0,0,0,0,0,0,14,0,
0,0,0,0,0,0,0,0,0,0,0,0,0,0,0,0,0,0,0,0,0,0,0,0,0,0,0,0,0,0,0,0,0,0,0,0,0,0,0,0,0,0,0,0,0,0,0,0,0,0,0,0,0,0,0,0,0,0,0,0,0,0,0,0,0,0,0,0,0,0,0,0,0,0,0,0,0,0,0,0,
0,0,0,0,0,0,0,0,0,0,0,0,0,0,0,0,0,0,0,0,0,0,0,0,0,0,0,0,0,0,0,0,0,0,0,0,0,0,0,0,0,0,0,0,0,0,0,0,0,0,0,0,0,0,0,0,0,0,0,0,0,0,0,0,0,0,0,0,0,0,0,0,0,0,0,0,0,4,5,6,
0,0,0,0,0,0,0,0,0,0,0,0,0,0,0,0,0,0,0,0,0,0,0,0,0,0,0,0,0,0,0,0,0,0,0,0,0,0,0,0,0,0,0,0,0,0,0,0,0,0,0,0,0,0,0,0,0,0,0,0,0,0,0,0,0,0,0,0,0,0,0,0,0,0,0,0,0,29,30,31,
20,21,22,0,0,0,0,0,0,0,0,0,0,0,0,0,0,0,0,0,0,0,0,0,0,0,0,0,0,0,0,0,0,0,0,0,0,0,0,0,0,0,0,0,0,0,0,0,0,0,0,0,0,0,0,0,0,0,0,0,0,0,0,0,0,0,0,0,0,0,0,0,0,0,0,0,0,54,55,56,
45,46,47,0,0,0,0,0,0,0,0,0,0,0,0,0,0,0,0,0,0,0,0,0,0,0,0,0,0,0,0,0,0,0,0,0,0,0,0,0,0,0,0,0,0,0,0,0,0,0,0,0,0,0,0,0,0,0,0,0,0,0,0,0,0,0,0,0,0,0,0,0,0,0,0,0,0,79,80,81,
70,71,72,0,0,0,0,0,0,0,0,0,0,0,0,0,0,0,0,0,0,0,0,0,0,0,0,0,0,0,0,0,0,0,0,0,0,0,0,0,0,0,0,0,0,0,0,0,0,0,0,0,0,0,0,0,0,0,0,0,0,0,0,0,0,0,0,0,0,0,0,0,0,0,0,0,0,104,105,106,
95,96,97,0,0,0,0,0,0,0,0,0,0,0,0,0,0,0,0,0,0,0,0,0,0,0,0,0,0,0,0,0,0,0,0,0,0,0,0,0,0,0,0,0,0,0,0,0,0,0,0,0,0,0,0,0,0,0,0,0,0,0,0,0,0,0,0,0,0,0,0,0,0,0,0,0,0,129,130,131,
120,0,0,0,0,0,0,0,0,0,0,0,0,0,0,0,0,0,0,0,0,0,0,0,0,0,0,0,0,0,0,0,0,0,0,0,0,0,0,0,0,0,0,0,0,0,0,0,0,0,0,0,0,0,0,0,0,0,0,0,0,0,0,0,0,0,0,0,0,0,0,0,0,0,0,0,0,0,0,0,
145,0,0,0,0,0,0,0,0,0,0,0,0,0,0,0,0,0,0,0,0,0,0,0,0,0,0,0,0,0,0,0,0,0,0,0,0,0,0,0,0,0,0,0,0,0,0,0,0,0,0,0,0,0,0,0,0,0,0,0,0,0,0,0,0,0,0,0,0,0,0,0,0,0,0,0,0,0,0,0,
170,0,0,0,0,0,0,0,0,0,0,0,0,0,0,0,0,0,0,0,0,0,0,0,0,0,0,0,0,0,0,0,0,0,0,0,0,0,0,0,0,0,0,0,0,0,0,0,0,0,0,0,0,0,0,0,0,0,0,0,0,0,0,0,0,0,0,0,0,0,0,0,0,0,0,0,0,0,0,0,
0,0,0,0,0,0,0,0,0,0,0,0,0,0,0,0,0,0,0,0,0,0,0,0,0,0,0,0,0,0,0,0,0,0,0,0,0,0,0,0,0,0,0,0,0,0,0,0,0,0,0,0,0,0,0,0,0,0,0,0,0,0,0,0,0,0,0,0,0,0,0,0,0,440,414,415,415,415,102,0,
0,0,0,0,0,0,0,0,0,0,0,0,0,0,0,0,0,0,0,0,0,0,0,0,0,0,0,0,0,0,0,0,0,0,0,0,0,0,0,0,0,0,0,0,0,0,0,0,0,0,0,0,0,0,0,0,0,0,0,0,0,0,0,0,0,0,0,0,0,0,0,0,0,392,326,327,327,327,0,0,
0,0,0,0,0,0,0,0,0,0,0,0,0,0,0,0,0,0,0,0,0,0,0,0,0,0,0,0,0,0,0,0,0,0,0,0,0,0,0,0,0,0,0,0,0,0,0,0,0,0,0,0,0,0,0,0,0,0,0,0,0,0,0,0,0,0,0,0,0,0,0,0,0,417,0,0,0,0,0,0,
0,0,0,0,0,0,0,0,0,0,0,0,0,0,0,0,0,0,0,0,0,0,0,0,0,0,0,0,0,0,0,0,0,0,0,0,0,0,0,0,0,0,0,0,0,0,0,0,0,0,0,0,0,0,0,0,0,0,0,0,0,0,0,0,0,0,0,0,0,440,415,414,415,416,0,0,0,0,0,0,
0,0,0,0,0,0,0,0,0,0,0,0,0,0,0,0,0,0,0,0,0,0,0,0,0,0,0,0,0,0,0,0,0,0,0,0,0,0,0,0,0,0,0,0,0,0,0,0,0,0,0,0,0,0,0,0,0,0,0,0,0,0,0,0,0,0,0,0,0,0,176,327,328,295,0,0,0,0,0,0,
0,0,0,0,0,0,0,0,0,0,0,0,0,0,0,0,0,0,0,0,0,0,0,0,0,0,0,0,0,0,0,0,0,0,0,0,0,0,0,0,0,0,0,0,0,0,0,0,0,0,0,0,0,0,0,0,0,0,0,0,0,0,0,0,0,0,0,0,0,0,351,352,0,0,0,0,0,0,0,0,
0,0,413,414,415,414,415,414,415,414,415,414,415,414,415,414,415,414,415,414,415,414,415,414,415,414,415,414,415,414,415,414,415,414,415,414,415,414,415,439,0,0,440,414,415,414,415,414,415,414,415,414,415,414,415,414,415,414,415,414,415,414,415,414,415,414,415,414,415,0,351,352,353,0,0,0,0,0,0,0,
0,0,327,327,327,327,327,327,327,327,327,327,327,327,327,327,327,327,327,327,327,327,327,327,327,327,327,327,327,327,327,327,327,327,327,176,176,176,176,395,0,0,392,0,0,327,327,327,327,327,327,327,327,0,0,0,0,0,327,327,327,327,0,327,327,327,327,176,327,0,329,352,353,0,0,0,0,0,0,0,
0,0,0,0,0,0,0,0,0,0,0,0,0,0,0,0,0,0,0,0,0,0,0,0,0,0,0,0,0,0,0,0,0,0,0,0,0,0,0,0,0,0,0,0,0,0,0,0,0,0,0,0,0,0,0,0,0,0,0,0,0,0,0,0,0,0,0,0,144,145,352,352,353,0,0,0,0,0,0,0,
0,0,0,305,306,0,0,0,0,0,0,0,0,0,0,0,0,0,0,0,0,0,0,0,0,0,0,0,0,0,0,0,0,0,0,0,0,0,0,0,0,0,0,0,0,0,0,0,0,0,0,0,0,0,0,0,0,0,0,0,0,0,0,0,0,0,0,0,169,170,305,306,353,0,0,0,0,0,0,0
</data>
 </layer>
 <objectgroup id="9" name="Front">
  <object id="77" name="TileData" x="326.667" y="96" width="16" height="16">
   <properties>
    <property name="Order" type="int" value="3"/>
   </properties>
  </object>
  <object id="78" name="TileData" x="758.667" y="128" width="16" height="16">
   <properties>
    <property name="Order" type="int" value="5"/>
   </properties>
  </object>
  <object id="79" name="TileData" x="614.667" y="160" width="16" height="16">
   <properties>
    <property name="Order" type="int" value="3"/>
   </properties>
  </object>
  <object id="80" name="TileData" x="726.667" y="160" width="16" height="16">
   <properties>
    <property name="Order" type="int" value="2"/>
   </properties>
  </object>
  <object id="81" name="TileData" x="854.667" y="160" width="16" height="16">
   <properties>
    <property name="Order" type="int" value="1"/>
   </properties>
  </object>
  <object id="82" name="TileData" x="614.667" y="288" width="16" height="16">
   <properties>
    <property name="Order" type="int" value="4"/>
   </properties>
  </object>
  <object id="83" name="TileData" x="166.667" y="320" width="16" height="16">
   <properties>
    <property name="Order" type="int" value="7"/>
   </properties>
  </object>
  <object id="84" name="TileData" x="422.667" y="432" width="16" height="16">
   <properties>
    <property name="Order" type="int" value="1"/>
   </properties>
  </object>
  <object id="85" name="TileData" x="662.667" y="448" width="16" height="16">
   <properties>
    <property name="Order" type="int" value="5"/>
   </properties>
  </object>
  <object id="86" name="TileData" x="678.667" y="448" width="16" height="16">
   <properties>
    <property name="Order" type="int" value="6"/>
   </properties>
  </object>
  <object id="87" name="TileData" x="774.667" y="448" width="16" height="16">
   <properties>
    <property name="Order" type="int" value="6"/>
   </properties>
  </object>
  <object id="88" name="TileData" x="1094.67" y="448" width="16" height="16">
   <properties>
    <property name="Order" type="int" value="7"/>
   </properties>
  </object>
  <object id="89" name="TileData" x="1110.67" y="528" width="16" height="16">
   <properties>
    <property name="Order" type="int" value="2"/>
   </properties>
  </object>
  <object id="90" name="TileData" x="326.667" y="704" width="16" height="16">
   <properties>
    <property name="Order" type="int" value="4"/>
   </properties>
  </object>
 </objectgroup>
 <layer id="10" name="AlwaysFront" width="80" height="65">
  <data encoding="csv">
0,0,0,0,0,0,0,0,0,0,0,0,0,0,0,0,0,0,0,0,0,0,0,0,0,0,0,0,0,0,0,0,0,14,15,16,0,0,0,0,0,0,0,0,0,0,0,0,0,0,0,0,0,0,0,0,0,0,0,0,0,0,0,0,0,0,0,0,0,0,0,0,0,0,0,0,0,0,0,0,
0,0,0,0,0,0,0,0,0,0,0,0,0,0,0,0,0,0,0,0,0,0,0,0,0,0,0,0,0,0,0,0,0,39,40,41,0,0,0,0,0,0,0,0,0,0,0,0,0,0,0,0,0,0,0,0,0,0,0,0,0,0,0,0,0,0,0,0,0,0,0,0,0,0,0,0,0,0,0,0,
0,0,0,0,0,0,0,0,0,0,0,0,0,0,0,0,0,0,0,0,0,0,0,0,0,0,0,0,0,0,0,0,0,64,65,66,0,0,0,0,0,0,0,0,0,0,0,0,0,0,0,0,0,0,0,0,0,0,0,0,0,0,0,0,0,0,0,0,0,0,0,0,0,0,0,0,0,0,0,0,
0,0,0,0,0,0,0,0,0,0,0,0,0,0,0,0,0,0,0,0,0,0,0,0,0,0,0,0,0,0,0,0,0,152,176,151,0,0,0,0,0,0,0,0,0,0,0,0,0,0,0,0,0,0,0,0,0,0,0,0,0,0,0,0,0,0,1,2,3,0,0,0,0,0,0,0,0,0,0,0,
0,0,0,0,0,0,0,0,0,0,0,0,0,0,0,0,0,0,0,0,0,0,0,0,0,0,0,0,0,0,0,0,0,1634,1635,1636,0,0,0,0,0,0,0,0,0,0,0,0,0,0,0,0,0,0,0,0,0,0,0,0,0,0,0,0,0,0,0,0,0,0,0,0,0,0,0,0,0,0,0,0,
0,0,0,0,0,0,0,0,0,0,0,0,0,0,0,0,0,0,0,0,0,0,0,0,0,0,0,0,0,0,0,0,0,0,1660,0,0,0,0,0,0,0,0,0,0,0,0,0,0,0,0,0,0,0,0,0,0,0,0,0,0,0,0,0,0,0,0,0,0,0,0,0,0,0,0,0,0,0,0,0,
20,21,22,0,0,0,0,0,0,0,0,0,0,0,0,0,0,0,0,0,0,0,0,0,0,0,0,0,0,0,0,0,0,0,0,0,0,0,0,0,0,0,0,0,0,0,0,0,0,0,0,0,0,0,0,0,0,0,0,0,0,0,0,0,0,0,0,0,0,0,0,0,0,0,0,0,0,0,0,0,
45,46,47,0,0,0,0,0,0,0,0,0,0,0,0,0,0,0,0,0,0,0,0,0,0,0,0,0,0,0,0,0,0,0,0,0,0,0,0,0,0,0,0,0,0,0,0,0,0,0,0,0,0,0,0,0,0,0,0,4088,4089,4090,4091,4092,4093,4094,4095,4096,4097,0,0,0,0,0,0,0,0,0,0,0,
70,71,72,0,0,0,0,0,0,0,0,0,0,0,0,0,0,0,0,0,0,0,0,0,0,0,0,0,0,0,0,0,0,0,0,0,0,0,0,0,0,0,0,0,0,0,0,0,0,0,0,0,0,0,0,0,0,0,0,4146,4147,4148,4149,4150,4151,4152,4153,4154,4155,0,0,0,0,0,0,0,0,0,0,0,
95,96,97,0,0,0,0,0,0,0,0,0,0,0,0,0,0,0,0,0,0,0,0,0,0,0,0,0,0,0,0,0,0,0,0,0,0,0,0,0,0,0,0,0,0,0,0,0,0,0,0,0,0,0,0,0,0,0,0,4204,4205,4206,4207,4208,4209,4210,4211,4212,4213,0,0,0,0,0,0,0,0,0,0,0,
120,0,0,0,0,0,0,0,0,0,0,0,0,0,0,0,0,0,0,0,0,0,0,0,0,0,0,0,0,0,0,0,0,0,0,0,0,0,0,0,0,0,0,0,0,0,0,0,0,0,0,0,0,0,0,0,0,0,0,4262,4263,4264,4265,4266,4267,4268,4269,4270,4271,0,0,0,0,0,0,0,0,0,0,0,
145,0,0,0,0,0,0,0,0,0,0,0,0,0,0,0,0,0,0,0,0,0,0,0,0,0,0,0,0,0,0,0,0,0,0,0,0,0,0,0,0,0,0,0,0,0,0,0,0,0,0,0,0,0,0,0,0,0,0,4320,4321,4322,4323,4324,4325,4326,4327,4328,4329,0,0,0,0,0,0,0,0,0,0,0,
170,0,0,0,0,0,0,0,0,0,0,0,0,0,0,0,0,0,0,0,0,0,0,0,0,0,0,0,0,0,0,0,0,0,0,0,0,0,0,0,0,0,0,0,0,0,0,0,0,0,0,0,0,0,0,0,0,0,0,4378,4379,4380,4381,4382,4383,4384,4385,4386,4387,0,0,0,0,0,0,0,0,0,0,0,
0,0,0,0,0,0,0,0,0,0,0,0,0,0,0,0,0,0,0,0,0,0,0,0,0,0,0,0,0,0,0,0,0,0,0,0,0,0,0,0,0,0,0,0,0,0,0,0,0,0,0,0,0,0,0,0,0,0,0,0,0,0,0,0,0,0,0,0,0,0,0,0,0,0,0,0,0,0,0,0,
0,0,0,0,0,0,0,0,0,0,0,0,0,0,0,0,0,0,0,0,0,0,0,0,0,0,0,0,0,0,0,0,0,0,0,0,0,0,0,0,0,0,0,0,0,0,0,0,0,0,0,0,0,0,0,0,0,0,0,0,0,0,0,0,0,0,0,0,0,0,0,0,0,0,0,0,0,0,0,0,
0,0,0,0,0,0,0,0,0,0,0,0,0,0,0,0,0,0,0,0,0,0,0,0,0,0,0,0,0,0,0,0,0,0,0,0,0,0,0,0,0,0,0,0,0,0,0,0,0,0,0,0,0,0,0,0,0,0,0,0,0,0,0,0,0,0,0,0,0,0,0,0,0,0,0,0,0,0,0,0,
0,0,0,0,0,0,0,0,0,0,0,0,0,0,0,0,0,0,0,0,0,0,0,0,0,0,0,0,0,0,0,0,0,0,0,0,0,0,0,0,0,0,0,0,0,0,0,0,0,0,0,0,0,0,0,0,0,0,0,0,0,0,0,0,0,0,0,0,0,0,0,0,0,0,0,0,0,0,0,0,
0,0,0,0,0,0,0,0,0,0,0,0,0,0,0,0,0,0,0,0,0,0,0,0,0,0,0,0,0,0,0,0,0,0,0,0,0,0,0,0,0,0,0,0,0,0,0,0,0,0,0,0,0,0,0,0,0,0,0,0,0,0,0,0,0,0,0,0,0,0,0,0,0,0,0,0,0,0,0,0,
0,0,0,0,0,0,0,0,0,0,0,0,0,0,0,0,0,0,0,0,0,0,0,0,0,0,0,0,0,0,0,0,0,0,0,0,0,0,0,0,0,0,0,0,0,0,0,0,0,0,0,0,0,0,0,0,0,0,0,0,0,0,0,0,0,0,0,0,0,0,0,0,0,0,0,0,0,0,18,19,
19,20,21,22,0,0,0,0,0,0,0,0,0,0,0,0,0,0,0,0,0,0,0,0,0,0,0,0,0,0,0,0,0,0,0,0,0,0,0,0,0,0,0,0,0,0,0,0,0,0,0,0,0,0,0,0,0,0,0,0,0,0,0,0,0,0,0,0,0,0,0,0,0,0,0,0,0,0,0,0,
44,45,46,47,0,0,0,0,0,0,0,0,0,0,0,0,0,0,0,0,0,0,0,0,0,0,0,0,0,0,0,0,0,0,0,0,0,0,0,0,0,0,0,0,0,0,0,0,0,0,0,0,0,0,0,0,0,0,0,0,0,0,0,0,0,0,0,0,0,0,0,0,0,0,0,0,0,0,0,0,
69,70,71,72,0,0,0,0,0,0,0,0,0,0,0,0,0,0,0,0,0,0,0,0,0,0,0,0,0,0,0,0,0,0,0,0,0,0,0,0,0,0,0,0,0,0,0,0,0,0,0,0,0,0,0,0,0,0,0,0,0,0,0,0,0,0,0,0,0,0,0,0,0,0,0,0,0,0,0,0,
94,95,96,97,0,0,0,0,0,0,0,0,0,0,0,0,0,0,0,0,0,0,0,0,0,0,0,0,0,0,0,0,0,0,0,0,0,0,0,0,0,0,0,0,0,0,0,0,0,0,0,0,0,0,0,0,0,0,0,0,0,0,0,0,0,0,0,0,0,0,0,0,0,0,0,0,0,0,0,0,
0,17,18,19,20,21,22,0,0,0,0,0,0,0,0,0,0,0,0,0,0,0,0,0,0,0,0,0,0,0,0,0,0,0,0,0,0,0,0,0,0,0,0,0,0,0,0,0,0,0,0,0,0,0,0,0,0,0,0,0,0,0,0,0,0,0,0,0,0,0,0,0,0,0,0,0,0,0,0,0,
0,42,43,44,45,46,47,0,0,0,0,0,0,0,0,0,0,0,0,0,0,0,0,0,0,0,0,0,0,0,0,0,0,0,0,0,0,0,0,0,0,0,0,0,0,0,0,0,0,0,0,0,0,0,0,0,0,0,0,0,0,0,0,0,0,0,0,0,0,0,0,0,0,0,0,0,0,0,0,0,
0,67,68,69,70,71,72,0,0,0,0,0,0,0,0,0,0,0,0,0,0,0,0,0,0,0,0,0,0,0,0,0,0,0,0,0,0,0,0,0,0,0,0,0,0,0,0,0,0,0,0,0,0,0,0,0,0,0,0,0,0,0,0,0,0,0,0,0,0,0,0,0,0,0,0,0,0,0,0,0,
4,5,6,94,95,96,97,0,0,0,0,0,0,0,0,0,0,0,0,0,0,0,0,0,0,0,0,0,0,0,0,0,0,0,0,0,0,0,0,0,0,0,0,0,0,0,0,0,0,0,0,0,0,0,0,0,0,0,0,0,0,0,0,0,0,0,0,0,0,0,0,0,0,0,0,0,0,0,0,0,
29,30,31,0,0,0,0,0,0,0,0,0,0,0,0,0,0,0,0,0,0,0,0,0,0,0,0,0,0,0,0,0,0,0,0,0,0,0,0,0,0,0,0,0,0,0,0,0,0,0,0,0,0,0,0,0,0,0,0,0,0,0,0,0,0,0,0,0,0,0,0,0,0,0,0,0,0,0,0,0,
54,55,56,0,0,0,0,0,0,0,0,0,0,0,0,0,0,0,0,0,0,0,0,0,0,0,0,0,0,0,0,0,0,0,0,0,0,0,0,0,0,0,0,0,0,0,0,0,0,0,0,0,0,0,0,0,0,0,0,0,0,0,0,0,0,0,0,0,0,0,0,0,0,0,0,0,0,0,0,0,
79,80,81,0,0,0,0,0,0,0,0,0,0,0,0,0,0,0,0,0,0,0,0,0,0,0,0,0,0,0,0,0,0,0,0,0,0,0,0,0,0,0,0,0,0,0,0,0,0,0,0,0,0,0,0,0,0,0,0,0,0,0,0,0,0,0,0,0,0,0,0,0,0,0,0,0,0,0,0,0,
104,105,106,0,0,0,0,0,0,0,0,0,0,0,0,0,0,0,0,0,0,0,0,0,0,0,0,0,0,0,0,0,0,0,0,0,0,0,0,0,0,0,0,0,0,0,0,0,0,0,0,0,0,0,0,0,0,0,0,0,0,0,0,0,0,0,0,0,0,0,0,0,0,0,0,0,0,0,0,0,
0,0,0,0,0,0,0,0,0,0,0,0,0,0,0,0,0,0,0,0,0,0,0,0,0,0,0,0,0,0,0,0,0,0,0,0,0,0,0,0,0,0,0,0,0,0,0,0,0,0,0,0,0,0,0,0,0,0,0,0,0,0,0,0,0,0,0,0,0,0,0,0,0,0,0,0,0,0,0,0,
0,0,0,0,0,0,0,0,0,0,0,0,0,0,0,0,0,0,0,0,0,0,0,0,0,0,0,0,0,0,0,0,0,0,0,0,0,0,0,0,0,0,0,0,0,0,0,0,0,0,0,0,0,0,0,0,0,0,0,0,0,0,0,0,0,0,0,0,0,0,0,0,0,0,0,0,0,0,0,0,
0,0,0,0,0,0,0,0,0,0,0,0,0,0,0,0,0,0,0,0,0,0,0,0,0,0,0,0,0,0,0,0,0,0,0,0,0,0,0,0,0,0,0,0,0,0,0,0,0,0,0,0,0,0,0,0,0,0,0,0,0,0,0,0,0,0,0,0,0,0,0,0,0,0,0,0,0,0,0,0,
0,0,0,0,0,0,0,0,0,0,0,0,0,0,0,0,0,0,0,0,0,0,0,0,0,0,0,0,0,0,0,0,0,0,0,0,0,0,0,0,0,0,0,0,0,0,0,0,0,0,0,0,0,0,0,0,0,0,0,0,0,0,0,0,0,0,0,0,0,0,0,0,0,0,0,0,0,0,0,0,
0,0,0,0,0,0,0,0,0,0,0,0,0,0,0,0,0,0,0,0,0,0,0,0,0,0,0,0,0,0,0,0,0,0,0,0,0,0,0,0,0,0,0,0,0,0,0,0,0,0,0,0,0,0,0,0,0,0,0,0,0,0,0,0,0,0,0,0,0,0,0,0,0,0,0,0,0,0,0,0,
0,0,0,0,0,0,0,0,0,0,0,0,0,0,0,0,0,0,0,0,0,0,0,0,0,0,0,0,0,0,0,0,0,0,0,0,0,0,0,0,0,0,0,0,0,0,0,0,0,0,0,0,0,0,0,0,0,0,0,0,0,0,0,0,0,0,0,0,0,0,0,0,0,0,0,0,0,0,0,0,
0,0,0,0,0,0,0,0,0,0,0,0,0,0,0,0,0,0,0,0,0,0,0,0,0,0,0,0,0,0,0,0,0,0,0,0,0,0,0,0,0,0,0,0,0,0,0,0,0,0,0,0,0,0,0,0,0,0,0,0,0,0,0,0,0,0,0,0,0,0,0,0,0,0,0,0,0,17,18,19,
0,0,0,0,0,0,0,0,0,0,0,0,0,0,0,0,0,0,0,0,0,0,0,0,0,0,0,0,0,0,0,0,0,0,0,0,0,0,0,0,0,0,0,0,0,0,0,0,0,0,0,0,0,0,0,0,0,0,0,0,0,0,0,0,0,0,0,0,0,0,0,0,0,0,0,0,0,0,43,44,
0,0,0,0,0,0,0,0,0,0,0,0,0,0,0,0,0,0,0,0,0,0,0,0,0,0,0,0,0,0,0,0,0,0,0,0,0,0,0,0,0,0,0,0,0,0,0,0,0,0,0,0,0,0,0,0,0,0,0,0,0,0,0,0,0,0,0,0,0,0,0,0,0,0,0,0,0,0,68,69,
0,0,0,0,0,0,0,0,0,0,0,0,0,0,0,0,0,0,0,0,0,0,0,0,0,0,0,0,0,0,0,0,0,0,0,0,0,0,0,0,0,0,0,0,0,0,0,0,0,0,0,0,0,0,0,0,0,0,0,0,0,0,0,0,0,0,0,0,0,0,0,0,0,0,0,0,0,0,93,94,
0,0,0,0,0,0,0,0,0,0,0,0,0,0,0,0,0,0,0,0,0,0,0,0,0,0,0,0,0,0,0,0,0,0,0,0,0,0,0,0,0,0,0,0,0,0,0,0,0,0,0,0,0,0,0,0,0,0,0,0,0,0,0,0,0,0,0,0,0,0,0,0,0,0,0,0,0,117,0,119,
0,0,0,0,0,0,0,0,0,0,0,0,0,0,0,0,0,0,0,0,0,0,0,0,0,0,0,0,0,0,0,0,0,0,0,0,0,0,0,0,0,0,0,0,0,0,0,0,0,0,0,0,0,0,0,0,0,0,0,0,0,0,0,0,0,0,0,0,0,0,0,0,0,0,0,0,0,0,0,144,
0,0,0,0,0,0,0,0,0,0,0,0,0,0,0,0,0,0,0,0,0,0,0,0,0,0,0,0,0,0,0,0,0,0,0,0,0,0,0,0,0,0,0,0,0,0,0,0,0,0,0,0,0,0,0,0,0,0,0,0,0,0,0,0,0,0,0,0,0,0,0,0,0,0,0,0,0,0,0,169,
0,0,0,0,0,0,0,0,0,0,0,0,0,0,0,0,0,0,0,0,0,0,0,0,0,0,0,0,0,0,0,0,0,0,0,0,0,0,0,0,0,0,0,0,0,0,0,0,0,0,0,0,0,0,0,0,0,0,0,0,0,0,0,0,0,0,0,0,0,0,0,0,0,0,0,0,0,0,0,0,
0,0,0,0,0,0,0,0,0,0,0,0,0,0,0,0,0,0,0,0,0,0,0,0,0,0,0,0,0,0,0,0,0,0,0,0,0,0,0,0,0,0,0,0,0,0,0,0,0,0,0,0,0,0,0,0,0,0,0,0,0,0,0,0,0,0,0,0,0,0,0,0,0,0,0,0,0,0,0,0,
0,0,0,0,0,0,0,0,0,0,0,0,0,0,0,0,0,0,0,0,0,0,0,0,0,0,0,0,0,0,0,0,0,0,0,0,0,0,0,0,0,0,0,0,0,0,0,0,0,0,0,0,0,0,0,0,0,0,0,0,0,0,0,0,0,0,0,0,0,0,0,0,0,0,0,0,0,0,0,0,
0,0,0,0,0,0,0,0,0,0,0,0,0,0,0,0,0,0,0,0,0,0,0,0,0,0,0,0,0,0,0,0,0,0,0,0,0,0,0,0,0,0,0,0,0,0,0,0,0,0,0,0,0,0,0,0,0,0,0,0,0,0,0,0,0,0,0,0,0,0,0,0,0,0,0,0,0,0,0,0,
0,0,0,0,0,0,0,0,0,0,0,0,0,0,0,0,0,0,0,0,0,0,0,0,0,0,0,0,0,0,0,0,0,0,0,0,0,0,0,0,0,0,0,0,0,0,0,0,0,0,0,0,0,0,0,0,0,0,0,0,0,0,0,0,0,0,0,0,0,0,0,0,0,0,0,0,0,0,0,0,
0,0,0,0,0,0,0,0,0,0,0,0,0,0,0,0,0,0,0,0,0,0,0,0,0,0,0,0,0,0,0,0,0,0,0,0,0,0,0,0,0,0,0,0,0,0,0,0,0,0,0,0,0,0,0,0,0,0,0,0,0,0,0,0,0,0,0,0,0,0,0,0,0,0,0,0,0,0,0,0,
0,0,0,0,0,0,0,0,0,0,0,0,0,0,0,0,0,0,0,0,0,0,0,0,0,0,0,0,0,0,0,0,0,0,0,0,0,0,0,0,0,0,0,0,0,0,0,0,0,0,0,0,0,0,0,0,0,0,0,0,0,0,0,0,0,0,0,0,0,0,0,0,0,0,0,0,0,0,0,0,
0,0,0,0,0,0,0,0,0,0,0,0,0,0,0,0,0,0,0,0,0,0,0,0,0,0,0,0,0,0,0,0,0,0,0,0,0,0,0,0,0,0,0,0,0,0,0,0,0,0,0,0,0,0,0,0,0,0,0,0,0,0,0,0,0,0,0,0,0,0,0,0,0,0,0,0,0,1,2,3,
0,0,0,0,0,0,0,0,0,0,0,0,0,0,0,0,0,0,0,0,0,0,0,0,0,0,0,0,0,0,0,0,0,0,0,0,0,0,0,0,0,0,0,0,0,0,0,0,0,0,0,0,0,0,0,0,0,0,0,0,0,0,0,0,0,0,0,0,0,0,0,0,0,0,0,0,0,26,27,28,
0,0,0,0,0,0,0,0,0,0,0,0,0,0,0,0,0,0,0,0,0,0,0,0,0,0,0,0,0,0,0,0,0,0,0,0,0,0,0,0,0,0,0,0,0,0,0,0,0,0,0,0,0,0,0,0,0,0,0,0,0,0,0,0,0,0,0,0,0,0,0,0,0,0,4,5,6,51,52,53,
0,0,0,0,0,0,0,0,0,0,0,0,0,0,0,0,0,0,0,0,0,0,0,0,0,0,0,0,0,0,0,0,0,0,0,0,0,0,0,0,0,0,0,0,0,0,0,0,0,0,0,0,0,0,0,0,0,0,0,0,0,0,0,0,0,0,0,0,0,0,0,0,0,0,29,30,31,76,77,78,
0,0,0,0,0,0,0,0,0,0,0,0,0,0,0,0,0,0,0,0,0,0,0,0,0,0,0,0,0,0,0,0,0,0,0,0,0,0,0,0,0,0,0,0,0,0,0,0,0,0,0,0,0,0,0,0,0,0,0,0,0,0,0,0,0,0,0,0,0,0,0,4,5,6,54,55,56,0,0,0,
0,0,0,0,0,0,0,0,0,0,0,0,0,0,0,0,0,0,0,0,0,0,0,0,0,0,0,0,0,0,0,0,0,0,0,0,0,0,0,0,0,0,0,0,0,0,0,0,0,0,0,0,0,0,0,0,0,0,0,0,0,0,0,0,0,0,0,0,0,0,0,29,30,31,79,80,81,0,0,0,
0,16,0,0,0,0,0,0,0,0,0,0,0,0,0,0,0,0,0,0,0,0,0,0,0,0,0,0,0,0,0,0,0,0,0,0,0,0,0,0,0,0,0,0,0,0,0,0,0,0,0,0,0,0,0,0,0,0,0,0,0,0,0,0,0,0,0,0,0,0,0,54,55,56,104,105,106,0,0,0,
19,20,0,0,0,0,0,0,0,0,0,0,0,0,0,0,0,0,0,0,0,0,0,0,0,0,0,0,0,0,0,0,0,0,0,0,0,0,0,0,0,0,0,0,0,0,0,0,0,0,0,0,0,0,0,0,0,0,0,0,0,0,0,0,0,0,17,18,19,20,21,79,80,81,129,130,131,0,0,0,
44,45,0,0,0,0,0,0,0,0,0,0,0,0,0,0,0,0,0,0,0,0,0,0,0,0,0,0,0,0,0,0,0,0,0,0,0,0,0,0,0,0,0,0,0,0,0,0,0,0,0,0,0,0,0,0,0,0,0,0,0,0,0,0,0,0,42,43,44,45,46,47,105,106,0,0,0,0,0,0,
69,70,0,0,0,0,0,0,0,0,0,0,0,0,0,0,0,0,0,0,0,0,0,0,0,0,0,0,0,0,0,0,0,0,0,0,0,0,0,0,0,0,0,0,0,0,0,0,0,0,0,0,17,18,19,20,19,20,21,22,17,18,19,20,21,22,67,68,69,70,71,72,130,320,0,0,0,0,0,0,
94,95,0,0,0,17,18,19,20,21,22,0,0,0,0,0,0,0,4,5,6,0,0,0,0,0,0,0,0,0,4,5,6,17,18,19,20,19,20,21,22,17,18,19,20,21,22,0,0,0,0,0,42,43,44,45,44,45,46,47,42,43,44,45,46,47,92,93,94,95,96,97,1,2,3,0,0,0,0,0,
119,120,362,359,360,360,43,44,45,46,361,362,0,0,0,0,258,0,29,30,31,1,2,3,308,258,0,0,0,0,29,30,31,42,43,44,45,44,45,46,47,42,43,44,45,46,47,0,0,4,5,6,67,68,69,70,69,70,71,72,67,68,69,70,71,72,0,0,119,120,0,258,26,27,28,0,0,0,0,0,
144,145,0,0,0,67,68,69,70,71,72,17,18,19,20,21,0,0,54,55,56,26,27,28,258,0,0,1,2,3,54,55,56,67,68,69,70,69,70,71,72,67,68,69,70,71,72,0,0,29,30,31,92,93,94,95,94,95,96,97,92,93,94,95,96,97,0,0,0,0,308,0,51,52,53,0,0,0,0,0,
169,170,0,0,0,92,93,94,95,96,97,42,43,44,45,46,47,0,79,80,81,51,52,53,0,0,0,26,27,28,79,80,81,92,93,94,95,94,95,96,97,92,93,94,95,96,97,0,0,54,55,56,0,0,119,120,119,120,0,0,0,0,119,120,0,0,54,55,56,0,0,0,76,77,78,0,0,0,0,0
</data>
 </layer>
 <objectgroup id="11" name="AlwaysFront"/>
 <layer id="13" name="AlwaysFront2" width="80" height="65">
  <data encoding="csv">
0,0,0,0,0,0,0,0,0,0,0,0,0,0,0,0,0,0,0,0,0,0,0,0,0,0,0,0,0,0,0,0,0,0,0,0,0,0,0,0,0,0,0,0,0,0,0,0,0,0,0,0,0,0,0,0,0,0,0,0,0,0,0,0,0,0,0,0,0,0,0,0,0,0,0,0,0,0,0,0,
0,0,0,0,0,0,0,0,0,0,0,0,0,0,0,0,0,0,0,0,0,0,0,0,0,0,0,0,0,0,0,0,0,0,0,0,0,0,0,0,0,0,0,0,0,0,0,0,0,0,0,0,0,0,0,0,0,0,0,0,0,0,0,0,0,0,0,0,0,0,0,0,0,0,0,0,0,0,0,0,
0,0,0,0,0,0,0,0,0,0,0,0,0,0,0,0,0,0,0,0,0,0,0,0,0,0,0,0,0,0,0,0,0,0,0,0,0,0,0,0,0,0,0,0,0,0,0,0,0,0,0,0,0,0,0,0,0,0,0,0,0,0,0,0,0,0,0,0,0,0,0,0,0,0,0,0,0,0,0,0,
0,0,0,0,0,0,0,0,0,0,0,0,0,0,0,0,0,0,0,0,0,0,0,0,0,0,0,0,0,0,0,0,0,0,0,0,0,0,0,0,0,0,0,0,0,0,0,0,0,0,0,0,0,0,0,0,0,0,0,0,0,0,0,0,0,0,0,0,0,0,0,0,0,0,0,0,0,0,0,0,
0,0,0,0,0,0,0,0,0,0,0,0,0,0,0,0,0,0,0,0,0,0,0,0,0,0,0,0,0,0,0,0,0,0,0,0,0,0,0,0,0,0,0,0,0,0,0,0,0,0,0,0,0,0,0,0,0,0,0,0,0,0,0,0,0,0,0,0,0,0,0,0,0,0,0,0,0,0,0,0,
0,0,0,0,0,0,0,0,0,0,0,0,0,0,0,0,0,0,0,0,0,0,0,0,0,0,0,0,0,0,0,0,0,0,0,0,0,0,0,0,0,0,0,0,0,0,0,0,0,0,0,0,0,0,0,0,0,0,0,0,0,0,0,0,0,0,0,0,0,0,0,0,0,0,0,0,0,0,0,0,
0,0,0,0,0,0,0,0,0,0,0,0,0,0,0,0,0,0,0,0,0,0,0,0,0,0,0,0,0,0,0,0,0,0,0,0,0,0,0,0,0,0,0,0,0,0,0,0,0,0,0,0,0,0,0,0,0,0,0,0,0,0,0,0,0,0,0,0,0,0,0,0,0,0,0,0,0,0,0,0,
0,0,0,0,0,0,0,0,0,0,0,0,0,0,0,0,0,0,0,0,0,0,0,0,0,0,0,0,0,0,0,0,0,0,0,0,0,0,0,0,0,0,0,0,0,0,0,0,0,0,0,0,0,0,0,0,0,0,0,0,0,0,0,0,0,0,0,0,0,0,0,0,0,0,0,0,0,0,0,0,
0,0,0,0,0,0,0,0,0,0,0,0,0,0,0,0,0,0,0,0,0,0,0,0,0,0,0,0,0,0,0,0,0,0,0,0,0,0,0,0,0,0,0,0,0,0,0,0,0,0,0,0,0,0,0,0,0,0,0,0,0,0,0,0,0,0,0,0,0,0,0,0,0,0,0,0,0,0,0,0,
0,0,0,0,0,0,0,0,0,0,0,0,0,0,0,0,0,0,0,0,0,0,0,0,0,0,0,0,0,0,0,0,0,0,0,0,0,0,0,0,0,0,0,0,0,0,0,0,0,0,0,0,0,0,0,0,0,0,0,0,0,0,0,0,0,0,0,0,0,0,0,0,0,0,0,0,0,0,0,0,
0,0,0,0,0,0,0,0,0,0,0,0,0,0,0,0,0,0,0,0,0,0,0,0,0,0,0,0,0,0,0,0,0,0,0,0,0,0,0,0,0,0,0,0,0,0,0,0,0,0,0,0,0,0,0,0,0,0,0,0,0,0,0,0,0,0,0,0,0,0,0,0,0,0,0,0,0,0,0,0,
0,0,0,0,0,0,0,0,0,0,0,0,0,0,0,0,0,0,0,0,0,0,0,0,0,0,0,0,0,0,0,0,0,0,0,0,0,0,0,0,0,0,0,0,0,0,0,0,0,0,0,0,0,0,0,0,0,0,0,0,0,0,0,0,0,0,0,0,0,0,0,0,0,0,0,0,0,0,0,0,
0,0,0,0,0,0,0,0,0,0,0,0,0,0,0,0,0,0,0,0,0,0,0,0,0,0,0,0,0,0,0,0,0,0,0,0,0,0,0,0,0,0,0,0,0,0,0,0,0,0,0,0,0,0,0,0,0,0,0,0,0,0,0,0,0,0,0,0,0,0,0,0,0,0,0,0,0,0,0,0,
0,0,0,0,0,0,0,0,0,0,0,0,0,0,0,0,0,0,0,0,0,0,0,0,0,0,0,0,0,0,0,0,0,0,0,0,0,0,0,0,0,0,0,0,0,0,0,0,0,0,0,0,0,0,0,0,0,0,0,0,0,0,0,0,0,0,0,0,0,0,0,0,0,0,0,0,0,0,0,0,
0,0,0,0,0,0,0,0,0,0,0,0,0,0,0,0,0,0,0,0,0,0,0,0,0,0,0,0,0,0,0,0,0,0,0,0,0,0,0,0,0,0,0,0,0,0,0,0,0,0,0,0,0,0,0,0,0,0,0,0,0,0,0,0,0,0,0,0,0,0,0,0,0,0,0,0,0,0,0,0,
0,0,0,0,0,0,0,0,0,0,0,0,0,0,0,0,0,0,0,0,0,0,0,0,0,0,0,0,0,0,0,0,0,0,0,0,0,0,0,0,0,0,0,0,0,0,0,0,0,0,0,0,0,0,0,0,0,0,0,0,0,0,0,0,0,0,0,0,0,0,0,0,0,0,0,0,0,0,0,0,
0,0,0,0,0,0,0,0,0,0,0,0,0,0,0,0,0,0,0,0,0,0,0,0,0,0,0,0,0,0,0,0,0,0,0,0,0,0,0,0,0,0,0,0,0,0,0,0,0,0,0,0,0,0,0,0,0,0,0,0,0,0,0,0,0,0,0,0,0,0,0,0,0,0,0,0,0,0,0,0,
0,0,0,0,0,0,0,0,0,0,0,0,0,0,0,0,0,0,0,0,0,0,0,0,0,0,0,0,0,0,0,0,0,0,0,0,0,0,0,0,0,0,0,0,0,0,0,0,0,0,0,0,0,0,0,0,0,0,0,0,0,0,0,0,0,0,0,0,0,0,0,0,0,0,0,0,0,0,0,0,
0,0,0,0,0,0,0,0,0,0,0,0,0,0,0,0,0,0,0,0,0,0,0,0,0,0,0,0,0,0,0,0,0,0,0,0,0,0,0,0,0,0,0,0,0,0,0,0,0,0,0,0,0,0,0,0,0,0,0,0,0,0,0,0,0,0,0,0,0,0,0,0,0,0,0,0,0,0,0,0,
0,0,0,0,0,0,0,0,0,0,0,0,0,0,0,0,0,0,0,0,0,0,0,0,0,0,0,0,0,0,0,0,0,0,0,0,0,0,0,0,0,0,0,0,0,0,0,0,0,0,0,0,0,0,0,0,0,0,0,0,0,0,0,0,0,0,0,0,0,0,0,0,0,0,0,0,0,0,0,0,
0,0,0,0,0,0,0,0,0,0,0,0,0,0,0,0,0,0,0,0,0,0,0,0,0,0,0,0,0,0,0,0,0,0,0,0,0,0,0,0,0,0,0,0,0,0,0,0,0,0,0,0,0,0,0,0,0,0,0,0,0,0,0,0,0,0,0,0,0,0,0,0,0,0,0,0,0,0,0,0,
0,0,0,0,0,0,0,0,0,0,0,0,0,0,0,0,0,0,0,0,0,0,0,0,0,0,0,0,0,0,0,0,0,0,0,0,0,0,0,0,0,0,0,0,0,0,0,0,0,0,0,0,0,0,0,0,0,0,0,0,0,0,0,0,0,0,0,0,0,0,0,0,0,0,0,0,0,0,0,0,
0,0,0,0,0,0,0,0,0,0,0,0,0,0,0,0,0,0,0,0,0,0,0,0,0,0,0,0,0,0,0,0,0,0,0,0,0,0,0,0,0,0,0,0,0,0,0,0,0,0,0,0,0,0,0,0,0,0,0,0,0,0,0,0,0,0,0,0,0,0,0,0,0,0,0,0,0,0,0,0,
0,0,0,0,0,0,0,0,0,0,0,0,0,0,0,0,0,0,0,0,0,0,0,0,0,0,0,0,0,0,0,0,0,0,0,0,0,0,0,0,0,0,0,0,0,0,0,0,0,0,0,0,0,0,0,0,0,0,0,0,0,0,0,0,0,0,0,0,0,0,0,0,0,0,0,0,0,0,0,0,
0,0,0,0,0,0,0,0,0,0,0,0,0,0,0,0,0,0,0,0,0,0,0,0,0,0,0,0,0,0,0,0,0,0,0,0,0,0,0,0,0,0,0,0,0,0,0,0,0,0,0,0,0,0,0,0,0,0,0,0,0,0,0,0,0,0,0,0,0,0,0,0,0,0,0,0,0,0,0,0,
0,0,0,0,0,0,0,0,0,0,0,0,0,0,0,0,0,0,0,0,0,0,0,0,0,0,0,0,0,0,0,0,0,0,0,0,0,0,0,0,0,0,0,0,0,0,0,0,0,0,0,0,0,0,0,0,0,0,0,0,0,0,0,0,0,0,0,0,0,0,0,0,0,0,0,0,0,0,0,0,
0,0,0,0,0,0,0,0,0,0,0,0,0,0,0,0,0,0,0,0,0,0,0,0,0,0,0,0,0,0,0,0,0,0,0,0,0,0,0,0,0,0,0,0,0,0,0,0,0,0,0,0,0,0,0,0,0,0,0,0,0,0,0,0,0,0,0,0,0,0,0,0,0,0,0,0,0,0,0,0,
0,0,0,0,0,0,0,0,0,0,0,0,0,0,0,0,0,0,0,0,0,0,0,0,0,0,0,0,0,0,0,0,0,0,0,0,0,0,0,0,0,0,0,0,0,0,0,0,0,0,0,0,0,0,0,0,0,0,0,0,0,0,0,0,0,0,0,0,0,0,0,0,0,0,0,0,0,0,0,0,
0,0,0,0,0,0,0,0,0,0,0,0,0,0,0,0,0,0,0,0,0,0,0,0,0,0,0,0,0,0,0,0,0,0,0,0,0,0,0,0,0,0,0,0,0,0,0,0,0,0,0,0,0,0,0,0,0,0,0,0,0,0,0,0,0,0,0,0,0,0,0,0,0,0,0,0,0,0,0,0,
0,0,0,0,0,0,0,0,0,0,0,0,0,0,0,0,0,0,0,0,0,0,0,0,0,0,0,0,0,0,0,0,0,0,0,0,0,0,0,0,0,0,0,0,0,0,0,0,0,0,0,0,0,0,0,0,0,0,0,0,0,0,0,0,0,0,0,0,0,0,0,0,0,0,0,0,0,0,0,0,
0,0,0,0,0,0,0,0,0,0,0,0,0,0,0,0,0,0,0,0,0,0,0,0,0,0,0,0,0,0,0,0,0,0,0,0,0,0,0,0,0,0,0,0,0,0,0,0,0,0,0,0,0,0,0,0,0,0,0,0,0,0,0,0,0,0,0,0,0,0,0,0,0,0,0,0,0,0,0,0,
0,0,0,0,0,0,0,0,0,0,0,0,0,0,0,0,0,0,0,0,0,0,0,0,0,0,0,0,0,0,0,0,0,0,0,0,0,0,0,0,0,0,0,0,0,0,0,0,0,0,0,0,0,0,0,0,0,0,0,0,0,0,0,0,0,0,0,0,0,0,0,0,0,0,0,0,0,0,0,0,
0,0,0,0,0,0,0,0,0,0,0,0,0,0,0,0,0,0,0,0,0,0,0,0,0,0,0,0,0,0,0,0,0,0,0,0,0,0,0,0,0,0,0,0,0,0,0,0,0,0,0,0,0,0,0,0,0,0,0,0,0,0,0,0,0,0,0,0,0,0,0,0,0,0,0,0,0,0,0,0,
0,0,0,0,0,0,0,0,0,0,0,0,0,0,0,0,0,0,0,0,0,0,0,0,0,0,0,0,0,0,0,0,0,0,0,0,0,0,0,0,0,0,0,0,0,0,0,0,0,0,0,0,0,0,0,0,0,0,0,0,0,0,0,0,0,0,0,0,0,0,0,0,0,0,0,0,0,0,0,0,
0,0,0,0,0,0,0,0,0,0,0,0,0,0,0,0,0,0,0,0,0,0,0,0,0,0,0,0,0,0,0,0,0,0,0,0,0,0,0,0,0,0,0,0,0,0,0,0,0,0,0,0,0,0,0,0,0,0,0,0,0,0,0,0,0,0,0,0,0,0,0,0,0,0,0,0,0,0,0,0,
0,0,0,0,0,0,0,0,0,0,0,0,0,0,0,0,0,0,0,0,0,0,0,0,0,0,0,0,0,0,0,0,0,0,0,0,0,0,0,0,0,0,0,0,0,0,0,0,0,0,0,0,0,0,0,0,0,0,0,0,0,0,0,0,0,0,0,0,0,0,0,0,0,0,0,0,0,0,0,0,
0,0,0,0,0,0,0,0,0,0,0,0,0,0,0,0,0,0,0,0,0,0,0,0,0,0,0,0,0,0,0,0,0,0,0,0,0,0,0,0,0,0,0,0,0,0,0,0,0,0,0,0,0,0,0,0,0,0,0,0,0,0,0,0,0,0,0,0,0,0,0,0,0,0,0,0,0,0,0,0,
0,0,0,0,0,0,0,0,0,0,0,0,0,0,0,0,0,0,0,0,0,0,0,0,0,0,0,0,0,0,0,0,0,0,0,0,0,0,0,0,0,0,0,0,0,0,0,0,0,0,0,0,0,0,0,0,0,0,0,0,0,0,0,0,0,0,0,0,0,0,0,0,0,0,0,0,0,0,0,0,
0,0,0,0,0,0,0,0,0,0,0,0,0,0,0,0,0,0,0,0,0,0,0,0,0,0,0,0,0,0,0,0,0,0,0,0,0,0,0,0,0,0,0,0,0,0,0,0,0,0,0,0,0,0,0,0,0,0,0,0,0,0,0,0,0,0,0,0,0,0,0,0,0,0,0,0,0,0,0,0,
0,0,0,0,0,0,0,0,0,0,0,0,0,0,0,0,0,0,0,0,0,0,0,0,0,0,0,0,0,0,0,0,0,0,0,0,0,0,0,0,0,0,0,0,0,0,0,0,0,0,0,0,0,0,0,0,0,0,0,0,0,0,0,0,0,0,0,0,0,0,0,0,0,0,0,0,0,0,0,0,
0,0,0,0,0,0,0,0,0,0,0,0,0,0,0,0,0,0,0,0,0,0,0,0,0,0,0,0,0,0,0,0,0,0,0,0,0,0,0,0,0,0,0,0,0,0,0,0,0,0,0,0,0,0,0,0,0,0,0,0,0,0,0,0,0,0,0,0,0,0,0,0,0,0,0,0,0,0,0,0,
0,0,0,0,0,0,0,0,0,0,0,0,0,0,0,0,0,0,0,0,0,0,0,0,0,0,0,0,0,0,0,0,0,0,0,0,0,0,0,0,0,0,0,0,0,0,0,0,0,0,0,0,0,0,0,0,0,0,0,0,0,0,0,0,0,0,0,0,0,0,0,0,0,0,0,0,0,0,0,0,
0,0,0,0,0,0,0,0,0,0,0,0,0,0,0,0,0,0,0,0,0,0,0,0,0,0,0,0,0,0,0,0,0,0,0,0,0,0,0,0,0,0,0,0,0,0,0,0,0,0,0,0,0,0,0,0,0,0,0,0,0,0,0,0,0,0,0,0,0,0,0,0,0,0,0,0,0,0,0,0,
0,0,0,0,0,0,0,0,0,0,0,0,0,0,0,0,0,0,0,0,0,0,0,0,0,0,0,0,0,0,0,0,0,0,0,0,0,0,0,0,0,0,0,0,0,0,0,0,0,0,0,0,0,0,0,0,0,0,0,0,0,0,0,0,0,0,0,0,0,0,0,0,0,0,0,0,0,0,0,0,
0,0,0,0,0,0,0,0,0,0,0,0,0,0,0,0,0,0,0,0,0,0,0,0,0,0,0,0,0,0,0,0,0,0,0,0,0,0,0,0,0,0,0,0,0,0,0,0,0,0,0,0,0,0,0,0,0,0,0,0,0,0,0,0,0,0,0,0,0,0,0,0,0,0,0,0,0,0,0,0,
0,0,0,0,0,0,0,0,0,0,0,0,0,0,0,0,0,0,0,0,0,0,0,0,0,0,0,0,0,0,0,0,0,0,0,0,0,0,0,0,0,0,0,0,0,0,0,0,0,0,0,0,0,0,0,0,0,0,0,0,0,0,0,0,0,0,0,0,0,0,0,0,0,0,0,0,0,0,0,0,
0,0,0,0,0,0,0,0,0,0,0,0,0,0,0,0,0,0,0,0,0,0,0,0,0,0,0,0,0,0,0,0,0,0,0,0,0,0,0,0,0,0,0,0,0,0,0,0,0,0,0,0,0,0,0,0,0,0,0,0,0,0,0,0,0,0,0,0,0,0,0,0,0,0,0,0,0,0,0,0,
0,0,0,0,0,0,0,0,0,0,0,0,0,0,0,0,0,0,0,0,0,0,0,0,0,0,0,0,0,0,0,0,0,0,0,0,0,0,0,0,0,0,0,0,0,0,0,0,0,0,0,0,0,0,0,0,0,0,0,0,0,0,0,0,0,0,0,0,0,0,0,0,0,0,0,0,0,0,0,0,
0,0,0,0,0,0,0,0,0,0,0,0,0,0,0,0,0,0,0,0,0,0,0,0,0,0,0,0,0,0,0,0,0,0,0,0,0,0,0,0,0,0,0,0,0,0,0,0,0,0,0,0,0,0,0,0,0,0,0,0,0,0,0,0,0,0,0,0,0,0,0,0,0,0,0,0,0,0,0,0,
0,0,0,0,0,0,0,0,0,0,0,0,0,0,0,0,0,0,0,0,0,0,0,0,0,0,0,0,0,0,0,0,0,0,0,0,0,0,0,0,0,0,0,0,0,0,0,0,0,0,0,0,0,0,0,0,0,0,0,0,0,0,0,0,0,0,0,0,0,0,0,0,0,0,0,0,0,0,0,0,
0,0,0,0,0,0,0,0,0,0,0,0,0,0,0,0,0,0,0,0,0,0,0,0,0,0,0,0,0,0,0,0,0,0,0,0,0,0,0,0,0,0,0,0,0,0,0,0,0,0,0,0,0,0,0,0,0,0,0,0,0,0,0,0,0,0,0,0,0,0,0,0,0,0,0,0,0,0,0,0,
0,0,0,0,0,0,0,0,0,0,0,0,0,0,0,0,0,0,0,0,0,0,0,0,0,0,0,0,0,0,0,0,0,0,0,0,0,0,0,0,0,0,0,0,0,0,0,0,0,0,0,0,0,0,0,0,0,0,0,0,0,0,0,0,0,0,0,0,0,0,0,0,0,0,0,0,0,0,0,0,
0,0,0,0,0,0,0,0,0,0,0,0,0,0,0,0,0,0,0,0,0,0,0,0,0,0,0,0,0,0,0,0,0,0,0,0,0,0,0,0,0,0,0,0,0,0,0,0,0,0,0,0,0,0,0,0,0,0,0,0,0,0,0,0,0,0,0,0,0,0,0,0,0,0,0,0,0,0,0,0,
0,0,0,0,0,0,0,0,0,0,0,0,0,0,0,0,0,0,0,0,0,0,0,0,0,0,0,0,0,0,0,0,0,0,0,0,0,0,0,0,0,0,0,0,0,0,0,0,0,0,0,0,0,0,0,0,0,0,0,0,0,0,0,0,0,0,0,0,0,0,0,0,0,0,0,0,0,0,0,0,
0,0,0,0,0,0,0,0,0,0,0,0,0,0,0,0,0,0,0,0,0,0,0,0,0,0,0,0,0,0,0,0,0,0,0,0,0,0,0,0,0,0,0,0,0,0,0,0,0,0,0,0,0,0,0,0,0,0,0,0,0,0,0,0,0,0,0,0,0,0,0,0,0,0,0,0,0,0,0,0,
0,0,0,0,0,0,0,0,0,0,0,0,0,0,0,0,0,0,0,0,0,0,0,0,0,0,0,0,0,0,0,0,0,0,0,0,0,0,0,0,0,0,0,0,0,0,0,0,0,0,0,0,0,0,0,0,0,0,0,0,0,0,0,0,0,0,0,0,0,0,0,0,0,0,0,0,0,0,0,0,
0,0,0,0,0,0,0,0,0,0,0,0,0,0,0,0,0,0,0,0,0,0,0,0,0,0,0,0,0,0,0,0,0,0,0,0,0,0,0,0,0,0,0,0,0,0,0,0,0,0,0,0,0,0,0,0,0,0,0,0,0,0,0,0,0,0,0,0,0,0,0,0,0,0,0,0,0,0,0,0,
0,0,0,0,0,0,0,0,0,0,0,0,0,0,0,0,0,0,0,0,0,0,0,0,0,0,0,0,0,0,0,0,0,0,0,0,0,0,0,0,0,0,0,0,0,0,0,0,0,0,0,0,0,0,0,0,0,0,0,0,0,0,0,0,0,0,0,0,0,0,0,0,0,0,0,0,0,0,0,0,
0,0,21,22,0,0,0,0,0,0,0,0,0,0,0,0,0,0,0,0,0,0,0,0,0,0,0,0,0,0,0,0,0,0,0,0,0,0,0,0,0,0,0,0,0,0,0,0,0,0,0,0,0,0,0,0,0,0,0,0,0,0,0,0,0,0,0,0,0,0,0,0,0,0,0,0,0,0,0,0,
0,0,46,47,0,0,0,0,0,0,0,0,0,0,0,0,0,0,0,0,0,0,0,0,0,0,0,0,0,0,0,0,0,0,0,0,0,0,0,0,0,0,0,0,0,0,0,0,0,0,0,0,0,0,0,0,0,0,0,0,0,0,0,0,0,0,0,0,0,0,0,0,0,0,0,0,0,0,0,0,
0,0,71,72,0,0,0,0,0,0,0,0,0,0,0,0,0,0,0,0,0,0,0,0,0,0,0,0,0,0,0,0,0,0,0,0,0,0,0,0,0,0,0,0,0,0,0,0,0,0,0,0,0,0,0,0,0,0,0,0,0,0,0,0,0,0,0,0,0,0,0,0,0,0,0,0,0,0,0,0,
0,0,96,97,0,0,0,0,0,0,0,0,0,0,0,0,0,0,0,0,0,0,0,0,0,0,0,0,0,0,0,0,0,0,0,0,0,0,0,0,0,0,0,0,0,0,0,0,0,0,0,0,0,0,0,0,0,0,0,0,0,0,0,0,0,0,0,0,0,0,0,0,0,0,0,0,0,0,0,0,
0,0,0,0,0,42,0,0,0,0,47,0,0,0,0,0,0,0,0,0,0,0,0,0,0,0,0,0,0,0,0,0,0,0,0,0,0,0,0,0,0,0,0,0,0,0,0,0,0,0,0,0,0,0,0,0,0,0,0,0,0,0,0,0,0,0,4,5,6,0,0,0,0,0,0,0,0,0,0,0,
0,0,0,0,0,0,0,0,0,0,0,0,0,0,0,0,0,0,0,0,0,0,0,0,0,0,0,0,0,0,0,0,0,0,0,0,0,0,0,0,0,0,0,0,0,0,0,0,0,0,0,0,0,0,0,0,0,0,0,0,0,0,0,0,0,0,29,30,31,0,0,0,0,0,0,0,0,0,0,0,
0,0,0,0,0,0,0,0,0,0,0,0,0,0,0,0,0,0,0,0,0,0,0,0,0,0,0,0,0,0,0,0,0,0,0,0,0,0,0,0,0,0,0,0,0,0,0,0,0,0,0,0,0,0,0,0,0,0,0,0,0,0,0,0,0,0,0,0,0,0,0,0,0,0,0,0,0,0,0,0
</data>
 </layer>
 <objectgroup id="12" name="AlwaysFront2"/>
</map>
