<?xml version="1.0" encoding="UTF-8"?>
<map version="1.10" tiledversion="1.11.2" orientation="orthogonal" renderorder="right-down" width="70" height="60" tilewidth="16" tileheight="16" infinite="0" nextlayerid="12" nextobjectid="139">
 <tileset firstgid="1" name="spring_outdoorsTileSheet" tilewidth="16" tileheight="16" tilecount="1975" columns="25">
  <image source="spring_outdoorsTileSheet.png" width="400" height="1264"/>
 </tileset>
 <tileset firstgid="1976" name="spring_town" tilewidth="16" tileheight="16" tilecount="2304" columns="32">
  <image source="spring_town.png" width="512" height="1152"/>
 </tileset>
 <tileset firstgid="4280" name="spring_outdoorsTileSheet2" tilewidth="16" tileheight="16" tilecount="1120" columns="16">
  <image source="spring_outdoorsTileSheet2.png" width="256" height="1120"/>
 </tileset>
 <tileset firstgid="5400" name="v16_Shadows" tilewidth="16" tileheight="16" tilecount="475" columns="19">
  <image source="spring_Shadows.png" width="304" height="400"/>
 </tileset>
 <tileset firstgid="5875" name="v16_Waterfalls" tilewidth="16" tileheight="16" tilecount="900" columns="36">
  <image source="spring_Waterfalls.png" width="576" height="400"/>
  <tile id="145">
   <animation>
    <frame tileid="145" duration="100"/>
    <frame tileid="151" duration="100"/>
    <frame tileid="157" duration="100"/>
    <frame tileid="163" duration="100"/>
    <frame tileid="169" duration="100"/>
    <frame tileid="175" duration="100"/>
    <frame tileid="397" duration="100"/>
    <frame tileid="403" duration="100"/>
    <frame tileid="409" duration="100"/>
    <frame tileid="415" duration="100"/>
    <frame tileid="421" duration="100"/>
    <frame tileid="427" duration="100"/>
    <frame tileid="649" duration="100"/>
    <frame tileid="655" duration="100"/>
    <frame tileid="661" duration="100"/>
    <frame tileid="667" duration="100"/>
    <frame tileid="673" duration="100"/>
   </animation>
  </tile>
  <tile id="146">
   <animation>
    <frame tileid="146" duration="100"/>
    <frame tileid="152" duration="100"/>
    <frame tileid="158" duration="100"/>
    <frame tileid="164" duration="100"/>
    <frame tileid="170" duration="100"/>
    <frame tileid="176" duration="100"/>
    <frame tileid="398" duration="100"/>
    <frame tileid="404" duration="100"/>
    <frame tileid="410" duration="100"/>
    <frame tileid="416" duration="100"/>
    <frame tileid="422" duration="100"/>
    <frame tileid="428" duration="100"/>
    <frame tileid="650" duration="100"/>
    <frame tileid="656" duration="100"/>
    <frame tileid="662" duration="100"/>
    <frame tileid="668" duration="100"/>
    <frame tileid="674" duration="100"/>
   </animation>
  </tile>
  <tile id="147">
   <animation>
    <frame tileid="147" duration="100"/>
    <frame tileid="153" duration="100"/>
    <frame tileid="159" duration="100"/>
    <frame tileid="165" duration="100"/>
    <frame tileid="171" duration="100"/>
    <frame tileid="177" duration="100"/>
    <frame tileid="399" duration="100"/>
    <frame tileid="405" duration="100"/>
    <frame tileid="411" duration="100"/>
    <frame tileid="417" duration="100"/>
    <frame tileid="423" duration="100"/>
    <frame tileid="429" duration="100"/>
    <frame tileid="651" duration="100"/>
    <frame tileid="657" duration="100"/>
    <frame tileid="663" duration="100"/>
    <frame tileid="669" duration="100"/>
    <frame tileid="675" duration="100"/>
   </animation>
  </tile>
  <tile id="148">
   <animation>
    <frame tileid="148" duration="100"/>
    <frame tileid="154" duration="100"/>
    <frame tileid="160" duration="100"/>
    <frame tileid="166" duration="100"/>
    <frame tileid="172" duration="100"/>
    <frame tileid="178" duration="100"/>
    <frame tileid="400" duration="100"/>
    <frame tileid="406" duration="100"/>
    <frame tileid="412" duration="100"/>
    <frame tileid="418" duration="100"/>
    <frame tileid="424" duration="100"/>
    <frame tileid="430" duration="100"/>
    <frame tileid="652" duration="100"/>
    <frame tileid="658" duration="100"/>
    <frame tileid="664" duration="100"/>
    <frame tileid="670" duration="100"/>
    <frame tileid="676" duration="100"/>
   </animation>
  </tile>
  <tile id="181">
   <animation>
    <frame tileid="181" duration="100"/>
    <frame tileid="187" duration="100"/>
    <frame tileid="193" duration="100"/>
    <frame tileid="199" duration="100"/>
    <frame tileid="205" duration="100"/>
    <frame tileid="211" duration="100"/>
    <frame tileid="433" duration="100"/>
    <frame tileid="439" duration="100"/>
    <frame tileid="445" duration="100"/>
    <frame tileid="451" duration="100"/>
    <frame tileid="457" duration="100"/>
    <frame tileid="463" duration="100"/>
    <frame tileid="685" duration="100"/>
    <frame tileid="691" duration="100"/>
    <frame tileid="697" duration="100"/>
    <frame tileid="703" duration="100"/>
    <frame tileid="709" duration="100"/>
   </animation>
  </tile>
  <tile id="182">
   <animation>
    <frame tileid="182" duration="100"/>
    <frame tileid="188" duration="100"/>
    <frame tileid="194" duration="100"/>
    <frame tileid="200" duration="100"/>
    <frame tileid="206" duration="100"/>
    <frame tileid="212" duration="100"/>
    <frame tileid="434" duration="100"/>
    <frame tileid="440" duration="100"/>
    <frame tileid="446" duration="100"/>
    <frame tileid="452" duration="100"/>
    <frame tileid="458" duration="100"/>
    <frame tileid="464" duration="100"/>
    <frame tileid="686" duration="100"/>
    <frame tileid="692" duration="100"/>
    <frame tileid="698" duration="100"/>
    <frame tileid="704" duration="100"/>
    <frame tileid="710" duration="100"/>
   </animation>
  </tile>
  <tile id="183">
   <animation>
    <frame tileid="183" duration="100"/>
    <frame tileid="189" duration="100"/>
    <frame tileid="195" duration="100"/>
    <frame tileid="201" duration="100"/>
    <frame tileid="207" duration="100"/>
    <frame tileid="213" duration="100"/>
    <frame tileid="435" duration="100"/>
    <frame tileid="441" duration="100"/>
    <frame tileid="447" duration="100"/>
    <frame tileid="453" duration="100"/>
    <frame tileid="459" duration="100"/>
    <frame tileid="465" duration="100"/>
    <frame tileid="687" duration="100"/>
    <frame tileid="693" duration="100"/>
    <frame tileid="699" duration="100"/>
    <frame tileid="705" duration="100"/>
    <frame tileid="711" duration="100"/>
   </animation>
  </tile>
  <tile id="184">
   <animation>
    <frame tileid="184" duration="100"/>
    <frame tileid="190" duration="100"/>
    <frame tileid="196" duration="100"/>
    <frame tileid="202" duration="100"/>
    <frame tileid="208" duration="100"/>
    <frame tileid="214" duration="100"/>
    <frame tileid="436" duration="100"/>
    <frame tileid="442" duration="100"/>
    <frame tileid="448" duration="100"/>
    <frame tileid="454" duration="100"/>
    <frame tileid="460" duration="100"/>
    <frame tileid="466" duration="100"/>
    <frame tileid="688" duration="100"/>
    <frame tileid="694" duration="100"/>
    <frame tileid="700" duration="100"/>
    <frame tileid="706" duration="100"/>
    <frame tileid="712" duration="100"/>
   </animation>
  </tile>
  <tile id="217">
   <animation>
    <frame tileid="217" duration="100"/>
    <frame tileid="223" duration="100"/>
    <frame tileid="229" duration="100"/>
    <frame tileid="235" duration="100"/>
    <frame tileid="241" duration="100"/>
    <frame tileid="247" duration="100"/>
    <frame tileid="469" duration="100"/>
    <frame tileid="475" duration="100"/>
    <frame tileid="481" duration="100"/>
    <frame tileid="487" duration="100"/>
    <frame tileid="493" duration="100"/>
    <frame tileid="499" duration="100"/>
    <frame tileid="721" duration="100"/>
    <frame tileid="727" duration="100"/>
    <frame tileid="733" duration="100"/>
    <frame tileid="739" duration="100"/>
    <frame tileid="745" duration="100"/>
   </animation>
  </tile>
  <tile id="218">
   <animation>
    <frame tileid="218" duration="100"/>
    <frame tileid="224" duration="100"/>
    <frame tileid="230" duration="100"/>
    <frame tileid="236" duration="100"/>
    <frame tileid="242" duration="100"/>
    <frame tileid="248" duration="100"/>
    <frame tileid="470" duration="100"/>
    <frame tileid="476" duration="100"/>
    <frame tileid="482" duration="100"/>
    <frame tileid="488" duration="100"/>
    <frame tileid="494" duration="100"/>
    <frame tileid="500" duration="100"/>
    <frame tileid="722" duration="100"/>
    <frame tileid="728" duration="100"/>
    <frame tileid="734" duration="100"/>
    <frame tileid="740" duration="100"/>
    <frame tileid="746" duration="100"/>
   </animation>
  </tile>
  <tile id="219">
   <animation>
    <frame tileid="219" duration="100"/>
    <frame tileid="225" duration="100"/>
    <frame tileid="231" duration="100"/>
    <frame tileid="237" duration="100"/>
    <frame tileid="243" duration="100"/>
    <frame tileid="249" duration="100"/>
    <frame tileid="471" duration="100"/>
    <frame tileid="477" duration="100"/>
    <frame tileid="483" duration="100"/>
    <frame tileid="489" duration="100"/>
    <frame tileid="495" duration="100"/>
    <frame tileid="501" duration="100"/>
    <frame tileid="723" duration="100"/>
    <frame tileid="729" duration="100"/>
    <frame tileid="735" duration="100"/>
    <frame tileid="741" duration="100"/>
    <frame tileid="747" duration="100"/>
   </animation>
  </tile>
  <tile id="220">
   <animation>
    <frame tileid="220" duration="100"/>
    <frame tileid="226" duration="100"/>
    <frame tileid="232" duration="100"/>
    <frame tileid="238" duration="100"/>
    <frame tileid="244" duration="100"/>
    <frame tileid="250" duration="100"/>
    <frame tileid="472" duration="100"/>
    <frame tileid="478" duration="100"/>
    <frame tileid="484" duration="100"/>
    <frame tileid="490" duration="100"/>
    <frame tileid="496" duration="100"/>
    <frame tileid="502" duration="100"/>
    <frame tileid="724" duration="100"/>
    <frame tileid="730" duration="100"/>
    <frame tileid="736" duration="100"/>
    <frame tileid="742" duration="100"/>
    <frame tileid="748" duration="100"/>
   </animation>
  </tile>
  <tile id="253">
   <animation>
    <frame tileid="253" duration="100"/>
    <frame tileid="259" duration="100"/>
    <frame tileid="265" duration="100"/>
    <frame tileid="271" duration="100"/>
    <frame tileid="277" duration="100"/>
    <frame tileid="283" duration="100"/>
    <frame tileid="505" duration="100"/>
    <frame tileid="511" duration="100"/>
    <frame tileid="517" duration="100"/>
    <frame tileid="523" duration="100"/>
    <frame tileid="529" duration="100"/>
    <frame tileid="535" duration="100"/>
    <frame tileid="757" duration="100"/>
    <frame tileid="763" duration="100"/>
    <frame tileid="769" duration="100"/>
    <frame tileid="775" duration="100"/>
    <frame tileid="781" duration="100"/>
   </animation>
  </tile>
  <tile id="254">
   <animation>
    <frame tileid="254" duration="100"/>
    <frame tileid="260" duration="100"/>
    <frame tileid="266" duration="100"/>
    <frame tileid="272" duration="100"/>
    <frame tileid="278" duration="100"/>
    <frame tileid="284" duration="100"/>
    <frame tileid="506" duration="100"/>
    <frame tileid="512" duration="100"/>
    <frame tileid="518" duration="100"/>
    <frame tileid="524" duration="100"/>
    <frame tileid="530" duration="100"/>
    <frame tileid="536" duration="100"/>
    <frame tileid="758" duration="100"/>
    <frame tileid="764" duration="100"/>
    <frame tileid="770" duration="100"/>
    <frame tileid="776" duration="100"/>
    <frame tileid="782" duration="100"/>
   </animation>
  </tile>
  <tile id="255">
   <animation>
    <frame tileid="255" duration="100"/>
    <frame tileid="261" duration="100"/>
    <frame tileid="267" duration="100"/>
    <frame tileid="273" duration="100"/>
    <frame tileid="279" duration="100"/>
    <frame tileid="285" duration="100"/>
    <frame tileid="507" duration="100"/>
    <frame tileid="513" duration="100"/>
    <frame tileid="519" duration="100"/>
    <frame tileid="525" duration="100"/>
    <frame tileid="531" duration="100"/>
    <frame tileid="537" duration="100"/>
    <frame tileid="759" duration="100"/>
    <frame tileid="765" duration="100"/>
    <frame tileid="771" duration="100"/>
    <frame tileid="777" duration="100"/>
    <frame tileid="783" duration="100"/>
   </animation>
  </tile>
  <tile id="256">
   <animation>
    <frame tileid="256" duration="100"/>
    <frame tileid="262" duration="100"/>
    <frame tileid="268" duration="100"/>
    <frame tileid="274" duration="100"/>
    <frame tileid="280" duration="100"/>
    <frame tileid="286" duration="100"/>
    <frame tileid="508" duration="100"/>
    <frame tileid="514" duration="100"/>
    <frame tileid="520" duration="100"/>
    <frame tileid="526" duration="100"/>
    <frame tileid="532" duration="100"/>
    <frame tileid="538" duration="100"/>
    <frame tileid="760" duration="100"/>
    <frame tileid="766" duration="100"/>
    <frame tileid="772" duration="100"/>
    <frame tileid="778" duration="100"/>
    <frame tileid="784" duration="100"/>
   </animation>
  </tile>
  <tile id="288">
   <animation>
    <frame tileid="288" duration="100"/>
    <frame tileid="294" duration="100"/>
    <frame tileid="300" duration="100"/>
    <frame tileid="306" duration="100"/>
    <frame tileid="312" duration="100"/>
    <frame tileid="318" duration="100"/>
    <frame tileid="540" duration="100"/>
    <frame tileid="546" duration="100"/>
    <frame tileid="552" duration="100"/>
    <frame tileid="558" duration="100"/>
    <frame tileid="564" duration="100"/>
    <frame tileid="570" duration="100"/>
    <frame tileid="792" duration="100"/>
    <frame tileid="798" duration="100"/>
    <frame tileid="804" duration="100"/>
    <frame tileid="810" duration="100"/>
    <frame tileid="816" duration="100"/>
   </animation>
  </tile>
  <tile id="289">
   <animation>
    <frame tileid="289" duration="100"/>
    <frame tileid="295" duration="100"/>
    <frame tileid="301" duration="100"/>
    <frame tileid="307" duration="100"/>
    <frame tileid="313" duration="100"/>
    <frame tileid="319" duration="100"/>
    <frame tileid="541" duration="100"/>
    <frame tileid="547" duration="100"/>
    <frame tileid="553" duration="100"/>
    <frame tileid="559" duration="100"/>
    <frame tileid="565" duration="100"/>
    <frame tileid="571" duration="100"/>
    <frame tileid="793" duration="100"/>
    <frame tileid="799" duration="100"/>
    <frame tileid="805" duration="100"/>
    <frame tileid="811" duration="100"/>
    <frame tileid="817" duration="100"/>
   </animation>
  </tile>
  <tile id="290">
   <animation>
    <frame tileid="290" duration="100"/>
    <frame tileid="296" duration="100"/>
    <frame tileid="302" duration="100"/>
    <frame tileid="308" duration="100"/>
    <frame tileid="314" duration="100"/>
    <frame tileid="320" duration="100"/>
    <frame tileid="542" duration="100"/>
    <frame tileid="548" duration="100"/>
    <frame tileid="554" duration="100"/>
    <frame tileid="560" duration="100"/>
    <frame tileid="566" duration="100"/>
    <frame tileid="572" duration="100"/>
    <frame tileid="794" duration="100"/>
    <frame tileid="800" duration="100"/>
    <frame tileid="806" duration="100"/>
    <frame tileid="812" duration="100"/>
    <frame tileid="818" duration="100"/>
   </animation>
  </tile>
  <tile id="291">
   <animation>
    <frame tileid="291" duration="100"/>
    <frame tileid="297" duration="100"/>
    <frame tileid="303" duration="100"/>
    <frame tileid="309" duration="100"/>
    <frame tileid="315" duration="100"/>
    <frame tileid="321" duration="100"/>
    <frame tileid="543" duration="100"/>
    <frame tileid="549" duration="100"/>
    <frame tileid="555" duration="100"/>
    <frame tileid="561" duration="100"/>
    <frame tileid="567" duration="100"/>
    <frame tileid="573" duration="100"/>
    <frame tileid="795" duration="100"/>
    <frame tileid="801" duration="100"/>
    <frame tileid="807" duration="100"/>
    <frame tileid="813" duration="100"/>
    <frame tileid="819" duration="100"/>
   </animation>
  </tile>
  <tile id="292">
   <animation>
    <frame tileid="292" duration="100"/>
    <frame tileid="298" duration="100"/>
    <frame tileid="304" duration="100"/>
    <frame tileid="310" duration="100"/>
    <frame tileid="316" duration="100"/>
    <frame tileid="322" duration="100"/>
    <frame tileid="544" duration="100"/>
    <frame tileid="550" duration="100"/>
    <frame tileid="556" duration="100"/>
    <frame tileid="562" duration="100"/>
    <frame tileid="568" duration="100"/>
    <frame tileid="574" duration="100"/>
    <frame tileid="796" duration="100"/>
    <frame tileid="802" duration="100"/>
    <frame tileid="808" duration="100"/>
    <frame tileid="814" duration="100"/>
    <frame tileid="820" duration="100"/>
   </animation>
  </tile>
  <tile id="293">
   <animation>
    <frame tileid="293" duration="100"/>
    <frame tileid="299" duration="100"/>
    <frame tileid="305" duration="100"/>
    <frame tileid="311" duration="100"/>
    <frame tileid="317" duration="100"/>
    <frame tileid="323" duration="100"/>
    <frame tileid="545" duration="100"/>
    <frame tileid="551" duration="100"/>
    <frame tileid="557" duration="100"/>
    <frame tileid="563" duration="100"/>
    <frame tileid="569" duration="100"/>
    <frame tileid="575" duration="100"/>
    <frame tileid="797" duration="100"/>
    <frame tileid="803" duration="100"/>
    <frame tileid="809" duration="100"/>
    <frame tileid="815" duration="100"/>
    <frame tileid="821" duration="100"/>
   </animation>
  </tile>
  <tile id="324">
   <animation>
    <frame tileid="324" duration="100"/>
    <frame tileid="330" duration="100"/>
    <frame tileid="336" duration="100"/>
    <frame tileid="342" duration="100"/>
    <frame tileid="348" duration="100"/>
    <frame tileid="354" duration="100"/>
    <frame tileid="576" duration="100"/>
    <frame tileid="582" duration="100"/>
    <frame tileid="588" duration="100"/>
    <frame tileid="594" duration="100"/>
    <frame tileid="600" duration="100"/>
    <frame tileid="606" duration="100"/>
    <frame tileid="828" duration="100"/>
    <frame tileid="834" duration="100"/>
    <frame tileid="840" duration="100"/>
    <frame tileid="846" duration="100"/>
    <frame tileid="852" duration="100"/>
   </animation>
  </tile>
  <tile id="325">
   <animation>
    <frame tileid="325" duration="100"/>
    <frame tileid="331" duration="100"/>
    <frame tileid="337" duration="100"/>
    <frame tileid="343" duration="100"/>
    <frame tileid="349" duration="100"/>
    <frame tileid="355" duration="100"/>
    <frame tileid="577" duration="100"/>
    <frame tileid="583" duration="100"/>
    <frame tileid="589" duration="100"/>
    <frame tileid="595" duration="100"/>
    <frame tileid="601" duration="100"/>
    <frame tileid="607" duration="100"/>
    <frame tileid="829" duration="100"/>
    <frame tileid="835" duration="100"/>
    <frame tileid="841" duration="100"/>
    <frame tileid="847" duration="100"/>
    <frame tileid="853" duration="100"/>
   </animation>
  </tile>
  <tile id="326">
   <animation>
    <frame tileid="326" duration="100"/>
    <frame tileid="332" duration="100"/>
    <frame tileid="338" duration="100"/>
    <frame tileid="344" duration="100"/>
    <frame tileid="350" duration="100"/>
    <frame tileid="356" duration="100"/>
    <frame tileid="578" duration="100"/>
    <frame tileid="584" duration="100"/>
    <frame tileid="590" duration="100"/>
    <frame tileid="596" duration="100"/>
    <frame tileid="602" duration="100"/>
    <frame tileid="608" duration="100"/>
    <frame tileid="830" duration="100"/>
    <frame tileid="836" duration="100"/>
    <frame tileid="842" duration="100"/>
    <frame tileid="848" duration="100"/>
    <frame tileid="854" duration="100"/>
   </animation>
  </tile>
  <tile id="327">
   <animation>
    <frame tileid="327" duration="100"/>
    <frame tileid="333" duration="100"/>
    <frame tileid="339" duration="100"/>
    <frame tileid="345" duration="100"/>
    <frame tileid="351" duration="100"/>
    <frame tileid="357" duration="100"/>
    <frame tileid="579" duration="100"/>
    <frame tileid="585" duration="100"/>
    <frame tileid="591" duration="100"/>
    <frame tileid="597" duration="100"/>
    <frame tileid="603" duration="100"/>
    <frame tileid="609" duration="100"/>
    <frame tileid="831" duration="100"/>
    <frame tileid="837" duration="100"/>
    <frame tileid="843" duration="100"/>
    <frame tileid="849" duration="100"/>
    <frame tileid="855" duration="100"/>
   </animation>
  </tile>
  <tile id="328">
   <animation>
    <frame tileid="328" duration="100"/>
    <frame tileid="334" duration="100"/>
    <frame tileid="340" duration="100"/>
    <frame tileid="346" duration="100"/>
    <frame tileid="352" duration="100"/>
    <frame tileid="358" duration="100"/>
    <frame tileid="580" duration="100"/>
    <frame tileid="586" duration="100"/>
    <frame tileid="592" duration="100"/>
    <frame tileid="598" duration="100"/>
    <frame tileid="604" duration="100"/>
    <frame tileid="610" duration="100"/>
    <frame tileid="832" duration="100"/>
    <frame tileid="838" duration="100"/>
    <frame tileid="844" duration="100"/>
    <frame tileid="850" duration="100"/>
    <frame tileid="856" duration="100"/>
   </animation>
  </tile>
  <tile id="329">
   <animation>
    <frame tileid="329" duration="100"/>
    <frame tileid="335" duration="100"/>
    <frame tileid="341" duration="100"/>
    <frame tileid="347" duration="100"/>
    <frame tileid="353" duration="100"/>
    <frame tileid="359" duration="100"/>
    <frame tileid="581" duration="100"/>
    <frame tileid="587" duration="100"/>
    <frame tileid="593" duration="100"/>
    <frame tileid="599" duration="100"/>
    <frame tileid="605" duration="100"/>
    <frame tileid="611" duration="100"/>
    <frame tileid="833" duration="100"/>
    <frame tileid="839" duration="100"/>
    <frame tileid="845" duration="100"/>
    <frame tileid="851" duration="100"/>
    <frame tileid="857" duration="100"/>
   </animation>
  </tile>
  <tile id="360">
   <animation>
    <frame tileid="360" duration="100"/>
    <frame tileid="366" duration="100"/>
    <frame tileid="372" duration="100"/>
    <frame tileid="378" duration="100"/>
    <frame tileid="384" duration="100"/>
    <frame tileid="390" duration="100"/>
    <frame tileid="612" duration="100"/>
    <frame tileid="618" duration="100"/>
    <frame tileid="624" duration="100"/>
    <frame tileid="630" duration="100"/>
    <frame tileid="636" duration="100"/>
    <frame tileid="642" duration="100"/>
    <frame tileid="864" duration="100"/>
    <frame tileid="870" duration="100"/>
    <frame tileid="876" duration="100"/>
    <frame tileid="882" duration="100"/>
    <frame tileid="888" duration="100"/>
   </animation>
  </tile>
  <tile id="361">
   <animation>
    <frame tileid="361" duration="100"/>
    <frame tileid="367" duration="100"/>
    <frame tileid="373" duration="100"/>
    <frame tileid="379" duration="100"/>
    <frame tileid="385" duration="100"/>
    <frame tileid="391" duration="100"/>
    <frame tileid="613" duration="100"/>
    <frame tileid="619" duration="100"/>
    <frame tileid="625" duration="100"/>
    <frame tileid="631" duration="100"/>
    <frame tileid="637" duration="100"/>
    <frame tileid="643" duration="100"/>
    <frame tileid="865" duration="100"/>
    <frame tileid="871" duration="100"/>
    <frame tileid="877" duration="100"/>
    <frame tileid="883" duration="100"/>
    <frame tileid="889" duration="100"/>
   </animation>
  </tile>
  <tile id="362">
   <animation>
    <frame tileid="362" duration="100"/>
    <frame tileid="368" duration="100"/>
    <frame tileid="374" duration="100"/>
    <frame tileid="380" duration="100"/>
    <frame tileid="386" duration="100"/>
    <frame tileid="392" duration="100"/>
    <frame tileid="614" duration="100"/>
    <frame tileid="620" duration="100"/>
    <frame tileid="626" duration="100"/>
    <frame tileid="632" duration="100"/>
    <frame tileid="638" duration="100"/>
    <frame tileid="644" duration="100"/>
    <frame tileid="866" duration="100"/>
    <frame tileid="872" duration="100"/>
    <frame tileid="878" duration="100"/>
    <frame tileid="884" duration="100"/>
    <frame tileid="890" duration="100"/>
   </animation>
  </tile>
  <tile id="363">
   <animation>
    <frame tileid="363" duration="100"/>
    <frame tileid="369" duration="100"/>
    <frame tileid="375" duration="100"/>
    <frame tileid="381" duration="100"/>
    <frame tileid="387" duration="100"/>
    <frame tileid="393" duration="100"/>
    <frame tileid="615" duration="100"/>
    <frame tileid="621" duration="100"/>
    <frame tileid="627" duration="100"/>
    <frame tileid="633" duration="100"/>
    <frame tileid="639" duration="100"/>
    <frame tileid="645" duration="100"/>
    <frame tileid="867" duration="100"/>
    <frame tileid="873" duration="100"/>
    <frame tileid="879" duration="100"/>
    <frame tileid="885" duration="100"/>
    <frame tileid="891" duration="100"/>
   </animation>
  </tile>
  <tile id="364">
   <animation>
    <frame tileid="364" duration="100"/>
    <frame tileid="370" duration="100"/>
    <frame tileid="376" duration="100"/>
    <frame tileid="382" duration="100"/>
    <frame tileid="388" duration="100"/>
    <frame tileid="394" duration="100"/>
    <frame tileid="616" duration="100"/>
    <frame tileid="622" duration="100"/>
    <frame tileid="628" duration="100"/>
    <frame tileid="634" duration="100"/>
    <frame tileid="640" duration="100"/>
    <frame tileid="646" duration="100"/>
    <frame tileid="868" duration="100"/>
    <frame tileid="874" duration="100"/>
    <frame tileid="880" duration="100"/>
    <frame tileid="886" duration="100"/>
    <frame tileid="892" duration="100"/>
   </animation>
  </tile>
  <tile id="365">
   <animation>
    <frame tileid="365" duration="100"/>
    <frame tileid="371" duration="100"/>
    <frame tileid="377" duration="100"/>
    <frame tileid="383" duration="100"/>
    <frame tileid="389" duration="100"/>
    <frame tileid="395" duration="100"/>
    <frame tileid="617" duration="100"/>
    <frame tileid="623" duration="100"/>
    <frame tileid="629" duration="100"/>
    <frame tileid="635" duration="100"/>
    <frame tileid="641" duration="100"/>
    <frame tileid="647" duration="100"/>
    <frame tileid="869" duration="100"/>
    <frame tileid="875" duration="100"/>
    <frame tileid="881" duration="100"/>
    <frame tileid="887" duration="100"/>
    <frame tileid="893" duration="100"/>
   </animation>
  </tile>
 </tileset>
 <tileset firstgid="6775" name="spring_Shadows" tilewidth="16" tileheight="16" tilecount="475" columns="19">
  <image source="spring_Shadows.png" width="304" height="400"/>
 </tileset>
 <layer id="1" name="Back" width="70" height="60">
  <data encoding="csv">
381,381,381,381,381,381,381,358,407,352,354,378,176,151,176,176,151,326,327,2713,2712,2713,2712,326,379,327,327,327,327,327,327,327,327,327,327,327,327,327,327,327,327,327,327,327,327,352,353,2975,2974,2975,2618,351,352,352,306,352,354,377,377,377,404,352,379,329,352,353,538,587,1232,1323,
406,406,406,406,406,406,406,407,305,354,378,152,326,328,176,176,176,382,353,2616,2744,2745,2618,351,352,355,356,356,356,356,356,356,356,356,356,356,356,356,356,356,356,356,356,356,356,382,353,2616,2617,2744,2618,376,404,352,354,377,378,176,176,176,351,352,352,352,352,353,538,587,5147,1232,
377,277,278,278,279,377,277,279,377,378,176,176,376,378,176,381,381,382,282,2651,2746,2712,2618,376,404,405,406,406,406,406,406,406,406,406,406,406,406,406,406,406,406,406,406,406,406,407,353,2616,2713,2622,2618,176,376,377,378,176,176,176,176,176,376,377,377,377,377,378,538,537,5163,1272,
176,176,176,176,176,201,202,180,181,181,206,202,381,381,381,381,381,382,307,2651,2744,2745,2619,176,376,377,377,404,352,305,352,352,301,306,352,357,357,377,377,377,377,377,377,377,377,377,378,2616,2712,2713,2618,201,202,202,202,204,176,176,176,176,176,176,201,180,181,206,538,619,1272,1250,
176,176,176,176,176,226,207,228,228,228,228,381,381,381,381,381,358,407,332,2616,2712,2617,2618,201,202,202,204,351,306,352,352,352,352,352,352,352,352,176,176,176,176,176,176,176,176,176,176,2616,2744,2745,2618,226,228,228,330,1120,1120,1120,1120,1120,381,202,203,228,228,228,251,253,561,1230,
176,176,176,176,176,226,228,228,228,228,381,406,406,406,406,406,407,354,378,2651,2744,2745,2619,226,228,228,229,351,301,352,352,352,352,352,352,352,352,176,176,176,176,176,176,176,176,176,176,2616,2712,2713,2618,226,228,228,330,406,406,406,406,406,406,228,176,228,228,176,176,226,228,514,
257,278,257,278,257,278,257,278,257,278,377,377,277,278,279,377,377,378,401,2616,2712,2746,2618,251,230,205,254,376,377,404,352,352,306,352,352,352,381,176,176,176,176,176,176,176,176,176,176,2616,2744,2745,2618,176,377,377,377,377,277,278,278,279,377,377,377,377,378,201,202,203,228,177,
2587,2587,2587,2585,2587,2587,2587,2585,2587,2587,2587,2587,2587,2587,2585,2587,2587,2587,2585,2681,2744,2745,2680,2587,2587,2587,2585,2587,2586,351,305,352,301,352,352,352,381,176,176,176,176,176,176,176,176,176,176,2616,2744,2745,5023,180,181,206,202,202,180,181,181,206,202,202,202,180,206,203,514,228,561,600,
2617,2713,2712,2712,2617,2712,2713,2712,2622,2713,2712,2617,2713,2712,2712,2617,2712,2713,2712,2712,2617,2712,2713,2712,2972,2617,2712,2746,2618,351,352,352,306,352,352,176,176,176,176,176,176,176,176,176,176,176,176,2616,2713,2712,5055,252,252,252,230,205,252,252,252,252,230,231,205,252,252,252,253,464,228,586,
2712,2712,2744,2746,2712,2712,2744,2745,2712,2712,2617,2712,2712,2744,2746,2712,2712,2744,2745,2744,2745,2622,2713,2744,2745,2744,2745,2617,2619,376,377,377,404,352,378,176,176,176,176,176,176,176,176,176,176,176,176,2616,2622,2617,2618,176,176,176,176,176,176,176,327,302,303,304,327,327,327,328,251,253,228,228,
2649,2649,2649,2683,2649,2649,2649,2649,2649,2649,2649,2649,2649,2649,2683,2649,2649,5085,5087,2683,2649,2683,2683,2649,2682,2744,2745,2617,2680,2587,2585,2587,2620,2588,2588,2588,2652,2588,176,176,176,176,176,176,176,176,176,2616,2617,2713,2618,257,257,257,257,257,257,176,352,356,356,356,356,356,357,379,328,251,253,228,
327,329,358,406,406,407,354,377,277,278,279,377,377,378,326,329,201,203,229,176,176,152,176,151,2616,2712,2712,2713,2712,2713,2617,2713,2712,2617,2712,2713,2712,2712,2971,2972,2971,2972,2971,2969,2970,2972,2971,2972,2744,2745,2619,262,305,352,352,352,352,176,352,352,381,381,381,381,383,357,379,328,5021,228,
377,381,382,352,305,352,379,201,180,206,204,257,257,257,351,352,251,252,254,176,176,276,176,255,2651,2617,2744,2745,2744,2745,2744,2745,2744,2745,2744,2745,2744,2745,2744,2745,2744,2745,2744,2745,2744,2745,2617,2714,2649,2683,2650,312,352,352,306,352,176,176,176,176,352,381,381,381,381,382,354,378,5053,586,
152,381,382,301,352,352,354,226,207,228,178,180,206,204,262,353,176,176,151,176,276,176,276,176,2616,2712,2712,2713,2712,2622,2617,2713,2712,2713,2712,2713,2712,2712,2746,2617,2712,2712,2712,2617,2713,2712,2712,2619,326,327,327,329,352,306,352,352,176,176,176,176,352,381,381,381,381,382,353,201,203,228,
151,381,382,305,352,352,353,251,253,228,232,228,228,5020,287,379,327,328,2766,2766,353,176,151,2584,2681,2712,2744,2745,2744,2745,2744,2745,2744,2745,2744,2745,2712,2713,2712,2712,2713,2712,2712,2744,2745,2746,2713,2619,376,404,305,301,330,352,352,353,176,176,176,176,352,352,381,381,352,382,353,226,207,228,
328,381,382,306,305,352,353,352,251,253,228,228,228,5036,312,352,306,2797,2798,2800,353,2584,2585,2681,2979,2712,2712,2744,2745,2617,2712,2713,2746,2744,2745,2713,2744,2745,2712,2744,2745,2712,2712,2617,2712,2744,2745,2618,402,376,277,279,404,305,352,353,176,176,176,176,176,352,381,381,381,382,353,251,253,228,
353,381,382,305,355,356,357,352,328,251,252,252,253,5052,351,352,352,353,176,280,353,2616,2712,2712,2971,2713,2617,2713,2744,2745,2744,2745,2744,2745,2744,2745,2744,2745,2714,2649,2683,2683,2683,2683,5085,5086,5087,2650,176,176,152,402,376,404,352,353,176,176,176,176,176,352,381,381,381,382,353,402,226,464,
353,381,382,305,380,381,382,352,379,327,327,328,5021,229,262,352,352,352,352,354,378,2651,2712,2617,2744,2745,2712,2713,2712,2713,2712,2713,2712,2712,2712,2713,2712,2713,2618,326,302,303,304,329,226,590,178,204,151,176,176,176,176,376,377,378,226,228,229,176,176,352,406,406,407,407,353,176,251,252,
353,381,382,352,405,406,407,407,305,352,354,378,5053,229,287,354,377,377,377,378,176,2651,2744,2745,2712,2712,2744,2745,2744,2745,2744,2745,2712,2617,2744,2745,2744,2745,2619,351,352,352,352,352,251,252,253,178,202,202,180,181,206,202,180,206,203,600,229,376,277,278,279,277,278,279,378,153,176,176,
353,381,382,352,352,301,352,354,277,279,378,257,226,5020,312,353,176,176,255,176,151,2651,2712,2713,2746,2712,2834,2835,2836,2837,2838,2839,2712,2712,2712,2617,2712,2713,2619,351,352,352,352,352,176,176,251,253,514,179,252,252,252,252,252,252,253,179,254,176,276,176,176,402,176,176,276,176,326,327,
353,381,381,381,381,354,377,378,153,402,176,176,226,5052,351,353,176,176,176,176,2584,2681,2744,2745,2712,2617,2866,2867,2868,2869,2870,2871,2712,2712,2712,2622,2744,2745,2619,351,352,352,352,352,176,176,176,251,253,5020,176,353,176,326,327,328,226,229,151,176,176,152,176,276,176,176,176,326,329,352,
378,376,381,381,381,378,176,176,201,180,181,206,203,229,376,378,176,176,176,402,2616,2651,2712,2713,2712,2713,2898,2899,2900,2901,2902,2903,2712,2713,2712,2713,2617,2713,2680,2586,404,352,352,352,151,151,352,152,226,5036,176,353,351,329,352,353,226,178,180,181,206,202,202,202,202,204,151,351,352,352,
327,327,328,152,176,176,176,176,226,232,227,208,227,178,204,151,176,176,176,176,2648,2682,2744,2745,2744,2745,2930,2931,2932,2933,2934,2935,2744,2745,2744,2745,2744,2745,2619,2618,351,353,176,176,176,176,352,176,226,5052,176,353,351,352,352,353,226,228,228,227,228,228,228,228,228,229,176,376,404,352,
305,306,353,402,176,176,201,202,203,179,252,253,489,586,229,326,327,327,327,327,328,2651,2617,2713,2712,2713,2962,2963,2964,2965,2966,2967,2712,2617,2712,2713,2712,2713,2714,2650,257,353,176,176,176,176,352,176,5021,229,402,353,376,404,352,353,251,253,228,228,228,208,228,228,227,178,204,402,376,377,
352,305,379,328,176,176,226,227,179,254,402,251,252,252,254,351,355,356,356,357,353,2651,2744,2745,2744,2745,2994,2995,2996,2997,2998,2999,2744,2745,2744,2745,2744,2745,2618,257,257,176,176,176,176,176,352,176,5037,229,176,353,176,376,377,353,201,203,228,489,228,228,228,228,228,228,178,204,201,202,
383,352,352,353,176,176,226,561,229,326,302,303,304,327,328,351,380,381,381,382,282,2651,2712,2622,2712,2713,2712,2713,2712,2713,2712,2617,2744,2745,2712,2713,2712,2617,2618,257,257,176,176,176,176,2604,176,402,5053,229,176,276,176,176,176,176,226,208,228,228,228,228,228,228,228,208,228,178,203,228,
382,352,305,353,176,176,251,252,254,351,306,305,354,377,378,351,405,406,406,407,307,2651,2744,2745,2744,2745,2744,2745,2744,2745,2744,2745,2744,2745,2744,2745,2744,2745,5023,202,202,180,181,206,203,599,178,202,203,178,180,206,202,204,176,176,251,253,228,228,228,228,228,489,514,228,228,228,228,232,
382,352,306,353,176,176,176,176,402,376,277,279,378,402,151,376,277,279,404,330,332,2651,2744,2745,2712,2617,2712,2713,2712,2713,2712,2744,2745,2713,2712,2746,2712,2713,5039,599,624,600,599,600,600,624,600,599,590,565,611,228,207,229,176,402,201,203,489,228,228,228,232,228,228,228,228,228,228,228,
382,352,354,378,176,151,176,151,176,153,151,176,255,176,326,327,328,402,376,377,378,2651,2744,2745,2744,2745,2744,2745,2744,2745,2744,2745,2744,2745,2744,2745,2744,2745,5055,230,231,205,252,230,231,205,253,600,624,561,228,489,179,254,151,176,226,207,228,228,228,228,228,228,228,228,228,228,228,228,
382,352,353,326,328,151,176,276,176,402,176,276,176,151,351,305,353,176,176,176,151,2648,2649,2683,2649,2683,2682,2682,2712,2713,2714,2714,2649,2683,2649,2683,2683,2649,2650,255,326,327,327,327,327,328,251,230,205,253,228,179,254,176,152,326,327,230,231,252,230,231,252,252,252,252,252,253,228,228,
383,306,353,176,327,327,327,176,176,176,176,176,176,176,376,377,378,176,151,201,202,180,181,181,206,204,2648,2682,2744,2745,2714,2650,151,176,176,176,151,402,176,326,329,352,301,352,330,379,327,328,176,251,253,229,176,176,176,351,352,352,352,352,352,352,352,353,176,151,176,226,228,228,
352,305,379,327,352,352,352,377,330,330,330,330,330,330,330,330,257,176,152,226,232,228,489,228,228,178,204,2651,2712,2713,2619,402,326,327,327,327,328,176,151,351,306,352,352,352,352,352,305,379,328,176,226,178,204,401,176,351,352,352,352,352,352,352,152,379,328,176,152,226,228,586,
352,352,354,382,352,377,377,377,377,377,377,377,377,377,377,378,402,176,201,203,228,228,228,228,228,182,229,2651,2712,2617,2619,176,351,405,352,352,353,176,176,376,404,354,2584,2620,2621,2586,352,352,353,151,251,253,229,176,176,351,352,352,352,352,352,352,352,352,353,402,176,226,207,228,
352,354,378,382,353,201,202,202,202,202,202,202,202,202,202,202,204,176,226,208,179,230,231,205,252,252,254,2651,2744,2745,2619,151,376,277,278,279,378,151,402,257,376,378,2616,2712,2746,2618,377,377,378,276,176,226,178,204,402,351,352,352,352,352,352,352,352,352,379,328,151,251,253,227,
306,353,402,382,352,5021,597,598,598,598,598,574,574,574,574,575,5020,176,251,252,254,176,151,176,176,176,176,2651,2712,2713,2680,2587,2587,2585,2587,2587,2587,2587,2585,2587,2587,2587,2681,2744,2745,2680,2587,2587,2585,2587,2587,5069,5070,5071,2586,262,352,176,176,176,176,176,176,176,351,353,176,176,251,253,
305,353,176,351,352,5037,623,538,227,227,227,227,227,227,227,622,5036,326,328,176,176,255,176,176,176,176,176,2651,2744,2745,2712,2713,2617,2617,2712,2713,2712,2713,2622,2713,2617,2971,2972,2744,2745,2617,2712,2712,2713,2713,2746,2713,2712,2622,2618,287,352,176,176,176,176,176,176,176,351,353,176,176,176,226,
352,353,152,351,352,5053,622,538,227,227,227,227,227,227,227,622,5052,351,353,176,176,176,176,176,176,176,176,2651,2712,2617,2744,2745,2744,2745,2744,2745,2744,2745,2744,2745,2744,2745,2617,2712,2744,2745,2744,2745,2617,2712,2744,2745,2744,2745,2618,312,352,176,176,176,176,176,176,176,351,353,176,176,201,203,
377,378,401,351,352,226,622,538,227,227,227,227,227,227,227,623,229,351,379,327,327,327,327,327,327,327,176,2651,2744,2745,2714,2649,2683,2683,2683,2683,2683,2649,2683,2683,2683,2683,2683,2683,2683,2683,2683,2683,2683,2683,2683,2683,2683,5085,5084,204,352,176,176,176,176,176,176,176,351,353,176,176,251,253,
176,401,176,381,381,226,623,538,227,227,227,227,227,227,227,622,5020,351,355,381,176,176,176,176,176,176,176,2651,2746,2713,2619,326,327,327,302,303,304,327,327,328,257,377,377,377,377,377,377,377,377,377,377,377,377,251,253,229,352,176,176,176,176,176,176,176,351,379,327,328,176,226,
176,176,176,381,381,226,622,229,176,176,176,176,176,176,226,623,5036,351,380,381,352,176,176,176,176,176,176,2651,2744,2745,2619,351,352,352,352,352,305,352,352,353,176,201,202,202,204,201,202,202,204,151,257,257,257,257,226,229,376,2907,2907,2907,2907,2798,2708,2798,2798,352,352,353,176,226,
176,176,326,381,381,226,623,178,202,180,661,202,202,202,203,622,5052,351,405,406,352,352,352,352,352,352,176,2651,2712,2617,2619,351,355,356,356,357,352,306,352,353,176,226,228,208,229,226,228,228,178,204,201,202,204,257,5021,229,176,2885,2939,2940,2885,2739,2798,2798,2742,354,377,378,151,251,
327,327,329,406,406,352,625,574,598,574,598,574,574,574,574,621,254,376,377,404,352,352,176,352,352,352,176,2651,2744,2745,2619,262,380,381,381,382,330,305,352,353,256,226,232,228,229,251,253,207,179,254,251,252,254,257,5037,178,202,203,599,600,204,327,327,327,329,353,402,176,176,176,
352,352,352,352,354,377,230,231,205,253,208,179,230,231,205,254,2584,2585,2586,376,378,176,176,176,176,176,2584,2681,2712,2617,2619,287,380,381,381,382,352,352,301,353,176,251,252,252,254,257,226,228,229,402,176,176,176,257,5053,590,599,600,565,611,229,376,277,278,279,378,176,176,201,202,
278,279,377,377,378,176,176,2584,2587,5069,5070,5071,2587,2587,2585,2587,2681,2587,2680,2587,2652,2588,2588,2587,2587,2587,2681,2681,2744,2745,2619,312,405,406,406,407,305,330,352,353,176,176,255,257,176,402,251,253,178,204,176,176,176,257,5021,179,230,231,205,252,254,176,276,276,176,176,151,201,203,514,
180,181,206,202,202,180,206,5022,2712,2746,2712,2712,2617,2622,2712,2713,2712,2971,2712,2713,2712,2713,2712,2971,2971,2972,2617,2971,2712,2713,2619,376,377,277,278,278,279,377,377,378,257,257,176,201,202,204,201,203,464,229,176,176,176,257,5053,229,152,176,276,176,326,327,302,303,304,327,327,226,183,514,
253,232,179,230,205,252,252,5054,2744,2745,2744,2745,2744,2745,2744,2745,2617,2712,2744,2745,2744,2745,2744,2745,2744,2745,2744,2745,2744,2745,5023,202,180,181,181,206,180,181,181,181,206,204,176,251,252,254,5021,182,228,178,204,176,176,257,226,5020,176,176,176,176,351,352,352,352,352,352,352,226,182,228,
251,252,254,152,176,176,176,2648,2649,2649,2683,2683,2683,2649,2683,2683,2649,2683,2683,2683,2683,2649,2683,2683,2683,2683,2683,2683,2683,2649,5068,252,252,252,252,252,252,252,252,252,253,229,326,327,327,328,5037,228,228,179,254,326,328,257,226,5052,257,257,257,257,257,257,257,257,257,257,257,226,208,228,
180,181,206,202,202,202,202,180,181,206,204,176,402,176,153,176,176,326,327,302,303,304,302,303,304,302,303,304,327,327,327,329,354,404,353,176,176,326,327,328,226,229,351,330,330,353,5053,179,252,254,326,329,353,257,226,178,180,181,206,202,204,376,377,378,201,202,202,203,228,228,
1245,1245,1245,1245,1245,1245,1245,1245,1245,1246,178,180,181,206,204,176,176,351,352,330,330,330,306,352,352,352,352,352,352,355,357,352,353,201,202,202,204,351,352,353,226,229,376,377,377,378,226,229,257,257,376,377,378,201,203,232,228,514,228,182,178,180,181,206,203,228,207,228,514,561,
1270,1270,1270,1270,1270,1270,1270,1270,1270,5131,1245,1245,1245,1246,178,204,151,376,277,278,279,377,404,355,356,356,357,352,352,380,382,354,378,226,228,228,229,376,404,353,226,178,202,180,206,202,203,178,202,180,181,206,202,203,228,179,252,230,205,253,208,228,228,228,179,230,231,205,252,252,
1272,1272,1323,1250,1275,1272,1323,1250,1275,1268,1270,1270,1270,5131,1246,178,202,180,206,202,204,402,351,405,408,381,407,352,305,380,382,353,176,226,228,228,229,326,329,353,251,230,231,231,231,205,252,252,230,205,252,252,252,253,228,5020,201,204,276,251,252,230,205,252,254,326,327,302,303,304,
1275,1231,1231,1231,1231,1274,1231,1232,1272,1249,1272,1325,1250,1268,5131,1245,1245,1245,1245,1246,178,204,376,404,405,407,352,352,306,380,382,353,176,251,253,179,254,351,305,379,328,176,176,151,176,402,176,151,153,255,176,402,401,226,208,5036,251,254,176,176,276,176,153,176,176,351,330,352,330,305,
1256,1256,1256,1256,1256,1256,1256,1254,1231,1231,1232,1272,1272,1272,1268,1270,1270,1270,1270,5131,1246,178,204,376,404,352,352,305,305,405,407,302,303,304,226,5020,327,329,352,352,353,176,176,176,176,255,255,276,176,176,276,176,176,5021,561,5052,176,401,176,176,176,255,176,176,176,376,377,377,404,330,
1281,1281,1228,1281,1281,1281,1228,1253,1256,1256,1254,1275,1231,1232,1272,1323,1250,1275,1250,1268,5131,1246,229,402,376,377,277,278,279,377,404,352,352,354,5021,5052,404,352,352,352,353,326,327,327,328,176,276,176,176,276,176,176,176,5053,590,229,176,176,176,151,176,201,202,202,180,181,206,204,376,377,
1281,1281,1281,1281,1281,1303,1281,1281,1281,1281,1278,1256,1256,1254,1231,1231,1231,1230,1230,1230,1268,1271,178,202,202,180,181,206,202,204,376,377,377,378,5053,229,376,377,377,377,378,376,404,352,353,152,276,257,257,257,176,276,201,203,565,178,204,201,180,181,206,203,207,228,228,228,228,178,202,202,
1281,1303,1281,1281,1303,1303,1281,1303,1303,1281,1303,1303,1281,1228,1256,1256,1256,1254,1232,1230,1275,1243,1245,1245,1245,1245,1245,1245,1246,178,202,180,206,202,203,178,180,206,202,202,204,402,376,404,353,402,201,180,181,206,202,202,203,600,599,624,178,203,1244,1245,1245,1245,1245,1245,1245,1245,1245,1245,1245,5322,
1281,1281,1278,1281,1281,1281,1281,1281,1281,1228,1303,1303,1303,1303,1303,1303,1281,1278,1282,1230,1230,1268,1270,1270,1270,1270,1270,1270,5131,1245,1245,1245,1245,1245,1245,1245,1245,1245,1245,5322,178,202,180,181,206,202,203,1244,1245,1245,1245,1245,2881,2946,2946,2946,2881,1245,1269,1270,1270,1270,1270,1270,1270,1270,1270,1270,5132,5133,
1306,1306,1306,1306,1306,1306,1306,1306,1306,1275,1306,1306,1304,1303,1303,1228,1303,1279,1307,1325,1230,1323,1230,1275,1230,1274,1230,1230,1268,1270,1270,1270,1270,1270,1270,1270,1270,1270,5132,5133,1245,1245,1245,1245,1245,1245,1245,5128,1270,1270,1270,1270,2881,2885,2885,2885,2881,1270,1267,1230,1275,1230,1275,1230,1230,1230,1275,1275,5148,5149,
1230,1275,1275,1275,1230,1230,1274,1230,1230,1230,1275,1230,1230,1306,1306,1306,1306,1230,1275,1230,1230,1230,1275,1230,1230,1230,1230,1275,1230,1230,1230,1230,1230,1323,1230,1230,1275,1273,5148,5149,1270,1270,1270,1270,1270,1270,1270,1267,1230,1275,1275,1324,2881,2885,2885,2885,2881,1273,1275,1230,1230,1230,1275,1275,1230,1230,1230,1230,1230,1230,
228,228,228,1230,1230,1230,1230,1275,1230,1230,1230,1275,1230,1230,1230,1230,1275,1230,1230,1275,1248,1230,1230,1230,1275,1325,1230,1275,1325,1230,1230,1275,1230,1230,1275,1230,1230,1230,1230,1275,1230,1275,1230,1230,1230,1230,1230,1275,1230,1230,1323,1230,2881,2885,2885,2885,2881,1230,1230,1230,1230,1230,1249,1230,1230,1275,1230,1323,1230,1275
</data>
 </layer>
 <layer id="3" name="Back2" width="70" height="60">
  <data encoding="csv">
0,0,0,0,0,0,0,0,0,0,0,0,0,0,0,0,0,0,0,0,0,5439,5495,0,0,0,0,0,0,0,0,0,0,0,0,0,0,0,0,0,0,0,0,0,0,0,0,0,0,5439,5495,0,0,0,0,0,0,0,0,0,0,0,0,0,0,0,0,0,0,0,
0,0,0,0,0,0,0,0,0,0,0,0,0,0,0,0,0,0,0,0,0,5401,5422,0,0,0,0,0,0,0,0,0,0,0,0,0,0,0,0,0,0,0,0,0,0,0,0,0,0,5439,5495,0,0,0,0,0,0,0,0,0,0,0,0,0,0,0,0,0,0,0,
0,0,0,0,0,0,0,0,0,0,0,0,0,0,0,0,0,0,0,0,0,0,0,0,0,0,0,0,0,0,0,0,0,0,0,0,0,0,0,0,0,0,0,0,0,0,0,0,0,5439,5495,0,0,0,0,0,0,0,0,0,0,0,0,0,0,0,0,0,0,0,
0,0,0,0,0,0,0,0,0,0,0,0,0,0,0,0,0,0,0,0,0,0,0,0,0,0,0,0,0,0,0,0,0,0,0,0,0,0,0,0,0,0,0,0,0,0,0,0,0,5439,5495,0,0,0,0,0,0,0,0,0,0,0,0,0,0,0,0,0,0,0,
0,0,0,0,0,0,0,0,0,0,0,0,0,0,0,0,0,0,0,0,0,0,0,0,0,0,0,0,0,0,0,0,0,0,0,0,0,0,0,0,0,0,0,0,0,0,0,0,0,5439,5495,0,0,0,0,0,0,0,0,0,0,0,0,0,0,0,0,0,0,0,
0,0,0,0,0,0,0,0,0,0,0,0,0,0,0,0,0,0,0,0,0,0,0,0,0,0,0,0,0,0,0,0,0,0,0,0,0,0,0,0,0,0,0,0,0,0,0,0,0,5439,5495,0,0,0,0,0,0,0,0,0,0,0,0,0,0,0,0,0,0,0,
0,0,0,0,0,0,0,0,0,0,0,0,0,0,0,0,0,0,0,0,0,0,0,0,0,0,0,0,0,0,0,0,5420,5458,5495,5495,5495,5495,5495,5495,5495,0,0,0,0,0,0,0,0,5401,5422,0,0,0,0,0,0,0,0,0,0,0,0,0,0,0,0,0,0,0,
0,0,0,0,0,0,0,0,0,0,0,0,0,0,0,0,0,0,0,0,0,0,0,0,0,0,0,0,0,0,0,0,5439,5495,5495,5495,5495,5495,5495,5495,5495,5495,5495,5495,5495,5495,5495,0,0,0,0,0,0,0,0,0,0,0,0,0,0,0,0,0,0,0,0,0,0,0,
0,0,0,0,0,0,0,0,0,0,0,0,0,0,0,0,0,0,0,0,0,0,0,0,0,0,0,0,0,0,0,0,5439,5495,5495,5495,5495,5495,5495,5495,5495,5495,5495,5495,5495,5495,5495,0,0,0,0,0,0,0,0,0,0,0,0,0,0,0,0,0,0,0,0,0,0,0,
0,0,0,0,0,0,0,0,0,0,0,0,0,0,0,0,0,0,0,0,0,0,0,0,0,0,0,0,0,0,0,0,5439,5495,5495,5495,5495,5495,5495,5495,5495,5495,5495,5495,5495,5495,5495,0,0,0,0,0,0,0,0,0,0,0,0,0,0,0,0,0,0,0,0,0,0,0,
0,0,0,0,0,0,0,0,0,0,0,0,0,0,0,0,0,0,0,0,0,0,0,0,0,0,0,0,0,0,0,0,5401,5457,5457,5457,5457,5514,5495,5495,5495,5495,5495,5495,5495,5495,5495,0,0,0,0,0,0,0,0,0,0,0,0,0,0,0,0,0,0,0,0,0,0,0,
0,0,0,0,0,0,0,0,0,0,0,0,0,0,0,0,0,0,0,0,0,0,0,0,0,0,0,0,0,0,0,0,0,0,0,0,0,5486,5457,5457,5457,5457,5457,5457,5457,5457,5446,5447,0,0,0,0,0,0,0,0,0,0,0,0,0,0,0,0,0,0,0,0,0,0,
0,0,0,0,0,0,0,0,0,0,0,0,0,0,0,0,0,0,0,0,0,0,0,0,0,0,0,0,0,0,0,0,0,0,0,0,0,0,0,0,0,0,0,0,0,0,0,0,0,0,0,0,0,0,0,0,0,0,0,0,0,0,0,0,0,0,0,0,0,0,
0,0,0,0,0,0,0,0,0,0,0,0,0,0,0,0,0,0,0,0,0,0,0,0,0,0,0,0,0,0,0,0,0,0,0,0,0,0,0,0,0,0,0,0,0,0,0,0,0,0,0,0,0,0,0,0,0,0,0,0,0,0,0,0,0,0,0,0,0,0,
0,0,0,0,0,0,0,0,0,0,0,0,0,0,0,0,0,0,0,0,0,0,0,0,0,0,0,0,0,0,0,0,0,0,0,0,0,0,0,0,0,0,0,0,0,0,0,0,0,0,0,0,0,5424,5462,5462,5462,5462,5462,5462,5462,5462,0,0,0,0,0,0,0,0,
0,0,0,0,0,0,0,0,0,0,0,0,0,0,0,0,0,0,0,0,0,0,0,0,0,0,0,0,0,0,0,0,0,0,0,0,0,0,0,0,0,0,0,0,0,0,0,0,0,0,0,0,0,5443,5495,5495,5495,5495,5495,5495,5495,5495,5442,0,0,0,0,0,0,0,
0,0,0,0,0,0,0,0,0,0,0,0,0,0,0,0,0,0,0,0,0,0,0,0,0,0,0,0,0,0,0,0,0,0,0,0,0,0,0,0,0,0,0,0,0,0,0,0,0,0,0,0,0,5443,5495,5495,5495,5495,5495,5495,5495,5495,5442,0,0,0,0,0,0,0,
0,0,0,0,0,0,0,0,0,0,0,0,0,0,0,0,0,0,0,0,0,0,0,0,0,0,0,0,0,0,0,0,0,0,0,0,0,0,0,0,0,0,0,0,0,0,0,0,0,0,0,0,0,5443,5495,5495,5495,5495,5495,5495,5495,5495,5442,0,0,0,0,0,0,0,
0,0,0,0,0,0,0,0,0,0,0,0,0,0,0,0,0,0,0,0,0,0,0,0,0,0,0,0,0,0,0,0,0,0,0,0,0,0,0,0,0,0,0,0,0,0,0,0,0,0,0,0,0,5405,5461,5461,5461,5461,5461,5461,5461,5461,5404,0,0,0,0,0,0,0,
0,0,0,0,0,0,0,0,0,0,0,0,0,0,0,0,0,0,0,0,0,0,0,0,0,0,0,0,0,0,0,0,0,0,0,0,0,0,0,0,0,0,0,0,0,0,0,0,0,0,0,0,0,0,0,0,0,0,0,0,0,0,0,0,0,0,0,0,0,0,
0,0,0,0,0,0,0,0,0,0,0,0,0,0,0,0,0,0,0,0,0,0,0,0,0,0,0,0,0,0,0,0,0,0,0,0,0,0,0,0,0,0,0,0,0,0,0,0,0,0,0,0,0,0,0,0,0,0,0,0,0,0,0,0,0,0,0,0,5406,5462,
0,0,0,0,0,0,0,0,0,0,0,0,0,0,0,0,0,0,0,0,0,0,0,0,0,0,0,0,0,0,0,0,0,0,0,0,0,0,0,0,0,0,0,0,0,0,0,0,0,0,0,0,0,0,0,0,0,0,0,0,0,0,0,0,0,0,0,0,5443,5495,
0,0,0,0,0,0,0,0,0,0,0,0,0,0,0,0,0,0,0,0,0,0,0,0,0,0,0,0,0,0,0,0,0,0,0,0,0,0,0,5424,5462,5462,5462,5462,5462,5462,0,0,0,0,0,0,0,0,0,0,0,0,0,0,0,0,0,0,0,0,0,0,5443,5495,
0,0,0,0,0,0,0,0,0,0,0,0,0,0,0,0,0,0,0,0,0,0,0,0,0,0,0,0,0,0,0,0,0,0,0,0,0,0,0,5443,5495,5495,5495,5495,5495,5495,5464,0,0,0,0,0,0,0,0,0,0,0,0,0,0,0,0,0,0,0,0,0,5425,5461,
0,0,0,0,0,0,0,0,0,0,0,0,0,0,0,0,0,0,0,0,0,0,0,0,0,0,0,0,0,0,0,0,0,0,0,0,0,0,0,5443,5495,5495,5495,5495,5495,5495,5464,0,0,0,0,0,0,0,0,0,0,0,0,0,0,0,0,0,0,0,0,0,0,0,
0,0,0,0,0,0,0,0,0,0,0,0,0,0,0,0,0,0,0,0,0,0,0,0,0,0,0,0,0,0,0,0,0,0,0,0,0,0,0,5443,5495,5495,5495,5495,5495,0,5464,0,0,0,0,0,0,0,0,0,0,0,0,0,0,0,0,0,0,0,0,0,0,0,
0,0,0,0,0,0,0,0,0,0,0,0,0,0,0,0,0,0,0,0,0,0,0,0,0,0,0,0,0,0,0,0,0,0,0,0,0,0,0,5405,5461,5461,5461,5461,5461,5461,5445,0,0,0,0,0,0,0,0,0,0,0,0,0,0,0,0,0,0,0,0,0,0,0,
0,0,0,0,0,0,0,0,0,0,0,0,0,0,0,0,0,0,0,0,0,0,0,0,0,0,0,0,0,0,0,0,0,0,0,0,0,0,0,0,0,0,0,0,0,0,0,0,0,0,0,0,0,0,0,0,0,0,0,0,0,0,0,0,0,0,0,0,0,0,
0,0,0,0,0,0,0,0,0,0,0,0,0,0,0,0,0,0,0,0,0,0,0,0,0,0,0,0,0,0,0,0,0,0,0,0,0,0,0,0,0,0,0,0,0,0,0,0,0,0,0,0,0,0,0,0,0,0,0,0,0,0,0,0,0,0,0,0,0,0,
0,0,0,0,0,0,0,0,0,0,0,0,0,0,0,0,0,0,0,0,0,0,0,0,0,0,0,0,0,0,0,0,0,0,0,0,0,0,0,0,0,0,0,0,0,0,0,0,0,0,0,0,0,0,0,0,0,0,0,0,0,0,0,0,0,0,0,0,0,0,
0,0,0,0,0,0,0,0,0,0,0,0,0,0,0,0,0,0,0,0,0,0,0,0,0,0,0,0,0,0,0,0,0,0,0,0,0,0,0,0,0,0,0,0,0,0,0,0,0,0,0,0,0,0,0,0,0,0,0,0,0,0,0,0,0,0,0,0,0,0,
0,0,0,0,0,0,0,0,0,0,0,0,0,0,0,0,0,0,0,0,0,0,0,0,0,0,0,0,0,0,0,0,0,0,0,0,0,0,0,0,0,0,0,0,0,0,0,0,0,0,0,0,0,0,0,0,0,0,0,0,0,0,0,0,0,0,0,0,0,0,
0,0,0,0,0,0,0,0,0,0,0,0,0,0,0,0,0,0,0,0,0,0,0,0,0,0,0,0,0,0,0,0,0,0,0,0,0,0,0,0,0,0,0,0,0,0,0,0,0,0,0,0,0,0,0,0,0,0,0,0,0,0,0,0,0,0,0,0,0,0,
0,0,0,0,0,0,0,0,0,0,0,0,0,0,0,0,0,0,0,0,0,0,0,0,0,0,0,0,0,0,0,0,0,0,0,0,0,0,0,0,0,0,0,0,0,0,0,0,0,0,0,0,0,0,0,0,0,0,0,0,0,0,0,0,0,0,0,0,0,0,
0,0,0,0,0,0,0,0,0,0,0,0,0,0,0,0,0,0,0,0,0,0,0,0,0,0,0,0,0,0,0,0,0,0,0,0,0,0,0,0,0,0,0,0,0,0,0,0,0,0,0,0,0,0,0,0,5495,0,0,0,0,0,0,0,0,0,0,0,0,0,
0,0,0,0,0,0,0,5495,0,0,0,0,0,0,0,0,0,0,0,0,0,0,0,0,0,0,0,0,0,0,0,0,0,0,0,0,0,0,0,0,0,0,0,0,0,0,0,0,0,0,0,0,0,0,0,0,5495,0,0,0,0,0,0,0,0,0,0,0,0,0,
0,0,0,0,0,0,5402,5458,5458,5458,5458,5458,5495,5495,0,0,0,0,0,0,0,0,0,0,0,0,0,0,0,0,0,0,0,0,0,0,0,0,0,0,0,0,0,0,0,0,0,0,0,0,0,0,0,0,0,0,5495,0,0,0,0,0,0,0,0,0,0,0,0,0,
0,0,0,0,0,0,5439,5495,5495,5495,5495,5495,5495,5495,0,0,0,0,0,0,0,0,0,0,0,0,0,0,0,0,0,0,0,0,0,0,0,0,0,0,0,0,0,0,0,0,0,0,0,0,0,0,0,0,0,0,5495,0,0,0,0,0,0,0,0,0,0,0,0,0,
0,0,0,0,0,0,5439,5495,5495,5495,5495,5495,5495,5495,0,0,0,0,0,0,0,0,0,0,0,0,0,0,0,0,0,0,0,0,0,0,0,0,0,0,0,0,0,0,0,0,0,0,0,0,0,0,0,0,0,5439,5495,0,0,0,0,0,0,0,0,0,0,0,0,0,
0,0,0,0,0,0,5439,5495,5495,5495,5495,5495,5495,5495,5464,0,0,0,5424,5462,5462,5462,5462,5462,5462,5462,0,0,0,0,0,0,0,0,0,0,0,0,0,0,0,0,0,0,0,0,0,0,0,0,0,0,0,0,0,5401,5495,5495,5495,5495,5495,0,0,0,0,0,0,0,0,0,
0,0,0,0,0,0,5401,5457,5457,5457,5457,5457,5457,5448,5449,0,0,0,5443,5495,5495,5495,5495,5495,5495,5495,0,0,0,0,0,0,0,0,0,0,0,0,0,0,0,0,0,0,0,0,0,0,0,0,0,0,0,0,0,0,5439,0,0,0,0,0,0,0,0,0,0,0,0,0,
0,0,0,0,0,0,0,0,0,0,0,0,0,0,0,0,0,0,5443,5495,5495,5495,5495,5495,5495,5495,0,0,0,0,0,0,0,0,0,0,0,0,0,0,0,0,0,0,0,0,0,0,0,0,0,0,0,0,0,0,5401,5457,5457,5485,5495,5495,5495,5495,5495,0,0,0,0,0,
0,0,0,0,0,0,0,0,0,0,0,0,0,0,0,0,0,0,5443,5495,5495,5495,5495,5495,5495,5495,0,0,0,0,0,0,0,0,0,0,0,0,0,0,0,0,0,0,0,0,0,0,0,0,0,0,0,0,0,0,0,0,0,5405,5461,5461,5461,5465,5466,0,0,0,0,0,
0,0,0,0,0,0,0,0,0,0,0,0,0,0,0,0,0,0,5405,5461,5461,5461,5461,5461,5461,5461,5444,0,0,0,0,0,0,0,0,0,0,0,0,0,0,0,0,0,0,0,0,0,0,0,0,0,0,0,0,0,0,0,0,0,0,0,0,0,0,0,0,0,0,0,
0,0,0,0,0,0,0,0,0,0,0,0,0,0,0,0,0,0,0,0,0,0,0,0,0,0,0,0,0,0,0,0,0,0,0,0,0,0,0,0,0,0,0,0,0,0,0,0,0,0,0,0,0,0,0,0,0,0,0,0,0,0,0,0,0,0,0,0,0,0,
0,0,0,0,0,0,0,0,0,0,0,0,0,0,0,0,0,0,0,0,0,0,0,0,0,0,0,0,0,0,0,0,0,0,0,0,0,0,0,0,0,0,0,0,0,0,0,0,0,0,0,0,0,0,0,0,0,0,0,0,0,0,0,0,0,0,0,0,0,0,
0,0,0,0,0,0,0,0,0,0,0,0,0,0,0,0,0,0,0,0,0,0,0,0,0,0,0,0,0,0,0,0,0,0,0,0,0,0,0,0,0,0,0,0,0,0,0,0,0,0,0,0,0,0,0,0,0,0,0,0,0,0,0,0,0,0,0,0,0,0,
0,0,0,0,0,0,0,0,0,0,0,0,0,0,0,0,0,0,0,0,0,0,0,0,0,0,0,0,0,0,0,0,0,0,0,0,0,0,0,0,0,0,0,0,0,0,0,0,0,0,0,0,0,0,0,0,0,0,0,0,0,0,0,0,0,0,0,0,0,0,
0,0,0,0,0,0,0,0,0,0,0,0,0,0,0,0,0,0,0,0,0,0,0,0,0,0,0,0,0,0,0,0,0,0,0,0,0,0,0,0,0,0,0,0,0,0,0,0,0,0,0,0,0,0,0,0,0,0,0,0,0,0,0,0,0,0,0,0,0,0,
0,0,0,0,0,0,0,0,0,0,0,0,0,0,0,0,0,0,0,0,0,0,0,0,0,0,0,0,0,0,0,0,0,0,0,0,0,0,0,0,0,0,0,0,0,0,0,0,0,0,0,0,0,0,0,0,0,0,0,0,0,0,0,0,0,0,0,0,0,0,
0,0,0,0,0,0,0,0,0,0,0,0,0,0,0,0,0,0,0,0,0,0,0,0,0,0,0,0,0,0,0,0,0,0,0,0,0,0,0,0,0,0,0,0,0,0,0,0,0,0,0,0,0,0,0,0,0,0,0,0,0,0,0,0,0,0,0,0,0,0,
0,0,0,0,0,0,0,0,0,0,0,0,0,0,0,0,0,0,0,0,0,0,0,0,0,0,0,0,0,0,0,0,0,0,0,0,0,0,0,0,0,0,0,0,0,0,0,0,0,0,0,0,0,0,0,0,0,0,0,0,0,0,0,0,0,0,0,0,0,0,
0,0,0,0,0,0,0,0,0,0,0,0,0,0,0,0,0,0,0,0,0,0,0,0,0,0,0,0,0,0,0,0,0,0,0,0,0,0,0,0,0,0,0,0,0,0,0,0,0,0,0,0,0,0,0,0,0,0,0,0,0,0,0,0,0,0,0,0,0,0,
0,0,0,0,0,0,0,0,0,0,0,0,0,0,0,0,0,0,0,0,0,0,0,0,0,0,0,0,0,0,0,0,0,0,0,0,0,0,0,0,0,0,0,0,0,0,0,0,0,0,0,0,0,0,0,0,0,0,0,0,0,0,0,0,0,0,0,0,0,0,
0,0,0,0,0,0,0,0,0,0,0,0,0,0,0,0,0,0,0,0,0,0,0,0,0,0,0,0,0,0,0,0,0,0,0,0,0,0,0,0,0,0,0,0,0,0,0,0,0,0,0,0,0,0,0,0,0,0,0,0,0,0,0,0,0,0,0,0,0,0,
0,0,0,0,0,0,0,0,0,0,0,0,0,0,0,0,0,0,0,0,0,0,0,0,0,0,0,0,0,0,0,0,0,0,0,0,0,0,0,0,0,0,0,0,0,0,0,0,0,0,0,5424,0,0,0,5424,0,0,0,0,0,0,0,0,0,0,0,0,0,0,
0,0,0,0,0,0,0,0,0,0,0,0,0,0,0,0,0,0,0,0,0,0,0,0,0,0,0,0,0,0,0,0,0,0,0,0,0,0,0,0,0,0,0,0,0,0,0,0,0,0,0,0,0,0,0,5443,0,0,0,0,0,0,0,0,0,0,0,0,0,0,
0,0,0,0,0,0,0,0,0,0,0,0,0,0,0,0,0,0,0,0,0,0,0,0,0,0,0,0,0,0,0,0,0,0,0,0,0,0,0,0,0,0,0,0,0,0,0,0,0,0,0,0,0,0,0,5443,0,0,0,0,0,0,0,0,0,0,0,0,0,0,
0,0,0,0,0,0,0,0,0,0,0,0,0,0,0,0,0,0,0,0,0,0,0,0,0,0,0,0,0,0,0,0,0,0,0,0,0,0,0,0,0,0,0,0,0,0,0,0,0,0,0,0,0,0,0,5443,0,0,0,0,0,0,0,0,0,0,0,0,0,0,
0,0,0,0,0,0,0,0,0,0,0,0,0,0,0,0,0,0,0,0,0,0,0,0,0,0,0,0,0,0,0,0,0,0,0,0,0,0,0,0,0,0,0,0,0,0,0,0,0,0,0,0,0,0,0,5443,0,0,0,0,0,0,0,0,0,0,0,0,0,0
</data>
 </layer>
 <layer id="2" name="Buildings" width="70" height="60">
  <data encoding="csv">
381,381,381,381,381,381,157,308,103,103,103,103,103,103,103,343,369,368,394,495,0,0,517,518,519,449,519,518,519,518,519,518,449,518,515,491,494,493,494,493,494,448,393,419,519,449,519,520,0,0,417,0,0,0,0,0,0,0,0,0,0,0,0,0,0,0,395,0,5194,0,
2890,2891,2919,2920,2890,2891,103,103,103,103,103,103,297,469,447,368,394,393,419,520,0,0,542,543,544,543,544,543,544,543,544,543,544,543,540,516,519,518,519,518,519,518,418,444,544,543,544,545,0,0,417,0,0,0,0,0,0,0,0,0,0,0,0,0,0,0,420,0,5210,0,
103,103,2951,2952,103,103,103,103,103,130,233,297,322,493,494,393,419,418,444,545,0,0,0,0,0,0,0,0,0,0,0,0,0,0,0,541,544,543,544,543,544,543,443,0,0,0,0,0,0,0,442,0,258,0,0,297,494,493,494,300,0,0,0,0,308,0,445,0,209,0,
469,447,469,468,469,468,469,447,469,468,469,322,347,518,519,418,444,443,233,0,0,0,0,0,0,0,0,0,0,0,0,0,0,0,0,0,0,0,0,0,0,0,0,0,0,0,0,0,0,0,446,468,469,468,469,322,519,449,519,325,447,469,468,469,447,469,470,0,259,0,
494,493,494,493,494,493,448,493,494,493,519,518,397,543,544,443,0,0,0,0,0,0,0,0,0,0,0,0,0,0,0,0,0,0,0,2394,2395,2396,2397,2398,2399,2400,2401,2402,2403,2404,2405,2406,0,0,492,493,494,493,494,347,444,543,544,350,493,448,493,494,493,494,495,0,0,213,
519,518,519,518,519,518,519,518,519,347,347,372,0,0,0,0,0,0,0,0,0,0,0,0,0,0,0,0,0,0,0,0,0,2424,2425,2426,2427,2428,2429,2430,2431,2432,2433,2434,2435,2436,2437,2438,0,0,517,518,519,518,519,520,0,2919,2920,923,518,519,518,519,449,519,520,0,0,0,
544,543,544,543,544,543,544,543,544,400,372,0,0,0,0,0,0,0,0,0,0,0,0,0,0,0,0,0,0,0,0,0,0,2456,2457,2458,2459,2460,2461,2462,2463,2464,2465,2466,2467,2468,2469,2470,0,0,542,543,544,543,544,545,0,2951,2952,0,542,544,543,544,543,544,545,0,0,0,
0,0,0,0,0,0,0,0,0,0,0,0,0,0,0,0,0,0,0,0,0,0,0,0,2979,0,0,0,0,0,0,0,0,2488,2489,2490,2491,2492,2493,2494,2495,2496,2497,2498,2499,2500,2501,2502,0,0,0,0,0,0,0,0,0,0,0,0,0,0,0,0,0,0,0,0,0,0,
0,0,0,0,0,0,0,0,0,0,0,0,0,0,0,0,0,0,0,0,0,0,0,0,0,0,0,0,0,0,2919,2920,0,2520,2521,2522,2523,2524,2525,2526,2527,2528,2529,2530,2531,2532,2533,2534,0,0,0,0,0,0,0,0,0,0,0,0,0,0,0,0,0,0,0,0,0,0,
0,0,0,0,0,0,0,0,0,0,0,0,0,0,0,0,0,0,0,0,0,0,0,0,0,0,0,0,0,0,2951,2952,0,2552,2553,2554,2555,2556,2557,2558,2559,2560,2561,2562,2563,2564,2565,2566,0,0,0,0,0,0,0,0,0,0,0,0,0,0,0,0,0,0,0,0,0,0,
233,233,2808,2809,2809,2809,2809,2809,2809,2809,2809,2809,2809,2812,0,2808,2812,0,0,0,0,0,0,0,0,0,0,0,0,0,0,0,0,2979,2000,2031,0,2031,2589,2590,2591,2592,2593,2594,2595,2596,2597,2598,0,0,0,2876,2905,2905,2905,2905,2905,2905,2905,0,0,0,0,0,0,0,0,0,0,0,
0,0,2840,233,0,0,0,0,0,0,0,0,0,0,0,2840,2016,0,0,0,0,0,0,0,0,0,0,0,0,0,0,0,0,0,0,0,0,0,0,0,0,0,0,0,0,0,0,0,0,0,0,0,0,0,0,0,0,0,0,0,0,0,0,0,0,0,0,0,0,0,
414,439,2840,0,0,0,0,0,0,0,0,0,0,0,0,2840,2048,0,0,0,0,0,0,0,0,0,0,0,0,0,0,0,0,0,0,0,0,0,0,0,0,0,0,0,0,0,0,0,0,0,0,0,0,0,0,0,0,0,0,0,0,0,0,0,0,0,0,0,0,0,
0,395,2840,0,0,0,0,0,0,0,0,0,0,0,0,2840,0,0,0,0,0,0,0,0,0,0,0,0,0,0,0,0,0,0,0,0,0,0,0,0,0,0,0,0,0,0,0,0,0,0,0,0,0,0,2184,2185,2186,2187,2188,2189,2190,2191,2192,0,0,0,0,0,0,0,
0,420,2840,0,0,0,0,0,0,0,0,0,0,0,0,2840,0,2765,2862,103,2767,0,0,0,0,0,0,0,0,0,0,0,0,0,0,0,0,0,0,0,0,0,0,0,0,0,0,0,0,0,0,0,0,0,2216,2217,2218,2219,2220,2221,2222,2223,2224,0,0,0,0,0,0,0,
0,395,2840,0,0,0,0,0,0,0,0,0,0,0,0,2840,0,2861,308,2861,2831,0,0,0,2979,0,0,0,0,0,0,0,0,0,0,0,0,0,0,0,0,0,0,0,0,0,0,0,0,0,0,0,0,0,2248,2249,2250,2251,2252,2253,2254,2255,2256,0,0,0,0,0,0,0,
2861,420,2840,0,0,0,0,0,0,0,0,0,0,0,0,2840,0,2829,2830,2831,0,0,0,0,0,0,0,0,0,0,0,0,0,0,0,0,0,0,0,0,0,0,0,0,0,0,0,0,0,0,0,0,0,0,2280,2281,2282,2283,2284,2285,2286,2287,2288,2064,2919,2920,0,0,0,0,
0,395,2840,0,0,0,2919,2920,0,0,0,0,0,0,0,2840,0,2298,2299,0,0,0,0,0,0,0,0,0,0,0,0,0,0,0,0,0,0,0,0,0,0,0,0,0,0,0,0,0,0,2017,0,0,2054,0,2312,2313,2314,2315,2316,2317,2318,2319,2320,0,2951,2952,0,0,0,0,
0,420,2840,0,0,0,2951,2952,0,0,0,0,0,0,0,2840,0,0,0,0,0,0,0,0,0,0,0,0,0,0,0,0,0,0,0,0,0,0,0,0,0,0,0,0,0,0,0,0,0,0,0,0,0,0,0,0,0,0,0,0,0,0,0,0,0,0,0,0,0,0,
0,395,2872,0,0,0,0,0,0,0,0,0,0,0,0,2840,0,0,0,0,0,0,0,0,0,0,0,0,0,0,0,0,0,0,0,0,0,0,0,0,0,0,0,0,0,0,0,0,0,0,0,0,0,0,0,0,0,0,0,0,0,0,0,0,0,0,0,0,0,0,
0,420,2904,2905,2905,0,0,0,0,0,0,0,0,0,0,2840,0,0,0,0,0,0,0,0,0,0,0,0,0,0,0,0,0,0,0,0,0,0,0,0,0,0,0,0,0,0,0,0,0,0,0,2808,2809,2809,2809,2810,0,0,0,0,0,0,0,0,0,0,0,0,0,2662,
103,413,414,415,439,0,0,0,0,0,0,0,0,0,0,2872,0,0,0,0,0,2979,0,0,0,0,0,0,0,0,0,0,0,0,0,0,0,0,0,0,0,0,0,0,0,0,0,0,0,0,0,2840,103,2021,1990,2842,0,0,0,0,0,0,0,0,0,0,0,0,0,2694,
103,327,103,103,395,0,0,0,0,0,0,0,0,0,0,2904,2905,0,0,0,0,0,0,0,0,0,0,0,0,0,0,0,0,0,0,0,0,0,2979,0,2503,2504,2505,2506,2507,2508,2509,0,0,0,0,2840,103,103,103,2842,0,0,0,0,0,0,0,2023,0,0,0,0,0,2726,
305,306,353,402,420,0,0,0,0,0,0,0,0,0,0,233,0,0,0,0,0,0,0,0,0,0,0,0,0,0,0,0,0,0,0,0,0,0,0,0,2535,2536,2537,2538,2539,2540,2541,233,0,0,0,2872,0,2873,0,2874,0,0,0,0,0,0,0,0,0,0,0,0,0,0,
352,305,379,328,395,0,0,0,0,0,0,0,0,0,0,0,0,0,0,0,0,0,0,0,0,0,0,0,0,0,0,0,0,0,0,0,0,0,0,0,2567,2568,2569,2570,2571,2572,2573,2054,0,0,0,2904,2905,2905,2905,2906,0,0,0,0,0,0,0,0,0,0,0,0,0,0,
383,352,352,353,420,233,0,0,0,0,0,0,0,0,0,0,0,2919,2920,0,233,0,0,0,0,0,0,0,0,0,0,0,0,0,0,0,0,0,0,0,2599,2600,2601,2602,2603,0,2605,0,0,0,0,0,0,233,0,0,0,2023,0,0,0,0,0,0,0,0,0,0,0,0,
382,352,305,353,395,0,0,0,0,0,0,0,0,0,0,0,0,2951,2952,0,0,0,0,0,0,0,0,0,0,0,0,0,0,0,0,0,0,0,0,0,0,0,0,0,0,0,0,0,0,0,0,0,0,0,0,0,0,0,0,0,0,0,1991,0,0,0,0,0,0,0,
382,352,306,103,420,233,0,0,0,0,0,0,0,0,0,0,233,0,0,0,0,0,0,0,0,0,0,0,0,0,0,0,0,0,0,0,0,0,0,0,0,0,0,0,0,0,0,0,0,0,0,0,0,0,0,0,0,0,0,0,0,0,0,0,0,0,0,0,0,0,
130,2919,2920,233,445,0,0,0,0,0,0,0,0,0,0,0,0,0,0,0,0,0,0,0,0,0,0,0,0,0,0,0,0,0,0,0,0,0,0,0,0,0,0,0,0,0,0,0,0,0,0,0,0,0,0,0,0,0,0,0,0,0,0,0,0,0,0,0,0,0,
308,2951,2952,295,470,0,0,0,0,0,0,0,0,0,0,0,0,0,0,0,0,0,0,0,0,0,0,2979,0,0,2979,0,0,0,0,0,0,0,0,0,0,0,0,0,0,0,0,0,0,0,0,0,0,0,0,2808,2809,2809,2809,2809,2809,2809,2809,2809,2809,2809,2809,2810,0,0,
0,0,0,320,495,0,0,0,0,0,0,0,0,0,0,0,0,0,0,0,0,0,0,0,0,0,0,0,0,0,0,0,0,0,0,0,0,0,0,0,0,0,2266,2271,2271,2267,0,0,0,0,0,0,0,0,0,2840,0,0,0,0,0,0,0,0,0,0,0,2842,0,0,
2794,2795,2796,345,520,2808,2809,2809,2809,2809,2809,2809,2809,2809,2809,2812,0,2748,0,0,0,0,0,0,0,0,0,0,0,0,0,0,0,2959,2960,2961,0,0,0,0,0,0,2298,2303,2303,2299,0,0,0,0,0,0,0,0,0,2840,0,0,0,0,0,0,0,0,0,0,0,2842,0,0,
2826,2827,2828,370,545,2840,0,0,0,0,0,0,0,0,0,0,0,2842,0,0,0,0,0,0,0,0,0,0,0,0,0,0,0,2991,2992,2993,0,0,0,0,0,2016,0,0,0,0,2030,0,0,0,0,0,0,0,0,2840,0,0,0,0,0,0,0,0,0,0,2876,2906,0,0,
352,354,378,420,0,2840,0,0,0,0,0,0,0,0,0,0,0,2842,0,0,0,0,0,0,0,0,0,0,0,0,0,0,0,0,0,0,0,0,0,0,0,2048,0,0,0,0,2062,0,0,0,0,0,0,0,0,2840,2840,0,0,0,0,0,0,0,0,0,0,0,0,0,
306,353,402,395,105,2840,0,2144,2145,2146,2147,2148,2149,2150,2151,0,0,2842,0,0,0,0,0,0,0,0,0,0,0,0,0,0,0,0,0,0,0,0,0,0,0,0,0,0,0,0,0,0,0,0,0,0,0,0,0,2840,2840,0,0,0,0,0,0,0,2842,3055,3056,3057,3058,0,
305,353,176,420,130,2840,0,2176,2177,2178,2179,2180,2181,2182,2183,0,0,2842,0,0,0,0,0,0,0,0,0,0,0,0,0,0,0,0,0,0,0,0,0,0,0,0,0,0,0,0,0,0,0,0,0,0,0,0,0,2840,2574,2575,2576,2577,2578,2579,2580,2581,2842,3087,3088,3089,3090,0,
103,105,103,395,0,2840,0,2208,2209,2210,2211,2212,2213,2214,2215,0,0,2842,0,0,0,0,0,0,0,0,0,0,0,0,0,0,0,0,0,0,0,0,0,0,0,0,0,0,0,0,0,0,0,0,0,0,0,0,0,2872,2606,2607,2608,2609,2610,2611,2612,2613,2614,3119,3120,3121,3122,0,
233,130,308,420,0,2840,0,2240,2241,2242,2243,2244,2245,2246,2247,0,0,2842,0,0,0,0,0,0,0,0,0,0,0,0,0,0,0,0,0,0,0,0,0,0,0,0,0,0,0,0,0,0,0,0,0,0,0,0,0,2904,2638,2639,2640,2641,2642,2643,2644,2645,2646,3151,3152,3153,3154,0,
258,103,103,445,0,2840,0,2272,2273,2274,2275,2276,2277,2278,2279,0,0,2842,0,2104,2105,2106,2107,2108,2109,2110,2111,0,0,0,0,0,0,0,0,0,0,0,0,387,0,0,0,0,0,0,0,0,0,0,0,0,0,0,0,0,2670,2671,2672,2673,2674,2675,2676,2677,2678,3183,3184,3185,3186,0,
447,469,468,470,2919,2920,0,2304,2305,2306,2307,2308,2309,2310,2311,0,0,2842,0,2136,2137,2138,2139,2140,2141,2142,2143,0,0,0,0,0,0,0,0,0,0,0,0,412,0,0,2296,0,0,0,0,0,0,0,0,0,0,0,0,0,2054,2703,2704,2705,2706,2707,2862,2709,2710,3215,3216,3217,3218,0,
493,494,493,495,2951,2952,0,0,0,0,0,2265,0,2054,0,0,0,2874,0,2168,2169,2170,2171,2172,2173,2174,2175,0,0,0,0,0,0,0,0,0,0,0,0,412,0,0,0,0,0,0,0,2296,0,0,0,2297,0,387,0,0,2063,2735,0,0,2738,0,258,2861,2742,0,0,0,0,0,
518,519,449,520,0,2872,0,0,0,0,0,0,0,0,0,0,2876,2906,0,2200,2201,2202,2203,2204,2205,2206,2207,0,0,0,0,0,0,0,0,0,0,0,0,412,0,0,0,0,0,0,0,0,0,0,0,0,0,387,0,0,0,0,0,0,2770,2771,2772,2773,2774,0,0,2876,2876,0,
543,544,543,545,0,2904,2905,2905,2017,0,0,0,0,0,0,0,0,0,0,2232,2233,2234,2235,2236,2237,2238,2239,0,0,0,0,0,0,2919,2920,0,0,0,0,437,0,0,0,0,0,0,0,0,0,0,0,0,0,387,0,0,0,0,0,0,0,0,0,0,0,0,0,2748,0,0,
0,0,0,0,0,0,0,0,0,0,0,0,0,0,0,0,0,2979,0,2054,0,0,2064,2268,2269,2270,0,2979,0,0,0,0,0,2951,2952,0,0,0,0,0,0,0,0,0,0,0,0,0,0,0,0,0,0,412,0,0,0,0,0,0,0,0,0,0,0,0,0,2842,0,0,
0,0,0,0,0,0,0,0,0,0,0,0,0,0,0,0,0,0,0,0,0,0,0,0,0,0,0,0,0,0,0,0,0,0,0,0,0,0,0,0,0,0,2360,0,0,0,0,0,0,0,0,0,0,387,0,0,0,0,0,0,0,0,0,0,0,0,2064,2842,0,3059,
0,0,0,0,0,0,0,0,0,0,0,0,0,0,0,0,0,0,0,0,0,0,0,0,0,0,0,0,0,0,0,0,0,0,0,0,0,0,0,0,0,0,0,0,0,0,0,0,0,0,0,0,0,387,0,0,0,0,0,0,0,0,0,0,0,0,0,2874,0,3091,
0,0,0,0,0,0,0,0,0,0,0,0,0,0,0,0,0,0,0,0,0,0,0,0,0,0,0,0,0,0,0,0,0,0,0,0,0,0,0,0,0,0,0,0,0,0,0,0,0,0,0,0,0,412,0,0,0,2876,2905,2905,2905,2905,2905,2905,2905,2905,2905,2906,0,0,
0,0,0,0,0,0,0,0,0,0,0,0,0,0,0,0,0,0,0,0,0,0,0,0,0,0,0,0,0,0,2808,2809,2809,2809,2809,2809,2809,2809,2809,2810,0,0,0,0,0,0,0,0,0,0,0,2919,2920,437,0,0,0,0,0,0,0,0,0,0,0,0,0,0,0,0,
185,185,212,185,212,185,212,185,212,186,0,0,0,0,0,0,0,0,0,0,0,0,0,0,0,0,0,0,0,0,2840,0,0,0,0,0,0,0,0,2842,0,0,0,0,0,0,0,0,0,0,0,2951,2952,0,0,0,0,0,0,0,0,0,0,0,0,0,0,0,0,0,
0,0,0,0,0,0,0,0,0,285,185,212,185,186,0,0,0,0,0,0,0,0,0,0,0,0,0,0,0,0,2840,0,0,0,1992,1993,0,0,0,2842,0,0,0,0,0,0,0,0,0,0,0,0,0,0,0,0,0,0,0,0,0,0,0,0,0,0,0,0,0,0,
0,0,0,0,0,0,0,0,0,0,0,0,0,285,186,0,0,0,0,0,0,0,0,0,0,144,145,0,0,0,2840,0,233,0,2024,2025,0,0,0,2842,0,0,0,0,0,0,0,0,0,0,0,0,0,0,0,0,0,0,0,0,0,0,0,0,0,0,0,0,0,0,
0,0,0,0,0,0,0,0,0,0,0,0,0,0,285,185,212,185,212,186,0,0,0,0,0,169,170,0,0,0,2840,0,0,0,0,0,0,0,0,2842,0,0,0,0,0,0,0,0,0,0,0,0,0,0,0,0,0,0,233,0,0,0,0,0,0,0,0,0,0,0,
0,0,0,0,0,0,0,0,0,0,0,0,0,0,0,0,0,0,0,285,186,0,0,0,0,0,0,0,0,0,2872,0,0,0,0,0,0,0,0,2874,0,0,0,0,0,0,0,0,0,0,0,0,0,0,0,0,0,0,0,0,0,0,0,0,0,0,0,0,0,0,
0,0,0,0,0,0,0,0,0,0,0,0,0,0,0,0,0,0,0,0,285,186,0,0,0,0,0,0,0,0,2904,2905,2905,2905,0,0,2876,2905,2905,2906,0,0,0,0,0,0,0,0,0,0,0,0,0,0,0,0,0,0,0,0,0,0,0,0,0,0,0,0,0,0,
0,0,0,0,0,0,0,0,0,0,0,0,0,0,0,0,0,0,0,0,0,236,0,0,0,0,0,0,0,0,0,0,0,0,0,0,0,0,0,0,0,0,0,0,0,0,0,0,0,0,0,0,0,0,0,0,0,0,0,0,0,0,0,0,0,0,0,0,0,0,
0,0,0,0,0,0,0,0,0,0,0,0,0,0,0,0,0,0,0,0,0,285,185,212,185,212,185,185,186,0,0,0,0,0,0,0,0,0,0,0,0,0,0,2919,2920,0,0,0,0,0,0,0,2979,0,0,0,2979,0,184,185,212,185,212,185,212,185,212,185,5240,0,
0,0,0,0,0,0,0,0,0,0,0,0,0,0,0,0,0,0,0,0,0,0,0,0,0,0,0,0,285,185,185,212,185,212,185,212,185,212,5240,0,0,0,0,2951,2952,0,0,184,185,212,185,212,2881,0,0,0,0,212,284,0,0,0,0,0,0,0,0,0,5256,5338,
0,0,0,0,0,0,0,0,0,0,0,0,0,0,0,0,0,0,0,0,0,0,0,0,0,0,0,0,0,0,0,0,0,0,0,0,0,0,5256,5338,212,185,212,185,212,185,212,284,0,0,0,5443,2881,0,0,0,0,0,0,0,0,0,0,0,0,0,0,0,0,0,
260,260,260,0,0,0,0,0,0,0,0,0,0,0,0,0,0,0,0,0,0,0,0,0,0,0,0,0,0,0,0,0,0,0,0,0,0,0,0,0,0,0,0,0,0,0,0,0,0,0,0,5443,2881,0,0,0,0,0,0,0,0,0,0,0,0,0,0,0,0,0,
228,228,228,213,260,260,5304,5305,5306,260,260,260,260,260,260,260,260,0,0,0,0,0,0,0,0,0,0,0,0,0,0,0,0,0,0,0,0,0,0,0,0,0,0,0,0,0,0,0,0,0,0,5443,2881,0,0,0,0,0,0,260,260,260,260,0,0,0,0,0,0,0
</data>
 </layer>
 <layer id="6" name="Front" width="70" height="60">
  <data encoding="csv">
2858,2859,0,0,2858,2859,0,0,79,80,81,0,0,0,0,0,0,0,0,0,0,0,0,0,0,0,0,0,0,0,0,0,0,0,0,0,0,0,0,0,0,0,0,0,0,0,0,0,0,0,0,0,0,0,0,0,0,0,0,0,0,0,0,0,0,0,0,0,0,0,
0,0,0,0,0,0,0,0,104,105,106,0,0,0,0,0,0,0,0,0,0,0,0,0,0,0,0,0,0,0,0,0,0,0,0,0,0,0,0,0,0,0,0,0,0,0,0,0,0,0,0,0,0,0,0,0,0,0,0,0,0,0,0,0,0,0,0,0,0,0,
0,0,0,0,0,0,0,0,0,0,0,0,0,0,0,0,0,0,0,0,0,0,0,0,0,0,0,0,0,0,0,0,0,0,2329,2330,2331,2332,2333,2334,2335,2336,2337,2338,2339,2340,2341,2342,0,0,0,0,0,0,0,0,2822,2823,2824,2825,0,0,0,0,0,0,0,0,0,0,
0,0,0,0,0,0,0,0,0,0,0,0,0,0,0,0,0,0,0,0,0,0,0,0,0,0,0,0,0,0,0,0,0,0,2361,2362,2363,2364,2365,2366,2367,2368,2369,2370,2371,2372,2373,2374,0,0,0,0,0,0,0,0,2854,2855,2856,2857,0,0,0,0,0,0,0,0,0,0,
0,0,0,0,0,0,0,0,0,0,0,0,0,0,0,0,0,0,0,0,0,0,0,0,2883,0,0,0,0,0,0,0,0,2392,2393,2394,2395,2396,2397,2398,2399,2400,2401,2402,2403,2404,2405,2406,0,0,0,0,0,0,0,495,2886,2887,2888,2889,0,0,0,0,0,0,0,0,0,0,
0,0,0,0,0,0,0,0,0,0,0,0,0,0,0,0,0,0,0,0,0,0,0,0,2915,0,0,0,0,0,0,0,0,0,0,0,0,0,2429,2430,2431,2432,2433,2434,2435,2436,2437,2438,0,0,0,0,0,0,0,520,0,0,0,0,0,0,0,0,0,0,0,0,0,0,
0,0,0,0,0,0,0,0,0,0,0,0,0,0,0,0,0,0,0,0,0,0,0,0,2947,0,0,0,0,0,0,0,0,0,0,0,0,0,2461,2462,2463,2464,2465,2466,2467,2468,2469,2470,0,0,0,0,0,0,0,0,0,0,0,0,0,0,0,0,0,0,0,0,0,0,
0,0,0,0,0,0,0,0,0,0,0,0,0,0,0,0,0,0,0,0,0,0,0,0,0,0,0,0,0,0,2887,2888,0,2883,0,0,0,0,2493,2494,2495,2496,2497,2498,2499,2500,2501,2502,0,0,0,0,0,0,0,0,0,0,0,0,0,0,0,0,0,0,0,0,0,0,
0,0,0,0,0,0,0,0,0,0,0,0,0,0,0,0,0,0,0,0,0,0,0,0,0,0,0,0,0,0,0,0,0,2915,0,0,0,0,2525,2526,2527,2528,2529,2530,2531,2532,2533,2534,0,0,0,0,0,0,0,0,0,0,0,0,0,0,0,0,0,0,0,0,0,0,
0,0,2776,2777,2777,2777,2747,2777,2777,2777,2777,2777,2777,2780,0,2776,2780,0,0,0,0,0,0,0,0,0,0,0,0,0,0,0,0,2947,0,1999,0,1999,0,0,0,0,0,0,0,0,0,0,0,0,0,2844,2873,2873,2873,2873,2873,2873,2873,0,0,0,0,0,0,0,0,0,0,0,
0,0,0,0,0,0,0,0,0,0,0,0,0,0,0,0,1984,0,0,0,0,0,0,0,0,0,0,0,0,0,0,0,0,0,0,0,0,0,0,0,0,0,0,0,0,0,0,0,0,0,0,0,0,0,0,0,0,0,0,0,0,0,0,0,0,0,0,0,0,0,
0,0,0,0,0,0,0,0,0,0,0,0,0,0,0,0,0,0,0,0,0,0,0,0,0,0,0,0,0,0,0,0,0,0,0,0,0,0,0,0,0,0,0,0,0,0,0,0,0,0,0,0,0,0,0,0,0,0,0,0,0,0,0,0,0,0,0,0,0,0,
0,0,0,0,0,0,0,0,0,0,0,0,0,0,0,0,0,0,0,0,0,0,0,0,2883,0,0,0,0,0,0,0,0,0,0,0,0,0,0,0,0,0,0,0,0,0,0,0,0,0,0,0,0,0,0,0,0,0,0,0,0,0,0,0,0,0,0,0,0,0,
0,0,0,0,0,0,0,0,0,0,0,0,0,0,0,0,0,0,0,0,0,0,0,0,2915,0,0,0,0,0,0,0,0,0,0,0,0,0,0,0,0,0,0,0,0,0,0,0,0,0,0,0,0,0,2184,2185,2186,2187,2188,2189,2190,0,0,0,0,0,0,0,0,0,
0,0,0,0,0,0,0,0,0,0,0,0,0,0,0,0,0,0,0,0,0,0,0,0,2947,0,0,0,0,0,0,0,0,0,0,0,0,0,0,0,0,0,0,0,0,0,0,0,0,0,0,0,0,0,2216,2217,2218,2219,2220,2221,2222,0,0,2854,2855,2856,2857,0,0,0,
0,0,0,0,0,2854,2855,2856,2857,0,0,0,0,0,0,0,0,0,0,0,0,0,0,0,0,0,0,0,0,0,0,0,0,0,0,0,0,0,0,0,0,0,0,0,0,0,0,0,0,0,0,0,0,0,0,0,0,0,0,0,0,0,0,2032,2887,2888,2889,0,0,0,
0,0,0,0,0,2886,2887,2888,2889,0,0,0,0,0,0,0,0,2266,2267,0,0,0,0,0,0,0,0,0,0,0,0,0,0,0,0,0,0,0,0,0,0,0,0,0,0,0,0,0,0,1985,0,0,2022,0,0,0,0,0,0,0,0,0,0,0,0,0,0,0,0,0,
0,0,0,0,0,0,0,0,0,0,0,0,0,0,0,0,0,0,0,0,0,0,0,0,0,0,0,0,0,0,0,0,0,0,0,0,0,0,0,0,0,0,0,0,0,0,0,0,0,0,0,0,0,0,0,0,0,0,0,0,0,0,0,0,0,0,0,0,0,0,
0,0,0,0,0,0,0,0,0,0,0,0,0,0,0,0,0,0,0,0,0,2883,0,0,0,0,0,0,0,0,0,0,0,0,0,0,0,0,0,0,0,0,0,0,0,0,0,0,0,0,0,0,0,0,0,0,0,0,0,0,0,0,0,0,0,0,0,0,0,0,
0,0,0,2873,2873,0,0,0,0,0,0,0,0,0,0,0,0,0,0,0,0,2915,0,0,0,0,0,0,0,0,0,0,0,0,0,0,0,0,2883,0,0,0,0,0,0,0,0,0,0,0,0,2776,2777,2777,2777,2778,0,0,0,0,0,0,0,0,0,0,0,0,0,2630,
0,0,0,0,0,0,0,0,0,0,0,0,0,0,0,0,0,0,0,0,0,2947,0,0,0,0,0,0,0,0,0,0,0,0,0,0,0,0,2915,0,0,0,0,0,0,0,0,0,0,0,0,0,0,1989,0,0,0,0,0,0,0,0,0,0,0,0,0,0,0,2662,
0,0,0,0,0,0,0,0,0,0,0,0,0,0,0,0,2873,0,0,0,0,0,0,0,0,0,0,0,0,0,0,0,0,0,0,0,0,0,2947,0,0,0,0,0,0,0,0,0,0,0,0,0,0,0,0,0,0,0,0,0,0,0,0,0,0,0,0,0,0,0,
0,0,0,0,0,0,0,0,0,0,0,0,0,0,0,0,0,0,0,0,0,0,0,0,0,0,0,0,0,0,0,0,0,0,0,0,0,0,0,0,0,0,0,0,0,0,0,0,0,0,0,0,0,0,0,0,0,0,0,0,0,0,0,0,0,0,0,0,0,0,
0,0,0,0,0,0,0,0,0,0,0,0,0,0,0,0,2854,2855,2856,0,0,0,0,0,0,0,0,0,0,0,0,0,0,0,0,0,0,0,0,0,0,0,0,0,0,0,0,2022,0,0,0,0,2873,2055,2715,0,0,0,0,0,0,0,0,0,0,0,0,0,0,0,
0,0,0,0,0,0,0,0,0,0,0,0,0,0,0,0,0,2887,2888,2889,0,0,0,0,0,0,0,0,0,0,0,0,0,0,0,0,0,0,0,0,0,0,0,0,0,0,0,0,0,0,0,0,0,2087,0,0,0,0,0,0,0,0,0,0,0,0,0,0,0,0,
0,0,0,0,0,0,0,0,0,0,0,0,0,0,0,0,0,0,0,0,0,0,0,0,0,0,0,0,0,0,0,0,0,0,0,0,0,0,0,0,0,0,0,0,0,0,0,0,0,0,0,0,0,0,0,0,0,0,0,0,0,0,0,0,0,0,0,0,0,0,
0,0,0,0,0,0,0,0,0,0,0,0,0,0,0,0,0,0,0,0,0,0,0,0,0,0,0,2883,0,0,2883,0,0,0,0,0,0,0,0,0,0,0,0,0,0,0,0,0,0,0,0,0,0,0,0,0,0,0,0,0,0,0,0,0,0,0,0,0,0,0,
101,0,0,0,0,0,0,0,0,0,0,0,0,0,0,0,0,0,0,0,0,0,0,0,0,0,0,2915,0,0,2915,0,0,0,0,0,0,0,0,0,0,0,0,0,0,0,0,0,0,0,0,0,0,0,0,0,0,0,0,0,0,0,0,0,0,0,0,0,0,0,
0,0,0,0,0,0,0,0,0,0,0,0,0,0,0,0,0,0,0,0,0,0,0,0,0,0,0,2947,0,0,2947,0,0,0,2864,2865,0,0,0,0,0,0,0,0,0,0,0,0,0,0,0,0,0,0,0,2776,2777,2777,2777,2777,2777,2777,2777,2777,2777,2747,2777,2778,0,0,
0,0,0,0,0,0,0,0,0,0,0,0,0,0,0,0,0,0,0,0,0,0,0,0,0,0,0,0,0,0,0,0,0,2895,2896,2897,0,0,0,0,0,0,0,0,0,0,0,0,0,0,0,0,0,0,0,0,0,0,0,0,0,0,0,0,0,0,0,0,0,0,
2762,2763,2764,0,0,2776,2777,2715,2777,2777,2777,2777,2777,2747,2777,2715,0,2716,0,0,0,0,0,0,0,0,0,0,0,0,0,0,0,2927,2928,2929,0,0,0,0,0,0,0,0,0,0,0,0,0,0,0,0,0,0,0,0,0,0,0,0,0,0,0,0,0,0,0,0,0,0,
0,0,0,0,0,0,0,0,0,0,0,0,0,0,0,0,0,0,0,0,0,0,0,0,0,0,0,0,0,0,0,0,0,0,0,0,0,0,0,0,0,1984,0,0,0,0,1998,0,0,0,0,0,0,0,0,0,0,0,0,0,0,0,0,0,0,0,2844,2874,0,0,
0,0,0,0,0,0,0,0,0,0,0,0,0,0,0,0,0,0,0,0,0,0,0,0,0,0,0,0,0,0,0,0,0,0,0,0,0,0,0,0,0,0,0,0,0,0,0,0,0,0,0,0,0,0,0,0,0,0,0,0,0,0,0,0,0,0,0,0,0,0,
0,0,0,0,0,0,0,0,0,0,0,0,0,0,0,0,0,0,0,0,0,0,0,0,0,0,0,0,0,0,0,0,0,0,0,0,0,0,0,0,0,0,0,0,0,0,0,0,0,0,0,0,0,0,0,0,0,0,0,0,0,0,0,0,0,3023,3024,3025,3026,0,
0,0,0,2758,2759,2760,2761,2144,2145,2146,2147,2148,2149,2150,2151,0,0,0,0,0,0,0,0,0,0,0,0,0,0,0,0,0,0,0,0,0,0,0,0,0,0,0,0,0,0,0,0,0,0,0,0,0,0,0,0,0,0,0,0,0,0,0,0,0,0,0,0,0,0,0,
0,0,0,2790,2791,2792,2793,2176,2177,2178,2179,2180,2181,2182,2183,0,0,0,0,0,0,0,0,0,0,0,0,0,0,0,0,0,0,0,0,0,0,0,0,0,0,0,0,0,0,0,0,0,0,0,0,0,0,0,0,0,0,0,0,0,0,0,0,0,2582,0,0,0,0,0,
0,0,0,2822,2823,2824,2825,2208,2209,2210,2211,2212,2213,2214,0,0,0,0,0,0,0,0,0,0,0,0,0,0,0,0,0,0,0,0,0,0,0,0,0,0,0,0,0,0,0,0,0,0,0,0,0,0,0,0,0,0,0,0,0,0,0,0,0,0,2614,0,0,0,0,0,
0,0,0,2854,2855,2856,2857,2240,2241,2242,2243,2244,2245,2246,0,0,0,0,0,0,0,0,0,0,0,0,0,0,0,0,0,0,0,0,0,0,0,0,0,362,0,0,0,0,0,0,0,0,0,0,0,0,0,0,0,0,0,0,0,0,0,0,0,0,0,0,0,0,0,0,
0,0,151,2886,2887,2888,2889,0,0,0,0,0,0,0,0,0,0,0,0,0,0,0,0,0,0,0,0,0,0,0,0,0,0,0,0,0,0,0,0,0,0,0,2264,0,0,0,0,0,0,0,0,0,0,0,0,0,2022,0,0,0,0,0,0,0,0,0,0,0,0,0,
0,0,0,0,0,0,0,0,0,0,0,0,0,2022,0,0,0,0,0,0,0,0,0,0,0,0,0,0,0,0,0,0,0,0,0,0,0,0,0,0,0,0,0,0,0,0,0,2264,0,0,0,0,0,362,0,0,0,0,0,0,0,2863,0,308,2862,0,0,0,0,0,
0,0,0,0,0,0,0,0,0,0,0,0,0,0,0,0,2844,2883,0,0,0,0,0,0,0,0,0,2883,0,0,0,0,2854,2855,2856,2857,0,0,0,0,0,0,0,0,0,0,0,0,0,0,0,0,0,0,0,0,0,0,0,0,0,0,0,0,0,0,0,2844,2844,0,
0,0,0,0,0,0,2873,2873,1985,0,0,0,0,0,0,0,0,2915,0,0,0,0,0,0,0,0,0,2915,0,0,0,0,2886,2887,2888,2889,0,0,0,0,0,0,0,0,0,0,0,0,0,0,0,0,0,0,0,0,0,0,0,0,0,0,0,0,0,0,0,2716,0,0,
0,0,0,0,0,0,0,0,0,0,0,0,0,0,0,0,0,2947,0,2022,0,0,2032,0,0,0,0,2947,0,0,0,0,0,0,0,0,0,0,0,0,0,0,0,0,0,0,0,0,0,0,0,0,0,0,0,0,0,0,0,0,0,0,0,0,0,0,0,0,0,0,
0,0,0,0,0,0,0,0,0,0,0,0,0,0,0,0,0,0,0,0,0,0,0,0,0,0,0,0,0,0,0,0,0,0,0,0,0,0,0,0,0,0,2328,0,0,0,0,0,0,0,0,0,0,362,0,0,0,0,0,0,0,0,0,0,0,0,2032,0,0,3027,
0,0,0,0,0,0,0,0,0,0,0,0,0,0,0,0,0,0,0,0,0,0,0,0,0,0,0,0,0,0,0,0,0,0,0,0,0,0,0,0,0,0,0,0,0,0,0,0,0,0,0,0,0,1984,0,0,0,0,0,0,0,0,0,0,0,0,0,0,0,0,
0,0,0,0,0,0,0,0,0,0,0,0,0,0,0,0,0,0,0,0,0,0,0,0,0,0,0,0,0,0,0,0,0,0,0,0,0,0,0,0,0,0,0,0,0,0,0,0,0,0,2854,2855,2856,2857,0,0,0,2844,2873,2715,2873,2873,2873,2873,2873,2873,2873,0,0,0,
0,0,0,0,0,0,0,0,0,0,0,0,0,0,0,0,0,0,0,0,0,0,0,0,0,0,0,0,0,0,2776,2777,2777,2747,2777,2777,2777,2777,2777,2778,0,0,0,0,0,0,0,0,0,0,0,2887,2888,2889,0,0,0,0,0,0,0,0,0,0,0,0,0,0,0,0,
0,0,0,0,0,0,0,0,0,0,0,0,0,0,0,0,0,0,0,0,0,0,0,0,0,0,0,0,0,0,0,0,0,0,0,0,0,0,0,0,0,0,0,0,0,0,0,0,0,0,0,0,0,0,0,0,0,0,0,0,0,0,0,0,0,0,0,0,0,0,
0,0,0,0,0,0,0,0,0,0,0,0,0,0,0,0,0,0,0,0,0,0,0,0,0,0,0,0,0,0,0,0,0,0,0,0,0,0,0,0,0,0,0,0,0,0,0,0,0,0,0,0,0,0,0,0,0,0,0,0,0,0,0,0,0,0,0,0,0,0,
0,0,0,0,0,0,0,0,0,0,0,0,0,0,0,0,0,0,0,0,0,0,0,0,0,119,120,0,0,0,0,0,0,0,0,0,0,0,0,0,0,0,0,0,0,0,0,0,0,0,0,0,0,0,0,0,0,0,0,0,0,0,0,0,0,0,0,0,0,0,
0,0,0,0,0,0,0,0,0,0,0,0,0,0,0,0,0,0,0,0,0,0,0,0,0,0,0,0,0,0,0,0,0,0,0,0,0,0,0,0,0,0,0,0,0,0,0,0,0,0,0,0,0,0,0,0,0,0,0,0,0,0,0,0,0,0,0,0,0,0,
0,0,0,0,0,0,0,0,0,0,0,0,0,0,0,0,0,0,0,0,0,0,0,0,0,0,0,0,0,0,0,0,0,0,0,0,0,0,0,0,0,0,0,0,0,0,0,0,0,0,0,0,0,0,0,0,0,0,0,0,0,0,0,0,0,0,0,0,0,0,
0,0,0,0,0,0,0,0,0,0,0,0,0,0,0,0,0,0,0,0,0,0,0,0,0,0,0,0,0,0,0,2873,2873,2873,0,0,2844,2873,2715,2874,0,0,0,0,0,0,0,0,0,0,0,0,2883,0,0,0,2883,0,0,0,0,0,0,0,0,0,0,0,0,0,
0,0,0,0,0,0,0,0,0,0,0,0,0,0,0,0,0,0,0,0,0,0,0,0,0,0,0,0,0,0,0,0,0,0,0,0,0,0,0,0,0,0,0,0,0,0,0,0,0,0,0,0,2915,0,0,0,2915,0,0,0,0,0,0,0,0,0,0,0,0,0,
0,0,0,0,0,0,0,0,0,0,0,0,0,0,0,0,0,0,0,0,0,0,0,0,0,0,0,0,0,0,0,0,0,0,0,0,0,0,0,0,0,0,0,2887,2888,0,0,0,0,0,0,0,2947,0,0,0,2947,0,0,0,0,0,0,0,0,0,0,0,0,0,
0,0,0,0,0,0,0,0,0,0,0,0,0,0,0,0,0,0,0,0,0,0,0,0,0,0,0,0,0,0,0,0,0,0,0,0,0,0,0,0,0,0,0,0,0,0,0,0,0,0,0,0,0,0,0,0,0,0,0,0,0,0,0,0,0,0,0,0,0,0,
5,6,0,0,0,0,0,0,0,1,2,3,0,0,0,0,0,0,0,0,0,0,0,0,0,0,0,0,0,0,0,0,0,0,0,0,0,0,0,0,0,0,0,0,0,0,0,0,0,0,0,5443,0,0,0,0,0,0,0,0,0,0,0,0,0,0,0,0,0,0,
30,31,0,0,0,0,0,0,0,26,27,28,0,0,0,0,0,0,0,0,0,0,0,0,0,0,0,0,0,0,0,0,0,0,0,0,0,0,0,0,0,0,0,0,0,0,0,0,0,0,0,0,0,0,0,0,0,0,0,0,0,0,0,0,0,0,0,0,0,0,
55,56,0,0,0,0,0,0,0,51,52,53,4,5,6,0,0,0,0,0,0,0,0,0,0,17,18,19,20,21,22,0,0,0,0,0,0,0,0,0,0,0,0,0,0,0,0,0,0,0,0,0,0,0,0,0,0,0,0,0,0,0,0,0,0,0,0,0,0,0,
80,81,0,0,0,0,0,0,0,76,77,78,29,30,31,0,0,0,0,0,0,0,0,0,0,42,43,44,45,46,47,0,0,0,0,0,0,0,0,0,0,0,0,0,0,0,0,0,0,0,0,0,0,0,0,0,0,0,0,0,0,0,0,0,0,0,0,0,0,0
</data>
 </layer>
 <layer id="5" name="AlwaysFront" width="70" height="60">
  <data encoding="csv">
0,2886,2887,2888,2889,0,0,0,0,0,0,0,0,0,0,0,0,0,0,0,0,0,0,0,0,0,0,0,0,0,0,0,0,0,0,2257,2258,2259,0,0,0,0,0,0,0,0,0,0,0,0,0,0,0,0,0,0,2758,2759,2760,2761,0,0,0,0,0,0,0,0,0,0,
0,0,0,0,0,0,0,0,0,0,0,0,0,0,0,0,0,0,0,0,0,0,0,0,0,0,0,0,0,0,0,0,0,0,0,2289,2290,2291,2321,2322,2323,2324,2325,2326,2327,0,0,0,0,0,104,0,106,0,0,106,2790,2791,2792,2793,0,0,104,0,106,0,0,0,0,0,
0,0,0,0,0,0,0,0,0,0,0,0,0,0,0,0,0,0,0,0,0,0,0,0,0,0,0,0,0,0,0,0,0,0,0,2330,2331,2332,2333,2334,2335,2336,2337,2338,2339,2340,2341,2342,0,0,0,0,0,0,0,0,0,0,0,0,0,0,0,0,0,0,0,0,0,0,
0,0,0,0,0,0,0,0,0,0,0,0,0,0,0,0,0,0,0,0,0,0,0,0,0,0,0,0,0,2758,2759,2760,2761,0,2361,2362,2363,2364,2365,2366,2367,2368,2369,2370,2371,2372,2373,2374,0,0,0,0,0,0,0,0,0,0,0,0,0,0,0,0,0,0,0,0,0,0,
0,0,0,0,0,0,0,0,0,0,0,0,0,0,0,0,0,0,0,0,0,0,0,0,2883,0,0,0,0,2790,2791,2792,2793,2392,2393,2394,2395,2396,0,0,0,0,0,0,0,0,0,0,0,0,0,0,0,0,0,0,0,0,0,0,0,0,0,0,0,0,0,0,0,0,
0,0,0,0,0,0,0,0,0,0,0,0,0,0,0,0,0,0,0,0,0,0,0,0,2915,0,0,0,0,2822,2823,2824,2825,2424,2425,0,0,0,0,0,0,0,0,0,0,0,0,0,0,0,0,0,0,0,0,0,0,0,0,0,0,0,0,0,0,0,0,0,0,0,
0,0,0,0,0,0,0,0,0,0,0,0,0,0,0,0,0,0,0,0,0,0,0,0,0,0,0,0,0,2854,2855,2856,2857,2456,0,0,0,0,0,0,0,0,0,0,0,0,0,0,0,0,0,0,0,0,0,0,0,0,0,0,0,0,0,0,0,0,0,0,0,0,
0,0,0,0,0,0,0,0,0,0,0,0,0,0,0,0,0,0,0,0,0,0,0,0,0,0,0,0,0,0,0,0,0,2883,0,0,0,0,0,0,0,0,0,0,0,0,0,0,0,0,0,0,0,0,0,0,0,0,0,0,0,0,0,0,0,0,0,0,0,0,
0,0,0,0,0,0,0,0,0,0,0,0,0,0,0,0,0,0,0,0,0,0,0,0,0,0,0,0,0,0,0,0,0,2915,0,0,0,0,0,0,0,0,0,0,0,0,0,0,0,0,0,0,0,0,0,0,2026,2027,2028,2029,0,0,0,0,0,0,0,0,0,0,
2759,2760,2761,0,0,0,0,0,0,0,0,0,0,0,0,0,0,0,0,0,0,0,0,0,0,0,0,0,0,0,0,0,0,0,0,0,0,0,0,0,0,0,0,0,0,0,0,0,0,0,0,0,0,0,2056,2057,2058,2059,2060,2061,0,0,0,0,0,0,0,0,0,0,
2791,2792,2793,0,0,0,0,0,0,0,0,0,0,0,0,0,0,0,0,0,0,0,0,0,0,0,0,0,0,0,0,0,0,0,0,0,0,0,0,0,0,0,0,0,0,0,0,0,0,0,0,0,0,0,2088,2089,2090,2091,2092,2093,2094,0,0,0,0,0,0,0,0,0,
2823,2824,2825,0,0,0,0,0,0,0,0,0,0,0,0,0,0,0,0,0,0,0,0,0,0,0,0,0,0,0,0,0,0,0,0,0,0,0,0,0,0,0,0,0,0,0,0,0,0,0,0,0,0,0,2120,2121,2122,2123,2124,2125,2126,2127,2128,2758,2759,2760,2761,0,0,0,
2855,2856,2857,0,0,2758,2759,2760,2761,0,0,0,0,0,0,0,0,0,0,0,0,0,0,0,2883,0,0,0,0,0,0,0,0,0,0,0,0,0,0,0,0,0,0,0,0,0,0,0,0,0,0,0,0,0,2152,2153,2154,2155,2156,2157,2158,2159,2160,2790,2791,2792,2793,0,0,0,
2887,2888,2889,0,0,2790,2791,2792,2793,0,0,0,0,0,0,0,0,0,0,0,0,0,0,0,2915,0,0,0,0,0,0,0,0,0,0,0,0,0,0,0,0,0,0,0,0,0,0,0,0,0,0,0,0,0,0,0,0,0,0,0,2190,2191,2192,2822,2823,2824,2825,0,0,0,
2919,2920,0,0,0,2822,2823,2824,2825,0,0,0,0,0,0,0,0,0,0,0,0,0,0,0,0,0,0,0,0,0,0,0,0,0,0,0,0,0,0,0,0,0,0,0,0,0,0,0,0,0,0,0,0,0,0,0,0,0,0,0,0,2223,2224,2854,2855,2856,2857,0,0,0,
2951,2952,0,0,0,0,0,0,0,0,0,0,0,0,0,0,0,0,0,0,0,0,0,0,0,0,0,0,0,0,0,0,0,0,0,0,0,0,0,0,0,0,0,0,0,0,0,0,0,0,0,0,0,0,0,0,0,0,0,0,0,0,0,0,0,0,0,0,0,0,
0,0,0,0,0,0,0,0,0,0,0,0,0,0,0,0,0,0,0,0,0,0,0,0,0,0,0,0,0,0,0,0,0,0,0,0,0,0,0,0,0,0,0,0,0,0,0,0,0,0,0,0,0,0,0,0,0,0,0,0,0,0,0,0,0,0,0,0,0,0,
1,2,3,0,0,0,0,0,0,0,0,0,0,0,0,0,0,0,0,0,0,0,0,0,0,0,0,0,0,0,0,0,0,0,0,0,0,0,0,0,0,2344,2345,2346,2347,2348,2349,0,0,0,0,0,0,0,0,0,0,0,0,0,0,0,0,0,0,0,0,0,0,0,
26,27,28,0,0,0,0,0,0,0,0,0,0,0,0,0,0,0,0,0,0,2883,0,0,0,0,0,0,0,0,0,0,0,0,0,0,0,0,0,0,0,2376,2377,2378,2379,2380,2381,0,0,0,0,0,0,0,0,0,0,0,0,0,0,0,0,0,0,0,0,0,0,0,
51,52,53,0,0,0,0,0,0,0,0,0,0,0,0,0,0,0,0,0,0,2915,0,0,0,0,0,0,0,0,0,0,0,0,0,0,0,0,2883,0,2407,2408,2409,2410,2411,2412,2413,0,0,0,0,0,0,0,0,0,0,0,0,0,0,0,0,0,0,0,0,0,0,0,
76,77,78,0,0,0,0,0,0,0,0,0,0,0,0,0,2758,2759,2760,2761,0,0,0,0,0,0,0,0,0,0,0,0,0,0,0,0,0,0,2915,0,2439,2440,2441,2442,2443,2444,2445,0,0,0,0,0,0,0,0,0,0,0,0,0,0,0,0,0,0,0,0,0,0,0,
104,102,106,0,0,0,0,0,0,0,0,0,0,0,0,0,2790,2791,2792,2793,0,0,0,0,0,0,0,0,0,0,0,0,0,0,0,0,0,0,0,0,2471,2472,2473,2474,2475,2476,2477,0,0,0,0,0,0,0,0,0,0,0,0,0,0,0,0,0,0,0,0,0,0,0,
129,127,131,0,0,0,0,0,0,0,0,0,0,0,0,0,2822,2823,2824,2825,0,0,0,0,0,0,0,0,0,0,0,0,0,0,0,0,0,0,0,0,2503,2504,2505,2506,2507,2508,2509,0,0,0,0,0,0,0,0,0,0,0,0,0,0,0,0,0,0,0,0,0,0,0,
2758,2759,2760,2761,0,0,0,0,0,0,0,0,0,0,0,0,0,0,0,2857,0,0,0,0,0,0,0,0,0,0,0,0,0,0,0,0,0,0,0,0,0,0,0,0,0,0,0,0,0,0,0,0,0,0,0,0,0,0,0,0,0,0,0,0,0,0,0,0,0,0,
2790,2791,2792,2793,0,0,0,0,0,0,0,0,0,0,0,0,0,0,0,0,0,0,0,0,0,0,0,0,0,0,0,0,0,0,0,0,0,0,0,0,0,0,0,0,0,0,0,0,0,0,0,0,0,0,0,0,0,0,0,0,0,0,0,0,0,0,0,0,0,0,
2822,2823,2824,2825,0,0,0,0,0,0,0,0,0,0,0,0,0,0,0,0,0,0,0,0,0,0,0,0,0,0,0,0,0,0,0,0,0,0,0,0,0,0,0,0,0,0,0,0,0,0,0,0,0,0,0,0,0,0,0,0,0,0,0,0,0,0,0,0,0,0,
2854,2855,2856,2857,0,0,0,0,0,0,0,0,0,0,0,0,0,0,0,0,0,0,0,0,0,0,0,2883,0,0,2883,0,0,0,0,0,0,0,0,0,0,0,0,0,0,0,0,0,0,0,0,0,0,0,0,0,0,0,0,0,0,0,0,0,0,0,0,0,0,0,
2886,2887,2888,2889,0,0,0,0,0,0,0,0,0,0,0,0,0,0,0,0,0,0,0,0,0,0,0,2915,0,0,2915,0,0,0,0,0,0,0,0,0,0,0,0,0,0,0,0,0,0,0,0,0,0,0,0,0,0,0,0,0,0,0,0,0,0,0,0,0,0,0,
0,0,0,0,2889,0,0,0,0,0,0,0,0,0,0,0,0,0,0,0,0,0,0,0,0,0,0,0,0,0,0,0,0,0,2864,2865,0,0,0,0,0,0,0,0,0,0,0,0,0,0,0,0,0,0,0,0,0,0,0,2353,2354,2355,2356,2357,0,0,0,0,0,0,
0,0,0,0,0,0,0,0,0,1986,1987,0,0,0,0,0,0,0,0,0,0,0,0,0,0,0,0,0,0,0,0,0,0,2895,2896,2897,0,0,0,0,0,0,0,0,0,0,0,0,0,0,0,0,0,0,0,0,0,0,2384,2385,2386,2387,2388,2389,0,0,0,0,0,0,
0,0,0,4,5,6,0,0,0,2018,2019,2020,0,0,0,0,0,0,0,0,0,0,0,0,0,0,0,0,0,0,0,0,0,0,0,0,0,0,0,0,0,0,0,0,0,0,0,0,0,0,0,0,0,0,0,0,0,2415,2416,2417,2418,2419,2420,2421,0,0,0,0,0,0,
0,0,0,29,30,31,0,0,2049,2050,2051,2052,2053,0,0,0,0,0,0,0,0,0,0,0,0,0,0,0,0,0,0,0,0,0,0,0,0,0,0,0,0,0,0,0,0,0,0,0,0,0,0,0,0,0,0,0,2446,2447,2448,2449,2450,2451,2452,2453,2454,0,0,0,0,0,
4,5,6,54,55,56,0,2080,2081,2082,2083,2084,2085,2086,0,0,0,0,0,0,0,0,0,0,0,0,0,0,0,0,0,0,0,0,0,0,0,0,0,0,0,0,0,0,0,0,0,0,0,0,0,0,0,0,0,0,2478,2479,2480,2481,2482,2483,2484,2485,2486,0,0,0,0,0,
29,30,31,79,80,81,0,2112,2113,2114,2115,2116,2117,2118,2119,0,0,0,0,0,0,0,0,0,0,0,0,0,0,0,0,0,0,0,0,0,0,0,0,0,0,0,0,0,0,0,0,0,0,0,0,0,0,0,0,0,2510,2511,2512,2513,2514,2515,2516,2517,2518,0,0,0,0,0,
54,55,56,0,0,0,0,0,0,0,0,0,0,2150,2151,0,0,0,0,1976,1977,1978,1979,1980,1981,1982,1983,0,0,0,0,0,0,0,0,0,0,0,0,0,0,0,0,0,0,0,0,0,0,0,0,0,0,0,0,0,2542,2543,2544,2545,2546,2547,2548,2549,2550,0,0,0,0,0,
79,80,81,0,0,0,0,0,0,0,0,0,0,0,0,0,0,0,0,2008,2009,2010,2011,2012,2013,2014,2015,0,0,0,0,0,0,0,0,0,0,0,0,0,0,0,0,0,0,0,0,0,0,0,0,0,0,0,0,0,0,2575,2576,2577,2578,0,2580,2581,2582,0,0,0,0,0,
0,0,0,0,0,0,0,0,0,0,0,0,0,0,0,0,0,0,0,2040,2041,2042,2043,2044,2045,2046,2047,0,0,0,0,0,0,0,0,0,0,0,0,0,0,0,0,0,0,0,0,0,0,0,0,0,0,0,0,0,0,2607,2608,2609,2610,0,0,0,0,0,0,0,0,0,
0,0,0,0,0,0,0,0,0,0,0,0,0,0,0,0,0,0,0,2072,2073,2074,2075,2076,2077,2078,2079,0,0,0,0,0,2758,2759,2760,2761,0,0,0,0,0,0,0,0,0,0,0,0,0,0,0,0,0,0,0,0,0,2639,2640,2641,2642,0,0,0,0,0,0,0,0,0,
0,0,0,0,0,0,0,0,0,0,0,0,0,0,0,0,0,0,0,0,0,0,0,0,0,0,0,0,0,0,0,0,2790,2791,2792,2793,0,0,0,0,0,0,0,0,0,0,0,0,0,0,0,0,0,0,0,0,0,0,0,0,0,0,0,0,0,0,0,0,0,0,
0,0,0,0,0,0,0,0,0,0,0,0,0,0,0,0,0,0,0,0,0,0,0,0,0,0,0,0,0,0,0,0,2822,2823,2824,2825,0,0,0,0,0,0,0,0,0,0,0,0,0,0,0,0,0,0,0,0,0,0,0,0,0,0,0,0,0,0,0,0,0,0,
0,0,0,0,0,0,0,0,0,0,0,0,0,0,0,0,0,2883,0,0,0,0,0,0,0,0,0,2883,0,0,0,0,0,0,0,0,0,0,0,0,0,0,0,0,0,0,0,0,0,0,0,0,0,0,0,0,0,0,0,0,0,0,0,0,0,0,0,0,0,0,
0,0,0,0,0,0,0,0,0,0,0,0,0,0,0,0,0,2915,0,0,0,0,0,0,0,0,0,2915,0,0,0,0,0,0,0,0,0,0,0,0,0,0,0,0,0,0,0,0,0,0,0,0,0,0,0,0,0,0,0,0,0,0,0,0,0,0,0,0,0,0,
0,0,0,0,0,0,0,0,0,0,0,0,0,0,0,0,0,0,0,0,0,0,0,0,0,0,0,0,0,0,0,0,0,0,0,0,0,0,0,0,0,0,0,0,0,0,0,0,0,0,2758,2759,2760,2761,0,0,0,0,0,0,0,0,0,0,0,0,0,0,0,0,
0,0,0,0,0,0,0,0,0,0,0,0,0,0,0,0,0,0,0,0,0,0,0,0,0,0,0,0,0,0,0,0,0,0,0,0,0,0,0,0,0,0,0,0,0,0,0,0,0,0,2790,2791,2792,2793,0,0,0,0,0,0,0,0,0,0,0,0,0,0,0,0,
0,0,0,0,0,0,0,0,0,0,0,0,0,0,0,0,0,0,0,0,0,0,0,0,0,0,0,0,0,0,0,0,0,0,0,0,0,0,0,0,0,0,0,0,0,0,0,0,0,0,2822,2823,2824,2825,0,0,0,0,0,0,0,0,0,0,0,0,0,0,0,0,
0,0,0,0,0,0,0,0,0,0,0,0,0,0,0,0,0,0,0,0,0,0,0,17,18,19,20,21,22,0,0,0,0,0,0,0,0,0,0,0,0,0,0,0,0,0,0,0,0,0,0,0,0,0,0,0,0,0,0,0,0,0,0,0,0,0,0,0,0,0,
0,0,0,0,0,0,0,0,0,0,0,0,0,0,0,0,0,0,0,0,0,0,0,42,43,44,45,46,47,0,0,0,0,0,0,0,0,0,0,0,0,0,0,0,0,0,0,0,0,0,0,0,0,0,0,0,0,0,0,0,0,0,0,0,0,0,0,0,0,0,
0,0,0,0,0,0,0,0,0,0,0,0,0,0,0,0,0,0,0,0,0,0,0,67,68,69,70,71,72,0,0,0,0,0,0,0,0,0,0,0,0,0,0,0,0,0,0,0,0,0,0,0,0,0,0,0,0,0,0,0,0,0,0,0,0,0,0,0,0,0,
0,0,0,0,0,0,0,0,0,0,0,0,0,0,0,0,0,0,0,0,0,0,0,92,93,94,95,96,97,0,0,0,0,0,0,0,0,0,0,0,0,0,0,0,0,0,0,0,0,0,0,0,0,0,0,0,0,0,0,0,0,0,0,0,0,0,0,0,0,0,
0,0,0,0,0,0,0,0,0,0,0,0,0,0,0,0,0,0,0,0,0,0,0,0,0,0,0,0,0,0,0,0,0,0,0,0,0,0,0,0,0,0,0,0,0,0,0,0,0,0,0,0,0,0,0,0,0,0,0,0,0,0,0,0,0,0,0,0,0,0,
0,0,0,0,0,0,0,0,0,0,0,0,0,0,0,0,0,0,0,0,0,0,0,0,0,0,0,0,0,0,0,0,0,0,0,0,0,0,0,0,0,0,2758,2759,2760,2761,0,0,0,0,0,0,0,0,0,0,0,0,0,0,0,0,0,0,0,0,0,0,0,0,
0,0,0,0,0,0,0,0,0,0,0,0,0,0,0,0,0,0,0,0,0,0,0,0,0,0,0,0,0,0,0,0,0,0,0,0,0,0,0,0,0,0,2790,2791,2792,2793,0,0,0,0,0,0,0,0,0,0,0,0,0,0,0,0,0,0,0,0,0,0,0,0,
0,0,0,0,0,0,0,0,0,0,0,0,0,0,0,0,0,0,0,0,0,0,0,0,0,0,0,0,0,0,0,0,0,0,0,0,0,0,0,0,0,0,2822,2823,2824,2825,0,0,0,0,0,0,2883,0,0,0,2883,0,0,0,0,0,0,0,0,0,0,0,0,0,
0,0,0,0,0,0,0,0,0,0,0,0,0,0,0,0,0,0,0,0,0,0,0,0,0,0,0,0,0,0,0,0,0,0,0,0,0,0,0,0,0,0,2854,2855,2856,2857,0,0,0,0,0,0,2915,0,0,0,2915,0,0,0,0,0,0,0,0,0,0,0,0,0,
0,0,0,0,0,0,0,0,0,0,0,0,0,0,0,0,0,0,0,0,0,0,0,0,0,0,0,0,0,0,0,0,0,0,0,0,0,0,0,0,0,0,0,0,0,0,0,0,0,0,0,0,0,0,0,0,0,0,0,0,0,0,0,0,0,0,0,0,0,0,
0,0,0,17,18,19,20,21,22,0,0,0,0,0,0,0,0,0,0,0,0,0,0,0,0,0,0,0,0,0,0,0,0,0,0,0,0,0,0,0,0,0,0,0,0,0,0,0,0,0,0,0,0,0,0,0,0,0,0,0,0,0,0,0,0,0,0,0,0,0,
0,0,0,42,43,44,45,46,47,0,0,0,0,0,0,0,0,0,0,0,0,0,0,0,0,0,0,0,0,0,0,0,0,0,0,0,0,0,0,0,0,0,0,0,0,0,0,0,0,0,0,0,0,0,0,0,0,0,0,0,0,0,0,0,0,0,0,0,0,0,
0,0,0,67,68,69,70,71,72,0,0,0,0,0,0,0,0,0,0,0,0,0,0,0,0,0,0,0,0,0,0,0,0,0,0,0,0,0,0,0,0,0,0,0,0,0,0,0,0,0,0,0,0,0,0,0,0,0,0,0,0,0,0,0,0,0,0,0,0,0,
0,0,0,92,93,94,95,96,97,0,0,0,4,5,6,0,0,0,0,0,0,0,0,0,0,0,0,0,0,0,0,0,0,17,18,19,20,21,22,0,0,0,0,0,0,0,0,0,0,0,0,0,0,0,0,0,0,0,0,0,0,0,0,0,0,0,0,0,0,0,
2759,2760,2761,0,0,119,120,0,0,0,0,0,29,30,31,0,0,0,0,0,0,0,0,0,0,0,0,0,0,0,0,0,0,42,43,44,45,46,47,0,0,17,18,19,20,21,22,0,0,0,0,0,0,0,0,0,7,8,9,10,0,0,0,0,0,0,0,0,0,0
</data>
 </layer>
 <objectgroup id="7" name="Collisions">
  <object id="2" x="1.5" y="49.5" width="169" height="54"/>
  <object id="3" x="206" y="18.5" width="47" height="50.5"/>
  <object id="4" x="187.5" y="26.5" width="14.5" height="50"/>
  <object id="5" x="171.5" y="50.5" width="14" height="40.5"/>
  <object id="6" x="257.5" y="8.5" width="19" height="49.5"/>
  <object id="7" x="278" y="1.5" width="37" height="37.5"/>
  <object id="8" x="315.5" y="3.5" width="39" height="29.5"/>
  <object id="9" x="356.5" y="0" width="410" height="31"/>
  <object id="10" x="766.5" y="0" width="35.5" height="37.5"/>
  <object id="11" x="802" y="40" width="91.5" height="69.5"/>
  <object id="12" x="894.5" y="40" width="6" height="37.5"/>
  <object id="14" x="901.5" y="50.5" width="8" height="22"/>
  <object id="15" x="916" y="85" width="21.5" height="19"/>
  <object id="16" x="954" y="45" width="115.5" height="62.5"/>
  <object id="17" x="1099" y="-4" width="23" height="74"/>
  <object id="18" x="1112" y="70" width="7" height="232"/>
  <object id="19" x="1107" y="303" width="13" height="67"/>
  <object id="20" x="1111" y="371" width="10" height="334"/>
  <object id="21" x="1105" y="702" width="15" height="30"/>
  <object id="22" x="1114" y="735" width="5" height="160"/>
  <object id="23" x="936" y="884.5" width="174" height="10"/>
  <object id="24" x="896" y="866" width="15.3333" height="93.3333"/>
  <object id="25" x="834.667" y="868" width="11.3333" height="92"/>
  <object id="26" x="845.333" y="942" width="51.3333" height="17.3333"/>
  <object id="27" x="917.333" y="899.167" width="15.3333" height="18.6667"/>
  <object id="28" x="761.167" y="898.167" width="73.3333" height="13.3333"/>
  <object id="29" x="742.333" y="914" width="14.6667" height="30.6667"/>
  <object id="30" x="629.333" y="916.333" width="110" height="14"/>
  <object id="31" x="597.667" y="904.5" width="30" height="23.3333"/>
  <object id="32" x="459" y="899.167" width="151.333" height="16.6667"/>
  <object id="33" x="351.333" y="886.5" width="108.667" height="14.6667"/>
  <object id="34" x="484.667" y="749.333" width="4.66667" height="114"/>
  <object id="35" x="486.667" y="845.333" width="56.6667" height="18"/>
  <object id="36" x="579.333" y="846.667" width="56.6667" height="15.3333"/>
  <object id="37" x="629.333" y="739.333" width="7.33333" height="108"/>
  <object id="38" x="486.667" y="750" width="149.333" height="14.6667"/>
  <object id="39" x="403.333" y="800" width="24" height="25.3333"/>
  <object id="40" x="693.333" y="886.667" width="19.3333" height="18"/>
  <object id="41" x="821.333" y="758" width="22" height="20"/>
  <object id="42" x="628" y="596" width="9.33333" height="89.3333"/>
  <object id="43" x="531.333" y="677.333" width="26.6667" height="22"/>
  <object id="45" x="679.333" y="627.333"/>
  <object id="46" x="758" y="644.667"/>
  <object id="47" x="678" y="692.667" width="5.33333" height="24"/>
  <object id="48" x="824.667" y="647.333"/>
  <object id="49" x="913.333" y="733.333" width="170.667" height="17.6667"/>
  <object id="50" x="1080" y="657.667" width="3.33333" height="63.3333"/>
  <object id="51" x="1081.67" y="655" width="20.6667" height="15.3333"/>
  <object id="52" x="1049" y="537.333" width="49.3333" height="94.3333"/>
  <object id="53" x="898" y="558.667" width="140.667" height="110"/>
  <object id="54" x="334" y="864.5" width="13" height="36.5"/>
  <object id="55" x="321.5" y="856" width="22.5" height="17"/>
  <object id="56" x="315.5" y="841" width="14.5" height="17.5"/>
  <object id="57" x="234" y="820.5" width="77.5" height="12"/>
  <object id="58" x="218.5" y="810" width="16.5" height="8.5"/>
  <object id="59" x="148" y="789" width="65" height="9.5"/>
  <object id="61" x="211" y="803.5"/>
  <object id="62" x="144.5" y="786"/>
  <object id="63" x="2.5" y="771.5" width="134" height="13"/>
  <object id="64" x="1" y="624.5" width="58.5" height="47"/>
  <object id="65" x="67.5" y="627.5" width="23.5" height="21"/>
  <object id="66" x="86" y="671" width="52.5" height="15.5"/>
  <object id="67" x="304" y="608" width="127.5" height="91.5"/>
  <object id="69" x="432.5" y="673" width="15" height="29"/>
  <object id="70" x="271" y="671.5" width="16.5" height="30.5"/>
  <object id="71" x="112" y="544" width="126" height="93"/>
  <object id="72" x="209" y="638.5" width="14" height="16"/>
  <object id="73" x="84.5" y="486" width="2.5" height="172"/>
  <object id="74" x="88.5" y="494" width="166" height="13"/>
  <object id="75" x="258" y="656" width="14.75" height="13.25"/>
  <object id="76" x="280" y="482.333" width="3.66667" height="154.667"/>
  <object id="77" x="274" y="494.333" width="5.33333" height="15.6667"/>
  <object id="78" x="64.6667" y="462.667" width="17" height="27.6667"/>
  <object id="79" x="73.6667" y="342.667" width="3.33333" height="117.667"/>
  <object id="80" x="33" y="321" width="45" height="22"/>
  <object id="81" x="37" y="148.333" width="3.66667" height="162"/>
  <object id="82" x="38.6667" y="159.667" width="185.333" height="13"/>
  <object id="83" x="245" y="159.667" width="3.33333" height="205"/>
  <object id="84" x="248.667" y="351.667" width="55.3333" height="14.3333"/>
  <object id="85" x="96" y="272" width="29.3333" height="24"/>
  <object id="86" x="273.333" y="406" width="26" height="18.6667"/>
  <object id="88" x="272.333" y="224.333" width="48.3333" height="45"/>
  <object id="89" x="321.333" y="224.333" width="14" height="28.6667"/>
  <object id="90" x="258" y="169" width="13.3333" height="38"/>
  <object id="91" x="246" y="160.25" width="25.25" height="11"/>
  <object id="92" x="0.75" y="160" width="35.25" height="13.25"/>
  <object id="93" x="384.667" y="105.667" width="15" height="19.6667"/>
  <object id="94" x="384.667" y="234" width="14.3333" height="21.3333"/>
  <object id="95" x="483.667" y="131.333" width="22" height="21.3333"/>
  <object id="96" x="563" y="30" width="202.5" height="55"/>
  <object id="97" x="554.5" y="48" width="6.5" height="44"/>
  <object id="98" x="546" y="56" width="4.5" height="41.5"/>
  <object id="99" x="529.5" y="71.5" width="15.5" height="31"/>
  <object id="100" x="529" y="100.5" width="25.5" height="57"/>
  <object id="101" x="556" y="142.5" width="51" height="29.5"/>
  <object id="102" x="528.5" y="157.5" width="27.5" height="14"/>
  <object id="103" x="611" y="87" width="75" height="61"/>
  <object id="104" x="687" y="127.5" width="35.5" height="19"/>
  <object id="105" x="724" y="121" width="39.5" height="27"/>
  <object id="106" x="756" y="87.5" width="7.5" height="33"/>
  <object id="107" x="817" y="160.5" width="124" height="12"/>
  <object id="108" x="640" y="352.5" width="111" height="38.5"/>
  <object id="109" x="606.5" y="349" width="18.5" height="16"/>
  <object id="110" x="821" y="319.5" width="69" height="63.5"/>
  <object id="111" x="863.5" y="205.5" width="141" height="80.5"/>
  <object id="112" x="829" y="272" width="17" height="13.5"/>
  <object id="113" x="789" y="258" width="6.5" height="26.5"/>
  <object id="114" x="795.5" y="284.5"/>
  <object id="115" x="1016.5" y="262.5"/>
  <object id="116" x="1026" y="263.5" width="24.5" height="17.5"/>
  <object id="117" x="1058" y="0" width="10" height="49"/>
  <object id="118" x="759.5" y="387.5"/>
  <object id="119" x="344.667" y="338"/>
  <object id="120" x="439.333" y="465.333"/>
  <object id="122" x="490.333" y="465.667"/>
  <object id="123" x="528.5" y="494.5" width="43.5" height="31"/>
  <object id="124" x="657" y="506" width="15.5" height="35"/>
  <object id="125" x="672.5" y="490" width="61.5" height="17.5"/>
  <object id="126" x="736" y="507.5" width="14.5" height="30"/>
  <object id="127" x="883.333" y="449.333" width="4.66667" height="154.667"/>
  <object id="128" x="882" y="578.667" width="12.6667" height="26.6667"/>
  <object id="129" x="885.333" y="462" width="198" height="11.3333"/>
  <object id="130" x="1081.33" y="446.667" width="2" height="78.6667"/>
  <object id="131" x="1058" y="509.333" width="23.3333" height="15.3333"/>
  <object id="132" x="852.5" y="628" width="6" height="134.5"/>
  <object id="134" x="273.333" y="268.333" width="29.3333" height="16"/>
 </objectgroup>
 <objectgroup id="8" name="ActionStop">
  <object id="133" name="ActionStop" x="0" y="105" width="7" height="54"/>
 </objectgroup>
 <objectgroup id="10" name="ActionStore">
  <object id="135" x="688.25" y="153.667" width="31.5" height="22"/>
 </objectgroup>
 <objectgroup id="11" name="Spawns">
  <object id="137" name="FromStore" x="704" y="210"/>
  <object id="138" name="FromBusStop" x="12.75" y="114.5" width="23" height="23"/>
 </objectgroup>
</map>
